/* XPM */
static char * wall1_xpm[] = {
"64 64 41 1",
" 	c #0B0C0F",
".	c #17181C",
"+	c #0E0F12",
"@	c #1C1E22",
"#	c #1A1B1F",
"$	c #101114",
"%	c #1F2125",
"&	c #18191D",
"*	c #23252A",
"=	c #1B1C20",
"-	c #27292E",
";	c #222327",
">	c #292B30",
",	c #25272C",
"'	c #1E2024",
")	c #2E3035",
"!	c #131417",
"~	c #32343A",
"{	c #36383E",
"]	c #383A40",
"^	c #545760",
"/	c #41434B",
"(	c #42454D",
"_	c #43464E",
":	c #3E4147",
"<	c #3C3F45",
"[	c #3B3E44",
"}	c #393B41",
"|	c #37393F",
"1	c #34363C",
"2	c #2F3136",
"3	c #4C433C",
"4	c #2C2E33",
"5	c #4B423A",
"6	c #4D4746",
"7	c #433E3D",
"8	c #2C2A2A",
"9	c #1C1A1B",
"0	c #211F20",
"a	c #272424",
"b	c #302C2C",
"                                                                ",
"...........+++++++++@......................+++++++++@...........",
"###########$$$$$$$$$%######################$$$$$$$$$%###########",
"@@@@@@@@@@@&&&&&&&&&*@@@@@@@@@@@@@@@@@@@@@@&&&&&&&&&*@@@@@@@@@@@",
"%%%%%%%%%%%=========-%%%%%%%%%%%%%%%%%%%%%%=========-%%%%%%%%%%%",
";;;;;;;;;;;=========>;;;;;;;;;;;;;;;;;;;;;;=========>;;;;;;;;;;;",
",,,,,,,,,,,'''''''''),,,,,,,,,,,,,,,,,,,,,,'''''''''),,,,,,,,,,,",
">>>>>>>>>>>!!!!!!!!!>>>>>>>>>>>>>>>>>>>>>>>!!!!!!!!!>>>>>>>>>>>>",
"))))))))))))))))))))))))))))))))))))))))))))))))))))))))))))))))",
"~~~~~~~~~~~~~~~~~~~~~~~~~~~~~~~~~~~~~~~~~~~~~~~~~~~~~~~~~~~~~~~~",
"{{{{{{{{{{{{{{{{{{{{{{{{{{{{{{{{{{{{{{{{{{{{{{{{{{{{{{{{{{{{{{{{",
"]]]]]]]]]]]]]]]]]]]]]]]]]]]]]]]]]]]]]]]]]]]]]]]]]]]]]]]]]]]]]]]]",
"''''''''''''''''''''''''''''''''''''''''''''''''''''''''''''''''",
"^^^^^^^^^^^^^^^^^^^^^^^^^^^^^^^^^^^^^^^^^^^^^^^^^^^^^^^^^^^^^^^^",
"///////////////////////^'//////////////////////^'/////////^'////",
"(((((((((((((((((((((((^'((((((((((((((((((((((^'(((((((((^'((((",
"_______________________^'__^_________________^_^'_________^'____",
"(((((((((((((((((((((((^'(('((((((((((((((((('(^'(((((((((^'((((",
"(((((((((((((((((((((((^'((((((((((((((((((((((^'(((((((((^'((((",
"(((((((((((((((((((((((^'((((((((((((((((((((((^'(((((((((^'((((",
"///////////////////////^'//////////////////////^'/////////^'////",
"///////////////////////^'//////////////////////^'////////^'/////",
"///////////////////////^'//////////////////////^'///////^'//////",
":::::::::::::::::::::::^'::::::::::::::::::::::^'::::::^':::::::",
":::::::::::::::::::::::^'::::::::::::::::::::::^':::::^'::::::::",
":::::::::::::::::::::::^'::::::::::::::::::::::^'::::^':::::::::",
"<<<<<<<<<<<<<<<<<<<<<<<^'<<<<<<<<<<<<<<<<<<<<<<^'<<<^'<<<<<<<<<<",
"<<<<<<<<<<<<<<<<<<<<<<<^'''''''''''''''''''''''''<<^'<<<<<<<<<<<",
"<<<<<<<<<<<<<<<<<<<<<<<^'^^^^^^^^^^^^^^^^^^^^^^^'<^'<<<<<<<<<<<<",
"<<<<<<<<<<<<<<<<<<<<<<<^'<<<<<<<<<<<<<<<<<<<<<<^'^'<<<<<<<<<<<<<",
"[[[[[[[[[[[[[[[[[[[[[[[^'[[[[[[[[[[[[[[[[[[[[[[^''[[[[[[[[[[[[[[",
"[[[[[[[[[[[[[[[[[[[[[[[^'[[^[[[[[[[[[[[[[[[[[^[^'[[[[[[[[[[[[[[[",
"[[[[[[[[[[[[[[[[[[[[[[[^'[['[[[[[[[[[[[[[[[[['[^'[[[[[[[[[[[[[[[",
"}}}}}}}}}}}}}}}}}}}}}}}^'}}}}}}}}}}}}}}}}}}}}}}^'}}}}}}}}}}}}}}}",
"}}}}}}}}}}}}}}}}}}}}}}^''}}}}}}}}}}}}}}}}}}}}}}^'}}}}}}}}}}}}}}}",
"}}}}}}}}}}}}}}}}}}}}}^'^'}}}}}}}}}}}}}}}}}}}}}}^'}}}}}}}}}}}}}}}",
"||||||||||||||||||||^'|^'||||||||||||||||||||||^'|||||||||||||||",
"|||||||||||||||||||^'||^'||||||||||||||||||||||^''||||||||||||||",
"||||||||||||||||||^'|||^'||||||||||||||||||||||^'''|||||||||||||",
"11111111111111111^'1111^'1111111111111111111111^'''1111111111111",
"1111111111111111^'11111^'1111111111111111111111^'''1111111111111",
"111111111111111^'111111^'1111111111111111111111^'''1111111111111",
"~~~~~~~~~~~~~~^'~~~~~~~^'~~~~~~~~~~~~~~~~~~~~~~^'''~~~~~~~~~~~~~",
"~~~~~~~~~~~~~^'~~~~~~~~^'~~~~~~~~~~~~~~~~~~~~~~^'''~~~~~~~~~~~~~",
"~~~~~~~~~~~~^'~~~~~~~~~^'~~~~~~~~~~~~~~~~~~~~~~^''~~~~~~~~~~~~~~",
"22222222222^'2222222222^'2222222222222222222222^'222222222222222",
"2222222222^'22222222222^'2222222222222222222222^'222222222222222",
"222222222^'222222222222^'2222222222222222222222^'222222222222222",
"))))))))^')))))))))))))^'))))))))))))))))))))))^')))))))))))))))",
")))))))^'))))))))))))))^'))))))))))))))))))))))^')))))))))))))))",
")))))))^'))))))))))))))^'))333)))333)))333)))33^')))))))))))))))",
"4444444^'44444444444444^'4555444555444555444555^'444444444444444",
"4444444^'44444444444444^'5554445554445554445554^'444444444444444",
"4444444^'44444444444444^'5544455544455544455544^'444444444444444",
"''''''''''''''''''''''''''''''''''''''''''''''''''''''''''''''''",
"6666666666666666666666666666666666666666666666666666666666666666",
"7777777777777777777777777777777777777777777777777777777777777777",
"8888888888888888888888888888888888888888888888888888888888888888",
"9999999999999999999999999999999999999999999999999999999999999999",
"0000000000000000000900000000000000000000900000000000000000000000",
"aaaaaaaaaaaaaaaaaaa9aaaaaaaaaaaaaaaaaaaa9aaaaaaaaaaaaaaaaaaaaaaa",
"bbbbbbbbbbbbbbbbbbb9bbbbbbbbbbbbbbbbbbbb9bbbbbbbbbbbbbbbbbbbbbbb",
"0000000000000000000900000000000000000000900000000000000000000000",
"9999999999999999999999999999999999999999999999999999999999999999"};
