/* XPM */
static char * wall4_xpm[] = {
"64 64 44 1",
" 	c #0B0C0F",
".	c #17181C",
"+	c #0E0F12",
"@	c #1C1E22",
"#	c #1A1B1F",
"$	c #101114",
"%	c #1F2125",
"&	c #18191D",
"*	c #23252A",
"=	c #1B1C20",
"-	c #27292E",
";	c #222327",
">	c #292B30",
",	c #25272C",
"'	c #1E2024",
")	c #2E3035",
"!	c #131417",
"~	c #32343A",
"{	c #36383E",
"]	c #383A40",
"^	c #545760",
"/	c #41434B",
"(	c #42454D",
"_	c #43464E",
":	c #412629",
"<	c #3E4147",
"[	c #402527",
"}	c #3C3F45",
"|	c #402426",
"1	c #3B3E44",
"2	c #393B41",
"3	c #37393F",
"4	c #34363C",
"5	c #2F3136",
"6	c #4C433C",
"7	c #2C2E33",
"8	c #4B423A",
"9	c #4D4746",
"0	c #433E3D",
"a	c #2C2A2A",
"b	c #1C1A1B",
"c	c #211F20",
"d	c #272424",
"e	c #302C2C",
"                                                                ",
"...........+++++++++@......................+++++++++@...........",
"###########$$$$$$$$$%######################$$$$$$$$$%###########",
"@@@@@@@@@@@&&&&&&&&&*@@@@@@@@@@@@@@@@@@@@@@&&&&&&&&&*@@@@@@@@@@@",
"%%%%%%%%%%%=========-%%%%%%%%%%%%%%%%%%%%%%=========-%%%%%%%%%%%",
";;;;;;;;;;;=========>;;;;;;;;;;;;;;;;;;;;;;=========>;;;;;;;;;;;",
",,,,,,,,,,,'''''''''),,,,,,,,,,,,,,,,,,,,,,'''''''''),,,,,,,,,,,",
">>>>>>>>>>>!!!!!!!!!>>>>>>>>>>>>>>>>>>>>>>>!!!!!!!!!>>>>>>>>>>>>",
"))))))))))))))))))))))))))))))))))))))))))))))))))))))))))))))))",
"~~~~~~~~~~~~~~~~~~~~~~~~~~~~~~~~~~~~~~~~~~~~~~~~~~~~~~~~~~~~~~~~",
"{{{{{{{{{{{{{{{{{{{{{{{{{{{{{{{{{{{{{{{{{{{{{{{{{{{{{{{{{{{{{{{{",
"]]]]]]]]]]]]]]]]]]]]]]]]]]]]]]]]]]]]]]]]]]]]]]]]]]]]]]]]]]]]]]]]",
"''''''''''''''''''''''''''''''''''''''''''''''''''''''''''''''''",
"^^^^^^^^^^^^^^^^^^^^^^^^^^^^^^^^^^^^^^^^^^^^^^^^^^^^^^^^^^^^^^^^",
"///////////////////////^'//////////////////////^'/////////^'////",
"(((((((((((((((((((((((^'((((((((((((((((((((((^'(((((((((^'((((",
"_______________________^'__^_________________^_^'_________^'____",
"(((((((((((((((((((((((^'(('((((((((((((((((('(^'(((((((((^'((((",
"(((((((((((((((((((((((^'((((((((((((((((((((((^'(((((((((^'((((",
"(((((((((((((((((((((((^'((((((((((((((((((((((^'(((((((((^'((((",
"///////////////////////^'//////////////////////^'/////////^'////",
"///////////////////////^'//////////////////////^'////////^'/////",
"////////:/::/://///////^'//////////////////////^'///////^'//////",
"<<<<<<<<[<[[<[<<<<<<<<<^'<<<<<<<<<<<<<<<<<<<<<<^'<<<<<<^'<<<<<<<",
"<<<<<<<<[<[[<[<<<<<<<<<^'<<<<<<<<<<<<<<<<<<<<<<^'<<<<<^'<<<<<<<<",
"<<<<<<<<[<[[<[<<<<<<<<<^'<<<<<<<<<<<<<<<<<<<<<<^'<<<<^'<<<<<<<<<",
"}}}}}}}}||||||}}}}}}}}}^'}}}}}}}}}}}}}}}}}}}}}}^'}}}^'}}}}}}}}}}",
"}}}}}}}}||}}||}}}}}}}}}^'''''''''''''''''''''''''}}^'}}}}}}}}}}}",
"}}}}}}}}}}}}}}}}}}}}}}}^'^^^^^^^^^^^^^^^^^^^^^^^'}^'}}}}}}}}}}}}",
"}}}}}}}}}}}}}}}}}}}}}}}^'}}}}}}}}}}}}}}}}}}}}}}^'^'}}}}}}}}}}}}}",
"11111111111111111111111^'1111111111111111111111^''11111111111111",
"11111111111111111111111^'11^11111111111111111^1^'111111111111111",
"11111111111111111111111^'11'11111111111111111'1^'111111111111111",
"22222222222222222222222^'2222222222222222222222^'222222222222222",
"2222222222222222222222^''2222222222222222222222^'222222222222222",
"222222222222222222222^'^'2222222222222222222222^'222222222222222",
"33333333333333333333^'3^'3333333333333333333333^'333333333333333",
"3333333333333333333^'33^'3333333333333333333333^''33333333333333",
"333333333333333333^'333^'3333333333333333333333^'''3333333333333",
"44444444444444444^'4444^'4444444444444444444444^'''4444444444444",
"4444444444444444^'44444^'4444444444444444444444^'''4444444444444",
"444444444444444^'444444^'4444444444444444444444^'''4444444444444",
"~~~~~~~~~~~~~~^'~~~~~~~^'~~~~~~~~~~~~~~~~~~~~~~^'''~~~~~~~~~~~~~",
"~~~~~~~~~~~~~^'~~~~~~~~^'~~~~~~~~~~~~~~~~~~~~~~^'''~~~~~~~~~~~~~",
"~~~~~~~~~~~~^'~~~~~~~~~^'~~~~~~~~~~~~~~~~~~~~~~^''~~~~~~~~~~~~~~",
"55555555555^'5555555555^'5555555555555555555555^'555555555555555",
"5555555555^'55555555555^'5555555555555555555555^'555555555555555",
"555555555^'555555555555^'5555555555555555555555^'555555555555555",
"))))))))^')))))))))))))^'))))))))))))))))))))))^')))))))))))))))",
")))))))^'))))))))))))))^'))))))))))))))))))))))^')))))))))))))))",
")))))))^'))))))))))))))^'))666)))666)))666)))66^')))))))))))))))",
"7777777^'77777777777777^'7888777888777888777888^'777777777777777",
"7777777^'77777777777777^'8887778887778887778887^'777777777777777",
"7777777^'77777777777777^'8877788877788877788877^'777777777777777",
"''''''''''''''''''''''''''''''''''''''''''''''''''''''''''''''''",
"9999999999999999999999999999999999999999999999999999999999999999",
"0000000000000000000000000000000000000000000000000000000000000000",
"aaaaaaaaaaaaaaaaaaaaaaaaaaaaaaaaaaaaaaaaaaaaaaaaaaaaaaaaaaaaaaaa",
"bbbbbbbbbbbbbbbbbbbbbbbbbbbbbbbbbbbbbbbbbbbbbbbbbbbbbbbbbbbbbbbb",
"cccccccccccccccccccbccccccccccccccccccccbccccccccccccccccccccccc",
"dddddddddddddddddddbddddddddddddddddddddbddddddddddddddddddddddd",
"eeeeeeeeeeeeeeeeeeebeeeeeeeeeeeeeeeeeeeebeeeeeeeeeeeeeeeeeeeeeee",
"cccccccccccccccccccbccccccccccccccccccccbccccccccccccccccccccccc",
"bbbbbbbbbbbbbbbbbbbbbbbbbbbbbbbbbbbbbbbbbbbbbbbbbbbbbbbbbbbbbbbb"};
