/* XPM */
static char * dither_curved_xpm[] = {
"1024 437 2 1",
" 	c None",
".	c #000000",
"................................................................................................................................................................................................................................................................................................................................................................................................................................................................................................................................................................................................................................................................................................................................................................................................................................................................................................................................................................................................................................................................",
"................................................................................................................................................................................................................................................................................................................................................................................................................................................................................................................................................................................................................................................................................................................................................................................................................................................................................................................................................................................................................................................................",
"................................................................................................................................................................................................................................................................................................................................................................................................................................................................................................................................................................................................................................................................................................................................................................................................................................................................................................................................................................................................................................................................",
"................................................................................................................................................................................................................................................................................................................................................................................................................................................................................................................................................................................................................................................................................................................................................................................................................................................................................................................................................................................................................................................................",
"................................................................................................................................................................................................................................................................................................................................................................................................................................................................................................................................................................................................................................................................................................................................................................................................................................................................................................................................................................................................................................................................",
"................................................................................................................................................................................................................................................................................................................................................................................................................................................................................................................................................................................................................................................................................................................................................................................................................................................................................................................................................................................................................................................................",
"................................................................................................................................................................................................................................................................................................................................................................................................................................................................................................................................................................................................................................................................................................................................................................................................................................................................................................................................................................................................................................................................",
"................................................................................................................................................................................................................................................................................................................................................................................................................................................................................................................................................................................................................................................................................................................................................................................................................................................................................................................................................................................................................................................................",
"................................................................................................................................................................................................................................................................................................................................................................................................................................................................................................................................................................................................................................................................................................................................................................................................................................................................................................................................................................................................................................................................",
"................................................................................................................................................................................................................................................................................................................................................................................................................................................................................................................................................................................................................................................................................................................................................................................................................................................................................................................................................................................................................................................................",
"................................................................................................................................................................................................................................................................................................................................................................................................................................................................................................................................................................................................................................................................................................................................................................................................................................................................................................................................................................................................................................................................",
"................................................................................................................................................................................................................................................................................................................................................................................................................................................................................................................................................................................................................................................................................................................................................................................................................................................................................................................................................................................................................................................................",
"................................................................................................................................................................................................................................................................................................................................................................................................................................................................................................................................................................................................................................................................................................................................................................................................................................................................................................................................................................................................................................................................",
"................................................................................................................................................................................................................................................................................................................................................................................................................................................................................................................................................................................................................................................................................................................................................................................................................................................................................................................................................................................................................................................................",
"................................................................................................................................................................................................................................................................................................................................................................................................................................................................................................................................................................................................................................................................................................................................................................................................................................................................................................................................................................................................................................................................",
"................................................................................................................................................................................................................................................................................................................................................................................................................................................................................................................................................................................................................................................................................................................................................................................................................................................................................................................................................................................................................................................................",
"................................................................................................................................................................................................................................................................................................................................................................................................................................................................................................................................................................................................................................................................................................................................................................................................................................................................................................................................................................................................................................................................",
"................................................................................................................................................................................................................................................................................................................................................................................................................................................................................................................................................................................................................................................................................................................................................................................................................................................................................................................................................................................................................................................................",
"................................................................................................................................................................................................................................................................................................................................................................................................................................................................................................................................................................................................................................................................................................................................................................................................................................................................................................................................................................................................................................................................",
"................................................................................................................................................................................................................................................................................................................................................................................................................................................................................................................................................................................................................................................................................................................................................................................................................................................................................................................................................................................................................................................................",
"................................................................................................................................................................................................................................................................................................................................................................................................................................................................................................................................................................................................................................................................................................................................................................................................................................................................................................................................................................................................................................................................",
"................................................................................................................................................................................................................................................................................................................................................................................................................................................................................................................................................................................................................................................................................................................................................................................................................................................................................................................................................................................................................................................................",
"................................................................................................................................................................................................................................................................................................................................................................................................................................................................................................................................................................................................................................................................................................................................................................................................................................................................................................................................................................................................................................................................",
"................................................................................................................................................................................................................................................................................................................................................................................................................................................................................................................................................................................................................................................................................................................................................................................................................................................................................................................................................................................................................................................................",
"................................................................................................................................................................................................................................................................................................................................................................................................................................................................................................................................................................................................................................................................................................................................................................................................................................................................................................................................................................................................................................................................",
"................................................................................................................................................................................................................................................................................................................................................................................................................................................................................................................................................................................................................................................................................................................................................................................................................................................................................................................................................................................................................................................................",
"................................................................................................................................................................................................................................................................................................................................................................................................................................................................................................................................................................................................................................................................................................................................................................................................................................................................................................................................................................................................................................................................",
"................................................................................................................................................................................................................................................................................................................................................................................................................................................................................................................................................................................................................................................................................................................................................................................................................................................................................................................................................................................................................................................................",
"................................................................................................................................................................................................................................................................................................................................................................................................................................................................................................................................................................................................................................................................................................................................................................................................................................................................................................................................................................................................................................................................",
"................................................................................................................................................................................................................................................................................................................................................................................................................................................................................................................................................................................................................................................................................................................................................................................................................................................................................................................................................................................................................................................................",
"................................................................................................................................................................................................................................................................................................................................................................................................................................................................................................................................................................................................................................................................................................................................................................................................................................................................................................................................................................................................................................................................",
"................................................................................................................................................................................................................................................................................................................................................................................................................................................................................................................................................................................................................................................................................................................................................................................................................................................................................................................................................................................................................................................................",
"................................................................................................................................................................................................................................................................................................................................................................................................................................................................................................................................................................................................................................................................................................................................................................................................................................................................................................................................................................................................................................................................",
"................................................................................................................................................................................................................................................................................................................................................................................................................................................................................................................................................................................................................................................................................................................................................................................................................................................................................................................................................................................................................................................................",
"................................................................................................................................................................................................................................................................................................................................................................................................................................................................................................................................................................................................................................................................................................................................................................................................................................................................................................................................................................................................................................................................",
"............................................................................................................................................................................................................................................................................................................................................................................................................................................................................................................... ....... ....... ....... ....... ................................................................................................................................................................................................................................................................................................................................................................................................................................................................................................................",
"............................................................................................................................................................................................................................................................................................................................................................................................................................................... ....... ....... ....... ....... ....... ....... ....... ....... ....... ....... ....... ....... ....... ....... ....... ....... ....... ....... ....... ....... ................................................................................................................................................................................................................................................................................................................................................................................................................................................",
"............................................................................................................................................................................................................................................................................................................................................................................................................... ....... ....... ....... ....... ....... ....... ....... ....... ....... ....... ....... ............................................... ....... ....... ....... ....... ....... ....... ....... ....... ....... ....... ....... ................................................................................................................................................................................................................................................................................................................................................................................................................",
"............................................................................................................................................................................................................................................................................................................................................................................... ....... ....... ....... ....... ....... ....... ....... ............................................................................................................................................................................... ....... ....... ....... ....... ....... ....... ....... ................................................................................................................................................................................................................................................................................................................................................................................",
"....................................................................................................................................................................................................................................................................................................................................................... ....... ....... ....... ....... ....... ....... ............................................................................................................................................................................................................................................... ....... ....... ....... ....... ....... ....... ........................................................................................................................................................................................................................................................................................................................................................",
"....................................................................................................................................................................................................................................................................................................................................... ....... ....... ....... ....... ............................................................................................................................................................................................................................................................................................................... ....... ....... ....... ....... ........................................................................................................................................................................................................................................................................................................................................",
"....................................................................................................................................................................................................................................................................................................................... ....... ....... ....... ............................................................................................................................................................................................................................................................................................................................................................... ....... ....... ....... ........................................................................................................................................................................................................................................................................................................................",
"....................................................................................................................................................................................................................................................................................................... ....... ....... ....... .............................................................................................................................................................................. ....... ....... ....... ....... ................................................................................................................................................................................ ....... ....... ....... ........................................................................................................................................................................................................................................................................................................",
"....................................................................................................................................................................................................................................................................................... ....... ....... ....... .............................................................................................................................. ....... ....... ....... ....... ....... ....... ....... ........ ....... ....... ....... ....... ...... ....... ....... ....... ....... ....... ....... ....... ................................................................................................................................ ....... ....... ....... ........................................................................................................................................................................................................................................................................................",
"............................................................................................................................................................................................................................................................................... ....... ....... .............................................................................................................. ....... ....... ....... ........ ....... ....... ....... ....... ....... ....... ....... ....... ....... ....... ....... ....... ....... ....... ....... ....... ....... ....... ....... ....... ...... ....... ....... ....... ................................................................................................................ ....... ....... ................................................................................................................................................................................................................................................................................",
"............................................................................................................................................................................................................................................................... ....... ....... .............................................................................................. ....... ....... ....... ........ ....... ....... ....... ....... ....... ....... ....... ....... ....... ....... ....... ............................................... ....... ....... ....... ....... ....... ....... ....... ....... ....... ....... ....... ...... ....... ....... ....... ................................................................................................ ....... ....... ................................................................................................................................................................................................................................................................",
"....................................................................................................................................................................................................................................................... ....... ....... .............................................................................. ....... ....... ........ ....... ....... ....... ....... ....... ....... ....... ............................................................................................................................................................................... ....... ....... ....... ....... ....... ....... ....... ...... ....... ....... ................................................................................ ....... ....... ....... ................................................................................................................................................................................................................................................",
"....................................................................................................................................................................................................................................... ....... ....... .............................................................................. ....... ........ ....... ....... ....... ....... ....... ....... ............................................................................................................................................................................................................................................... ....... ....... ....... ....... ....... ....... ...... ....... ................................................................................ ....... ....... ........................................................................................................................................................................................................................................",
"............................................................................................................................................................................................................................... ....... ....... ...................................................................... ....... ........ ....... ....... ....... ....... ............................................................................................................................................................................................................................................................................................................... ....... ....... ....... ....... ...... ....... ................................................................................ ....... ................................................................................................................................................................................................................................",
"....................................................................................................................................................................................................................... ....... ...................................................................... ....... ........ ....... ....... ....... ............................................................................................................................................................................................................................................................................................................................................................... ....... ....... ....... ...... ....... ........................................................................ ....... ........................................................................................................................................................................................................................",
"............................................................................................................................................................................................................... ....... .............................................................. ....... ........ ....... ....... ....... .............................................................................................................................................................................. ....... ....... ....... ....... ................................................................................................................................................................................ ....... ....... ....... ...... ....... ................................................................ ....... ....... ........................................................................................................................................................................................................",
"....................................................................................................................................................................................................... ....... .............................................................. ........ ....... ....... ....... .............................................................................................................................. ....... ....... ....... ....... ....... ....... ....... ........ ....... ....... ....... ....... ...... ....... ....... ....... ....... ....... ....... ....... ................................................................................................................................ ....... ....... ....... ...... ....... ........................................................ ....... ....... ................................................................................................................................................................................................",
"....................................................................................................................................................................................... ....... ....... ...................................................... ....... ........ ....... ....... .............................................................................................................. ....... ....... ....... ........ ....... ....... ....... ....... ....... ....... ....... ....... ....... ....... ....... ....... ....... ....... ....... ....... ....... ....... ....... ....... ...... ....... ....... ....... ................................................................................................................ ....... ....... .............. ................................................................ ....... ........................................................................................................................................................................................",
"............................................................................................................................................................................... ....... ....... ...................................................... ........ ....... ....... .............................................................................................. ....... ....... ....... ........ ....... ....... ....... ....... ....... ....... ....... ....... ....... ....... ....... ............................................... ....... ....... ....... ....... ....... ....... ....... ....... ....... ....... ....... ...... ....... ....... ....... ................................................................................................ ....... ....... ...... ....... ........................................................ ....... ................................................................................................................................................................................",
"....................................................................................................................................................................... ....... ...................................................... ....... ........ ....... ....... .............................................................................. ....... ....... ........ ....... ....... ....... ....... ....... ....... ....... ............................................................................................................................................................................... ....... ....... ....... ....... ....... ....... ....... ...... ....... ....... ................................................................................ ....... ....... ....... ...... ........................................................ ....... ........................................................................................................................................................................",
"............................................................................................................................................................... ....... ...................................................... ........ ....... ....... .............................................................................. ....... ........ ....... ....... ....... ....... ....... ....... ............................................................................................................................................................................................................................................... ....... ....... ....... ....... ....... ....... ...... ....... ................................................................................ ....... ....... ...... ........................................................ ....... ................................................................................................................................................................",
"............................................................................................................................................................... ...................................................... ........ ....... ....... ...................................................................... ....... ........ ....... ....... ....... ....... ............................................................................................................................................................................................................................................................................................................... ....... ....... ....... ....... ...... ....... ................................................................................ ....... ...... ....... ................................................ ....... ........................................................................................................................................................",
"....................................................................................................................................................... ...................................................... ........ ....... ...................................................................... ....... ........ ....... ....... ....... ............................................................................................................................................................................................................................................................................................................................................................... ....... ....... ....... ...... ....... ........................................................................ ....... .............. ................................................ ........................................................................................................................................................",
"............................................................................................................................................... ....... .............................................. ........ ....... .............................................................. ....... ........ ....... ....... ....... .............................................................................................................................................................................. ....... ....... ....... ....... ................................................................................................................................................................................ ....... ....... ....... ...... ....... ................................................................ ....... ....... ...... ................................................ ................................................................................................................................................",
"....................................................................................................................................... ....... .............................................. ........ ....... .............................................................. ........ ....... ....... ....... .............................................................................................................................. ....... ....... ....... ....... ....... ....... ....... ........ ....... ....... ....... ....... ...... ....... ....... ....... ....... ....... ....... ....... ................................................................................................................................ ....... ....... ....... ...... ....... ........................................................ ....... ....... ...... ........................................ ....... ........................................................................................................................................",
"............................................................................................................................... ....... ..............................................  ....... ....... ...................................................... ....... ........ ....... ....... .............................................................................................................. ....... ....... ....... ........ ....... ....... ....... ....... ....... ....... ....... ....... ....... ....... ....... ....... ....... ....... ....... ....... ....... ....... ....... ....... ...... ....... ....... ....... ................................................................................................................ ....... ....... .............. ................................................................ ....... ...... ........................................ ....... ................................................................................................................................",
"............................................................................................................................... ..............................................  ....... ....... ...................................................... ........ ....... ....... .............................................................................................. ....... ....... ....... ........ ....... ....... ....... ....... ....... ....... ....... ....... ....... ....... ....... ... ....... ....... ....... ....... ....... ... ....... ....... ....... ....... ....... ....... ....... ....... ....... ....... ....... ...... ....... ....... ....... ................................................................................................ ....... ....... ...... ....... ........................................................ ....... ...... ........................................ ....... ........................................................................................................................",
"....................................................................................................................... ..............................................  ....... ...................................................... ....... ........ ....... ....... .............................................................................. ....... ....... ........ ....... ....... ....... ....... ....... ....... ....... ... ....... ....... ....... ....... ....... ....... ....... ....... ....... ....... ....... ....... ....... ....... ....... ....... ....... ....... ....... ....... ....... ... ....... ....... ....... ....... ....... ....... ....... ...... ....... ....... ................................................................................ ....... ....... ....... ...... ........................................................ ....... ...... ........................................ ........................................................................................................................",
"............................................................................................................... ....... ......................................  ....... ...................................................... ........ ....... ....... .............................................................................. ....... ........ ....... ....... ....... ....... ....... ....... ... ....... ....... ....... ....... ....... ....... ....... ....... ....... ....... ....... ........ ....... ....... ....... ....... ....... ...... ....... ....... ....... ....... ....... ....... ....... ....... ....... ....... ....... ... ....... ....... ....... ....... ....... ....... ...... ....... ................................................................................ ....... ....... ...... ........................................................ ....... ...... ........................................ ................................................................................................................",
"....................................................................................................... ....... ...................................... ........ ...................................................... ........ ....... ....... ...................................................................... ....... ........ ....... ....... ....... ....... ........... ....... ....... ....... ....... ....... ....... ........ ....... ....... ....... ....... ....... ....... ....... ........ ....... ....... ....... ....... .............. ....... ....... ....... ....... ....... ....... ....... ...... ....... ....... ....... ....... ....... ....... ........... ....... ....... ....... ....... ...... ....... ................................................................................ ....... ...... ....... ................................................ ....... ...... ................................ ....... ........................................................................................................",
"....................................................................................................... ...................................... ........ ...................................................... ........ ....... ...................................................................... ....... ........ ....... ....... ....... ........... ....... ....... ....... ....... ....... ........ ....... ....... ....... ........ ....... ....... ....... ....... ....... ....... ....... ....... ....... ....... ....... ....... ....... ....... ....... ....... ....... ....... ....... ....... ....... ...... ....... ....... ....... ...... ....... ....... ....... ....... ....... ........... ....... ....... ....... ...... ....... ........................................................................ ....... .............. ................................................ ............................................... ........................................................................................................",
"............................................................................................... ...................................... ........ ....... .............................................. ........ ....... .............................................................. ....... ........ ....... ....... ....... ........... ....... ....... ....... ....... ........ ....... ....... ........ ....... ....... ....... ....... ....... ....... ....... ....... ....... ....... ....... ........ ....... ....... ....... ....... ...... ....... ....... ....... ....... ....... ....... ....... ....... ....... ....... ....... ....... ...... ....... ....... ...... ....... ....... ....... ....... ........... ....... ....... ....... ...... ....... ................................................................ ....... ....... ...... ................................................ ...... ........................................ ................................................................................................",
"............................................................................................... .............................. ........ ....... .............................................. ........ ....... .............................................................. ........ ....... ....... ....... ........... ....... ....... ....... ........ ....... .......  ....... ....... ....... ....... ....... ....... ....... ........ ....... ....... ....... ....... ....... ....... ....... ........ ....... ....... ....... ....... ...... ....... ....... ....... ....... ....... ....... ....... .............. ....... ....... ....... ....... ....... ....... ...... ....... ....... ...... ....... ....... ....... ....... ... ....... ....... ....... ...... ....... ........................................................ ....... ....... ...... ........................................ ....... ...... ................................ ....... ........................................................................................",
"....................................................................................... ....................................... ....... ..............................................  ....... ....... ...................................................... ....... ........ ....... ....... ........... ....... ....... ....... ........ ....... ........ ....... ....... ....... ....... ....... ........ ....... ....... ....... ........ ....... ....... ....... ....... ....... ....... ....... ....... ....... ....... ....... ....... ....... ....... ....... ....... ....... ....... ....... ....... ...... ....... ....... ....... .............. ....... ....... ....... ....... ....... ...... ....... ...... ....... ....... ....... ........... ....... ....... .............. ................................................................ ....... ...... ........................................ ....... ...... ................................ ........................................................................................",
"............................................................................... ....... .............................. ........ ..............................................  ....... ....... ...................................................... ........ ....... ....... ........... ....... ....... .......  ....... .......  ....... ....... ....... ....... ........ ....... ....... ....... ........ ....... ....... ....... ....... ....... ....... ....... ....... ....... ....... ....... ... ....... ....... ....... ....... ....... ... ....... ....... ....... ....... ....... ....... ....... ....... ....... ....... ....... ...... ....... ....... ....... ...... ....... ....... ....... ....... ...... ....... .............. ....... ....... ........... ....... ....... ...... ....... ........................................................ ....... ...... ........................................ ....... ....................................... ................................................................................",
"............................................................................... .............................. ........ ..............................................  ....... ...................................................... ....... ........ ....... ....... ... ....... ....... ....... ........ ........ ....... ....... ....... .......  ....... ....... ........ ....... ....... ....... ....... ....... ....... ....... ... ....... ....... ....... ....... ....... ....... ....... ....... ....... ....... ....... ....... ....... ....... ....... ....... ....... ....... ....... ....... ....... ... ....... ....... ....... ....... ....... ....... ....... ...... ....... ....... ...... ....... ....... ....... ...... ....... ...... ....... ....... ....... ... ....... ....... ....... ...... ........................................................ ....... ...... ........................................ ...... ................................ ................................................................................",
"....................................................................... ....................................... ....... ......................................  ....... ...................................................... ........ ....... ....... ........... ....... ....... ........ .......  ....... ....... ....... ........ ....... ........ ....... ....... ....... ....... ....... ....... ... ....... ....... ....... ....... ....... ....... ....... ....... ....... ....... ....... ........ ....... ....... ....... ....... ....... ...... ....... ....... ....... ....... ....... ....... ....... ....... ....... ....... ....... ... ....... ....... ....... ....... ....... ....... ...... ....... ...... ....... ....... ....... ...... ....... ...... ....... ....... ....... ... ....... ....... ...... ........................................................ ....... ...... ........................................ ...... ................................ ........................................................................",
"....................................................................... ..............................  ....... ...................................... ........ ...................................................... ........ ....... ....... ... ....... ....... ........ .......  ....... ....... ....... ........ ....... ........ ....... ....... ....... ....... ........... ....... ....... ....... ....... ....... ....... ........ ....... ....... ....... ....... ....... ....... ....... ........ ....... ....... ....... ....... .............. ....... ....... ....... ....... ....... ....... ....... ...... ....... ....... ....... ....... ....... ....... ........... ....... ....... ....... ....... ...... ....... ...... ....... ....... ....... ...... ....... ...... ....... ....... ........... ....... ...... ....... ................................................ ....... ...... ................................ ....... ...... ........................ ........................................................................",
"............................................................... .............................. ........ ...................................... ........ ...................................................... ........ ....... ........... ....... .......  ....... ........ ....... ....... ........ ....... ........ ....... ....... ....... ........... ....... ....... ....... ....... ....... ........ ....... ....... ....... ........ ....... ....... ....... ....... ....... ....... ....... ....... ....... ....... ....... ....... ....... ....... ....... ....... ....... ....... ....... ....... ....... ...... ....... ....... ....... ...... ....... ....... ....... ....... ....... ........... ....... ....... ....... ...... ....... ...... ....... ....... ....... ...... .............. ....... ........... ....... .............. ................................................ ............................................... ....................................... ................................................................",
"............................................................... ............................... ...................................... ........ ....... .............................................. ........ ....... ... ....... ....... ........ ........ ....... ....... ........ ....... ........ ....... ....... ....... ........... ....... ....... ....... ....... ........ ....... ....... ........ ....... ....... ....... ....... ....... ....... ....... ....... ....... ....... ....... ........ ....... ....... ....... ....... ...... ....... ....... ....... ....... ....... ....... ....... ....... ....... ....... ....... ....... ...... ....... ....... ...... ....... ....... ....... ....... ........... ....... ....... ....... ...... ....... ...... ....... ....... ...... ....... ...... ....... ....... ... ....... ....... ...... ................................................ ...... ........................................ ...... ........................ ................................................................",
"....................................................... .............................. ........ .............................. ........ ....... .............................................. ........ ....... ... ....... ....... ........ ........ ....... ....... ........ ........ ....... ....... ....... ........... ....... ....... ....... ........ ....... .......  ....... ....... ....... ....... ....... ....... ....... ........ ....... ....... ....... ....... ....... ....... ....... ........ ....... ....... ....... ....... ...... ....... ....... ....... ....... ....... ....... ....... .............. ....... ....... ....... ....... ....... ....... ...... ....... ....... ...... ....... ....... ....... ....... ... ....... ....... ....... ...... ....... ...... ....... ....... ...... ...... ....... ....... ... ....... ....... ...... ........................................ ....... ...... ................................ ....... ............................... ........................................................",
"....................................................... ............................... ....................................... ....... ..............................................  ....... ....... ... ....... ........ .......  ....... ....... ........ ....... ........ ....... ....... ........... ....... ....... ....... ........ ....... ........ ....... ....... ....... ....... ....... ........ ....... ....... ....... ........ ....... ....... ....... ....... ....... ....... ....... ....... ....... ....... ....... ....... ....... ....... ....... ....... ....... ....... ....... ....... ...... ....... ....... ....... .............. ....... ....... ....... ....... ....... ...... ....... ...... ....... ....... ....... ........... ....... ....... .............. ...... ....... ....... ...... ....... ...... ....... ........... ....... ...... ........................................ ....... ...... ................................ ...... ........................ ........................................................",
"..............................................................................  ....... .............................. ........ ..............................................  ....... ....... ... ....... ........ ........ ....... ....... ........ ........ ....... ....... ........... ....... ....... .......  ....... .......  ....... ....... ....... ....... ........ ....... ....... ....... ........ ....... ....... ....... ....... ....... ....... ....... ....... ....... ....... ....... ... ....... ....... ....... ....... ....... ... ....... ....... ....... ....... ....... ....... ....... ....... ....... ....... ....... ...... ....... ....... ....... ...... ....... ....... ....... ....... ...... ....... .............. ....... ....... ........... ....... ....... ...... ....... ...... ....... .............. ...... ....... ........... ....... ...... ........................................ ....... ....................................... ............................... ................................................",
"............................................... ...................... ........ .............................. ........ ..............................................  ....... ........... ....... ........ ........ ....... ........ ....... ........ ....... ....... ... ....... ....... ....... ........ ........ ....... ....... ....... .......  ....... ....... ........ ....... ....... ....... ....... ....... ....... ....... ... ....... ....... ....... ....... ....... ....... ....... ....... ....... ....... ....... ....... ....... ....... ....... ....... ....... ....... ....... ....... ....... ... ....... ....... ....... ....... ....... ....... ....... ...... ....... ....... ...... ....... ....... ....... ...... ....... ...... ....... ....... ....... ... ....... ....... ....... ...... ...... ....... ....... ...... ...... ....... ........... ....... ...... ........................................ ...... ................................ ...... ........................ ................................................",
"............................................... ....................... ....................................... ....... ......................................  ....... ........... ....... ........ ........ ....... ........ ........ ....... ....... ........... ....... ....... ........ .......  ....... ....... ....... ........ ....... ........ ....... ....... ....... ....... ....... ....... ... ....... ....... ....... ....... ....... ....... ....... ....... ....... ....... ....... ........ ....... ....... ....... ....... ....... ...... ....... ....... ....... ....... ....... ....... ....... ....... ....... ....... ....... ... ....... ....... ....... ....... ....... ....... ...... ....... ...... ....... ....... ....... ...... ....... ...... ....... ....... ....... ... ....... ....... ...... ...... ....... ....... ...... ...... ....... ........... ....... ...... ........................................ ...... ................................ ........................................................................",
"....................................... ...................... ........ ..............................  ....... ...................................... ........ ........... ....... ........ ........ ....... ........ ........ ....... ....... ... ....... ....... ........ .......  ....... ....... ....... ........ ....... ........ ....... ....... ....... ....... ........... ....... ....... ....... ....... ....... ....... ........ ....... ....... ....... ....... ....... ....... ....... ........ ....... ....... ....... ....... .............. ....... ....... ....... ....... ....... ....... ....... ...... ....... ....... ....... ....... ....... ....... ........... ....... ....... ....... ....... ...... ....... ...... ....... ....... ....... ...... ....... ...... ....... ....... ........... ....... ...... ....... ...... ....... ...... ...... ....... ........... ....... ...... ................................ ....... ...... ........................ ...... ........................ ........................................",
"....................................... ....................... .............................. ........ ...................................... ........ ........... ....... ........ ........ ....... ........ ........ ....... ........... ....... .......  ....... ........ ....... ....... ........ ....... ........ ....... ....... ....... ........... ....... ....... ....... ....... ....... ........ ....... ....... ....... ........ ....... ....... ....... ....... ....... ....... ....... ....... .. .... .. .... .. .... .. .... .. .... ....... ....... ....... ....... ....... ....... ....... ....... ...... ....... ....... ....... ...... ....... ....... ....... ....... ....... ........... ....... ....... ....... ...... ....... ...... ....... ....... ....... ...... .............. ....... ........... ....... .............. ...... ....... ...... ...... ....... ........... ............................................... ....................................... ....................... ........................................",
"...................................................... ........ ............................... ...................................... ........ ....... ... ....... ........ ........ ....... ........ ........ ....... ... ....... ....... ........ ........ ....... ....... ........ ....... ........ ....... ....... ....... ........... ....... ....... ....... ....... ........ ....... ....... ........ ....... ....... ....... ....... .. .... .. .... .. .... .. .... .. .... .. .... .. .... .. ..... .. .... .. .... .. .... .. .... .. ... .. .... .. .... .. .... .. .... .. .... .. .... .. .... .. .... ....... ....... ....... ....... ...... ....... ....... ...... ....... ....... ....... ....... ........... ....... ....... ....... ...... ....... ...... ....... ....... ...... ....... ...... ....... ....... ... ....... ....... ...... ...... ....... ...... ...... ....... ........... ...... ........................................ ...... ........................ ...... ........................ ................................",
"............................... ....................... .............................. ........ .............................. ........ ....... ... ....... ........ ........ ....... ........ ........ ....... ... ....... ....... ........ ........ ....... ....... ........ ........ ....... ....... ....... ........... ....... ....... ....... ........ ....... .......  ....... ....... ....... ....... .. .... .. .... .. .... .. ..... .. .... .. .... .. .... .. .... .. .... .. .... .. .... .. ..... . ..... . ..... . ..... . ..... . .... .. .... .. .... .. .... .. .... .. .... .. .... .. .... .. ...... .... .. .... .. .... .. .... ....... ....... ....... ...... ....... ....... ...... ....... ....... ....... ....... ... ....... ....... ....... ...... ....... ...... ....... ....... ...... ...... ....... ....... ... ....... ....... ...... ...... ....... ...... ...... ....... ... ....... ...... ................................ ....... ............................... ....................... ................................",
"............................... ....................... ............................... ....................................... ....... ... ....... ........ ........ ....... ........  ....... ....... ... ....... ........ .......  ....... ....... ........ ....... ........ ....... ....... ........... ....... ....... ....... ........ ....... ........ ....... ....... .. .... .. .... .. .... .. ..... .. .... .. .... .. .... .. ..... . ..... . ..... . ..... . ..... . ..... . ..... . ..... . ..... .. .... .. .... .. .... .. .... .. .... . ..... . ..... . ..... . ..... . ..... . ..... . ..... . .... .. .... .. .... .. .... .. ...... .... .. .... .. .... .. .... ....... ....... ...... ....... ...... ....... ....... ....... ........... ....... ....... .............. ...... ....... ....... ...... ....... ...... ....... ........... ....... ...... ...... ....... ...... ...... ....... ... ....... ...... ................................ ...... ........................ ...... .................................................",
".............................................. ...............................  ....... .............................. ........ ........... ........ ........ ....... ........  ....... ....... ... ....... ........ ........ ....... ....... ........ ........ ....... ....... ........... ....... ....... .......  ....... .......  ....... ....... .. .... .. .... .. ..... .. .... .. .... .. .... .. ..... . ..... . ..... . ..... .  .... .. .... .. .... .. .... .. .... .. .... .. .... .. .... ..  ....... ....... ....... ....... ....... ... .. .... .. .... .. .... .. .... .. .... .. .... .. .... .. .... . ..... . ..... . ..... . .... .. .... .. .... .. .... .. ... .. .... .. .... .. .... ....... ...... ....... .............. ....... ....... ........... ....... ....... ...... ....... ...... ....... .............. ...... ....... ........... ....... ...... ...... ....... ...... ...... ....... ... ....... ....................................... ............................... ................................................",
"....................... ....................... ...................... ........ .............................. ........ ........... ........ ........ ....... ........  ....... ........... ....... ........ ........ ....... ........ ....... ........ ....... ....... ... ....... ....... ....... ........ ........ ....... ....... .. .... .. ....  .. .... .. .... .. ..... . ..... . ..... . ..... .  .... .. .... .. .... .. .... ... ....... ....... ....... ....... ....... ....... ....... ....... ....... ....... ....... ....... ....... ....... ....... ....... ....... ....... ....... ....... ....... ... .. .... .. .... .. .... .. .... . ..... . ..... . ..... . .... .. .... .. .... .. ... .. .... .. .... ....... ...... ....... ...... ....... ....... ....... ... ....... ....... ....... ...... ...... ....... ....... ...... ...... ....... ........... ....... ...... ...... ....... ...... ...... ........... ...... ................................ ...... ........................ ...... ................ ........................",
"....................... .............. ........ ....................... ....................................... ....... ... .......  ........ ....... ........  ....... ........... ....... ........ ........ ....... ........ ........ ....... ....... ........... ....... ....... ........ .......  ....... ....... .. .... .. ..... .. .... .. ..... . ..... . ..... . ..... .. .... .. .... .. .... ... ....... ....... ....... ....... ....... ....... ....... ....... ....... ....... ....... ........ ....... ....... ....... ....... ....... ...... ....... ....... ....... ....... ....... ....... ....... ....... ....... ....... ....... ... .. .... .. .... .. .... .. .... . ..... . ..... . .... .. .... .. ... .. .... .. .... ....... ...... ....... ...... ....... ....... ....... ... ....... ....... ...... ...... ....... ....... ...... ...... ....... ........... ....... ...... ...... ....... ............. ........... ...... ................................ ............................................... ........................",
"....................................... ...................... ........ ..............................  ....... ... ....... ......... ....... ........ ........ ........... ....... ........ ........ ....... ........ ........ ....... ....... ... ....... ....... ........ .......  ....... ....... .. .... .. ..... .. .... .. ..... . ..... . ..... .. .... .. .... .. ........ ....... ....... ....... ....... ....... ....... ........ ....... ....... ....... ....... ....... ....... ....... ........ ....... ....... ....... ....... .............. ....... ....... ....... ....... ....... ....... ....... ...... ....... ....... ....... ....... ....... ....... ........... .. .... .. .... ....... . ..... . .... .. .... .. ... .. .... .. .... ....... ...... ....... ...... ....... ....... ........... ....... ...... ....... ...... ....... ...... ...... ....... ........... ....... ...... ...... ...... ...... ....... ... ....... ...... ........................ ...... ........................ ........................................",
"....................................... ....................... .............................. ........ ........... ........ ........ ........ ........ ........... ....... ........ ........ ....... ........ ........ ....... ........... ....... .......  ....... ........ ....... .. .... .. ..... .. .... .. ..... . ..... . ..... .. .... .. ........ ....... ....... ....... ....... ....... ........ ....... ....... ....... ........ ....... ....... ....... ....... ....... ....... ....... ....... .. .... .. .... .. .... .. .... .. .... ....... ....... ....... ....... ....... ....... ....... ....... ...... ....... ....... ....... ...... ....... ....... ....... ....... ....... ...... .... .. .... .. .... . ..... . .... .. .... .. ... .. .... .. .... ....... ...... .............. ....... ........... ....... .............. ...... ....... ...... ...... ....... ........... ..................... ...... ...... ........... ....................................... ....................... ...... .................................",
"............... .............. ....................... ........ ............................... ........... ........ ........ ........ ........ ....... ... ....... ........ ........ ....... ........ ........ ....... ... ....... ....... ........ ........ ....... ....... .. ..... .. .... .. ..... . ..... . ..... .. .... .. ........ ....... ....... ....... ....... ........ ....... ....... ........ ....... ....... ....... ....... .. .... .. .... .. .... .. .... .. .... .. .... .. .... .. ..... .. .... .. .... .. .... .. .... .. ... .. .... .. .... .. .... .. .... .. .... .. .... .. .... .. .... ....... ....... ....... ....... ...... ....... ....... ...... ....... ....... ....... ....... ........... .. .... .. .... . ..... . .... .. .... .. ... .. .... ....... ...... ....... ...... ....... ....... ... ....... ....... ...... ...... ....... ...... ...... ....... ........... ...... ...... ....... ...... ...... ........... ...... ........................ ...... ........................ ............... ................",
"............... ............... ....................... .............................. ........ ... ....... ......... .......  ........ ....... ... ....... ........ ........ ....... ........ ........ ....... ... ....... ....... ........ ........ ....... .. .... ..  .... .. ..... . ..... . ..... .. .... .. ........ ....... ....... ....... ........ ....... .......  ....... ....... ....... ....... .. .... .. .... .. .... .. ..... .. .... .. .... .. .... .. .... .. .... .. .... .. .... .. ..... . ..... . ..... . ..... . ..... . .... .. .... .. .... .. .... .. .... .. .... .. .... .. .... .. ...... .... .. .... .. .... .. .... ....... ....... ....... ...... ....... ....... ...... ....... ....... ....... ....... ... .. .... .. .... . ..... . .... .. .... . .... .. .... ....... ...... ...... ....... ....... ... ....... ....... ...... ...... ....... ...... ...... ....... ... ....... ...... ...... ....... ..... ....... ... ....... ............................... ....................... ............... ................",
"............................... ....................... ............................... ........... ........  ....... ......... ....... ... ....... ........ ........ ....... ........  ....... ....... ... ....... ........ .......  ....... .. .... .. ..... .. .... .. ..... . ..... .. .... .. ........ ....... ....... ....... ........ ....... ........ ....... ....... .. .... .. .... .. .... .. ..... .. .... .. .... .. .... .. ..... . ..... . ..... . ..... . ..... . ..... . ..... . ..... . ..... .. .... .. .... .. .... .. .... .. .... . ..... . ..... . ..... . ..... . ..... . ..... . ..... . .... .. .... .. .... .. .... .. ...... .... .. .... .. .... .. .... ....... ....... ...... ....... ...... ....... ....... ....... ........... .. .... .. .... . ....... .... .. ... .. .... ....... ...... ....... ...... ....... ........... ....... ...... ...... ....... ...... ...... ....... ... ....... ...... ...... ...... ...... ....... ... ...... ........................ ...... ....................... .........................",
".............................................. ...............................  ....... ... ........ ........ ........ ........ ........... ........ ........ ....... ........  ....... ....... ... ....... ........ ........ ....... .. .... ... .... .. ..... . ..... .. .... .. ........ ....... ....... .......  ....... .......  ....... ....... .. .... .. .... .. ..... .. .... .. .... .. .... .. ..... . ..... . ..... . ..... .  .... .. .... .. .... .. .... .. .... .. .... .. .... .. .... ..  ....... ....... ....... ....... ....... ... .. .... .. .... .. .... .. .... .. .... .. .... .. .... .. .... . ..... . ..... . ..... . .... .. .... .. .... .. .... .. ... .. .... .. .... .. .... ....... ...... ....... .............. ....... ....... ........... .. .... . ..... . .... .. .... . .... .. .... .............. ...... ....... ........... ....... ...... ...... ....... ...... ...... ....... ... ....... ............. ...... ...... ........... ............................... ................................................",
"......................  ....................... ...................... ........ ... .......  ........ ........ ........ ........... ........ ........ ....... ........  ....... ........... ....... ........ ........ ....... .. ..... .. .... .. ..... . ..... .. .... ... ....... ....... ....... ........ ........ ....... ....... .. .... .. ....  .. .... .. .... .. ..... . ..... . ..... . ..... .  .... .. .... .. .... .. .... ... ....... ....... ....... ....... ....... ....... ....... ....... ....... ....... ....... ....... ....... ....... ....... ....... ....... ....... ....... ....... ....... ... .. .... .. .... .. .... .. .... . ..... . ..... . ..... . .... .. .... .. .... .. ... .. .... .. .... ....... ...... ....... ...... ....... ....... ....... ... .. .... .. .... . ..... . .... .. ... .. .... ....... ...... ...... ....... ........... ....... ...... ...... ....... ...... ...... ........... ...... ...... ....... ............. ... ...... ........................ ...... ................ ........................",
"....................... .............. ........ ....................... ........... ......... ....... ......... ....... ... .......  ........ ....... ........  ....... ........... ....... ........ ........ ....... .. ..... .. ..... . ..... .. .... .. ........ ....... ....... ........ .......  ....... ....... .. .... .. ..... .. .... .. ..... . ..... . ..... . ..... .. .... .. .... .. .... ... ....... ....... ....... ....... ....... ....... ....... ....... ....... ....... ....... ........ ....... ....... ....... ....... ....... ...... ....... ....... ....... ....... ....... ....... ....... ....... ....... ....... ....... ... .. .... .. .... .. .... .. .... . ..... . ..... . .... .. .... .. ... .. .... .. .... ....... ...... ....... ...... ....... ....... ....... ... .. .... . ..... . .... .. ... .. .... ....... ...... ...... ....... ........... ....... ...... ...... ....... ............. ........... ...... ...... ...... ...... ........... ............................................... ............... ........",
"....... ............................... ...................... ........ ... ........ ........ ........  ....... ... ....... ......... ....... ........ ........ ........... ....... ........ ........ .. .... ..  .... .. ..... . ..... .. .... ... ....... ....... ........ .......  ....... ....... .. .... .. ..... .. .... .. ..... . ..... . ..... .. .... .. .... .. ........ ....... ....... ....... ....... ....... ....... ........ ....... ....... ....... ....... ....... ....... ....... ........ ....... ....... ....... ....... .............. ....... ....... ....... ....... ....... ....... ....... ...... ....... ....... ....... ....... ....... ....... ........... .. .... .. .... ....... . ..... . .... .. .... .. ... .. .... .. .... ....... ...... ....... ...... ....... ....... ...... .... .. .... . .... .. .... . .... ....... ...... ...... ....... ........... ....... ...... ...... ...... ...... ....... ... ....... ...... ...... ...... ...... ... ...... ........................ ...................... ........ ........",
"....... ............................... ....................... ........... ......... ........ ........ ........... ........ ........ ........ ........ ........... ....... ........ ........ .. .... ... .... .. ..... . ..... .. ........ ....... .......  ....... ........ ....... .. .... .. ..... .. .... .. ..... . ..... . ..... .. .... .. ........ ....... ....... ....... ....... ....... ........ ....... ....... ....... ........ ....... ....... ....... ....... ....... ....... ....... ....... .. .... .. .... .. .... .. .... .. .... ....... ....... ....... ....... ....... ....... ....... ....... ...... ....... ....... ....... ...... ....... ....... ....... ....... ....... ...... .... .. .... .. .... . ..... . .... .. .... .. ... .. .... .. .... ....... ...... .............. ....... ........... .. .... . ....... .... . .... ....... ...... ...... ....... ........... ..................... ...... ...... ........... ............. ............. ........... ....................... ...... .................................",
"..............  .............. ....................... ........ ... ........ ........ ......... ........... ........ ........ ........ ........ ....... ... ....... ........ ........ .. .... ... .... .. ..... .. .... ..  ....... ....... ........ ........ ....... ....... .. ..... .. .... .. ..... . ..... . ..... .. .... .. ........ ....... ....... ....... ....... ........ ....... ....... ........ ....... ....... ....... ....... .. .... .. .... .. .... .. .... .. .... .. .... .. .... .. ..... .. .... .. .... .. .... .. .... .. ... .. .... .. .... .. .... .. .... .. .... .. .... .. .... .. .... ....... ....... ....... ....... ...... ....... ....... ...... ....... ....... ....... ....... ........... .. .... .. .... . ..... . .... .. .... .. ... .. .... ....... ...... ....... ...... ....... ....... ... .. .... . ..... . .... . .... .. .... ...... ...... ....... ........... ...... ...... ....... ...... ...... ........... ...... ...... ...... ...... ... ...... ........................ ............... ................",
"............... ............... ....................... ........... ......... ........ ........ ... ....... ......... .......  ........ ....... ... ....... ........ ........ .. .... ... .... .. ..... .. .... ... ....... ....... ........ ........ ....... .. .... ..  .... .. ..... . ..... . ..... .. .... .. ........ ....... ....... ....... ........ ....... .......  ....... ....... ....... ....... .. .... .. .... .. .... .. ..... .. .... .. .... .. .... .. .... .. .... .. .... .. .... .. ..... . ..... . ..... . ..... . ..... . .... .. .... .. .... .. .... .. .... .. .... .. .... .. .... .. ...... .... .. .... .. .... .. .... ....... ....... ....... ...... ....... ....... ...... ....... ....... ....... ....... ... .. .... .. .... . ..... . .... .. .... . .... .. .... ....... ...... ...... ....... ....... ... .. .... . ..... . .... ...... .. .... ...... ...... ....... ... ....... ...... ...... ....... ..... ....... ... ....... ..... ....... ..... ........... ....................... ............... ................",
"............................... ....................... ... ........ ........ ......... ........... ........  ....... ......... ....... ... ....... ........ ........ .. .... ... ....  . ..... .. .... ... ....... ........ .......  ....... .. .... .. ..... .. .... .. ..... . ..... .. .... .. ........ ....... ....... ....... ........ ....... ........ ....... ....... .. .... .. .... .. .... .. ..... .. .... .. .... .. .... .. ..... . ..... . ..... . ..... . ..... . ..... . ..... . ..... . ..... .. .... .. .... .. .... .. .... .. .... . ..... . ..... . ..... . ..... . ..... . ..... . ..... . .... .. .... .. .... .. .... .. ...... .... .. .... .. .... .. .... ....... ....... ...... ....... ...... ....... ....... ....... ........... .. .... .. .... . ....... .... .. ... .. .... ....... ...... ....... ...... ....... ...... .... . ..... . .... ...... .. .... ...... ...... ....... ... ....... ...... ...... ...... ...... ....... ... ...... ...... ...... ...... ... ...... ....................... .........................",
".............................................. ............ ......... ........  ....... ... ........ ........ ........ ........ ........... ........ ........ .. .... ... ....  . ..... .. .... ... ....... ........ ........ ....... .. .... ... .... .. ..... . ..... .. .... .. ........ ....... ....... .......  ....... .......  ....... ....... .. .... .. .... .. ..... .. .... .. .... .. .... .. ..... . ..... . ..... . ..... .  .... .. .... .. .... .. .... .. .... .. .... .. .... .. .... ..  ....... ....... ....... ....... ....... ... .. .... .. .... .. .... .. .... .. .... .. .... .. .... .. .... . ..... . ..... . ..... . .... .. .... .. .... .. .... .. ... .. .... .. .... .. .... ....... ...... ....... .............. ....... ....... ........... .. .... . ..... . .... .. .... . .... .. .... .............. ...... ....... ...... .... . ..... . .... ...... .. .... ...... ...... ....... ... ....... ............. ...... ...... ........... ............. ..... ........... ...................................... .........",
"......................  ....................... ... ........ ........  ........ ... .......  ........ ........ ........ ........... ........ ........ .. .... ... ....  . ..... .. ........ ....... ........ ........ ....... .. ..... .. .... .. ..... . ..... .. .... ... ....... ....... ....... ........ ........ ....... ....... .. .... .. ....  .. .... .. .... .. ..... . ..... . ..... . ..... .  .... .. .... .. .... .. .... ... ....... ....... ....... ....... ....... ....... ....... ....... ....... ....... ....... ....... ....... ....... ....... ....... ....... ....... ....... ....... ....... ... .. .... .. .... .. .... .. .... . ..... . ..... . ..... . .... .. .... .. .... .. ... .. .... .. .... ....... ...... ....... ...... ....... ....... ....... ... .. .... .. .... . ..... . .... .. ... .. .... ....... ...... ...... ....... ...... .... . ..... . .... ...... ....... ...... ...... ........... ...... ...... ....... ............. ... ...... ...... ...... ...... ... ...... ................ ........................",
"....................... .............. ........ ... ......... ......... ........... ......... ....... ......... ....... ... .......  ........ ....... ... ....  . ..... .. ........ ....... ........ ........ ....... .. ..... .. ..... . ..... .. .... .. ........ ....... ....... ........ .......  ....... ....... .. .... .. ..... .. .... .. ..... . ..... . ..... . ..... .. .... .. .... .. .... ... ....... ....... ....... ....... ....... ....... ....... ....... ....... ....... ....... ........ .. .... .. .... .. .... .. .... .. .... ...... ....... ....... ....... ....... ....... ....... ....... ....... ....... ....... ....... ... .. .... .. .... .. .... .. .... . ..... . ..... . .... .. .... .. ... .. .... .. .... ....... ...... ....... ...... ....... ....... ....... ... .. .... . ..... . .... .. ... .. .... ....... ...... ...... ....... ...... .... . ..... . .... . .... ....... ............. ........... ...... ...... ...... ...... ........... ............. ..... ........................... ............... ....... ",
"......  ............................... ............ ........  ........ ... ........ ........ ........  ....... ... ....... ......... ....... ..  .... .. ..... .. ........ ....... ........ ........ .. .... ..  .... .. ..... . ..... .. .... ... ....... ....... ........ .......  ....... ....... .. .... .. ..... .. .... .. ..... . ..... . ..... .. .... .. .... .. ........ ....... ....... ....... ....... ....... ....... ........ .. .... .. .... .. .... .. .... .. .... .. .... .. .... .. ..... . ..... . ..... . ..... . ..... . ....... .... .. .... .. .... .. .... .. .... .. .... .. .... .. .... ...... ....... ....... ....... ....... ....... ....... ........... .. .... .. .... ....... . ..... . .... .. .... .. ... .. .... .. .... ....... ...... ....... ...... ....... ....... ...... .... .. .... . .... .. .... . .... ....... ...... ...... ....... ...... .... . ..... . .... . .... ...... ...... ....... ... ....... ...... ...... ...... ...... ... ...... ...... ...... ...... ... ...................... ........ ....... ",
"....... ............................... ... ......... ......... ........... ......... ........ ........ ........... ........ ........ .. ..... .. ..... .. ........ ....... ........ ........ .. .... ... .... .. ..... . ..... .. ........ ....... .......  ....... ........ ....... .. .... .. ..... .. .... .. ..... . ..... . ..... .. .... .. ........ ....... ....... ....... ....... ....... ........ .. .... .. .... .. .... .. ..... . ..... . ..... . ..... . ..... . ..... . ..... . ..... . ..... .. .... .. .... .. .... .. .... .. .... . ..... . ..... . ..... . ..... . ..... . ..... . ..... . ..... . .... .. .... .. .... .. .... ...... ....... ....... ....... ....... ....... ...... .... .. .... .. .... . ..... . .... .. .... .. ... .. .... .. .... ....... ...... .............. ....... ........... .. .... . ....... .... . .... ....... ...... ...... ....... ...... .... . ....... ...... .... ...... ...... ........... ............. ............. ........... ................... ... ...... .................................",
"..............  .............. ............  ........  ........ ... ........ ........ ......... ........... ........ ........ .. ..... .. ..... .. .... ... ....... ........ ........ .. .... ... .... .. ..... .. .... ..  ....... ....... ........ ........ ....... ....... .. ..... .. .... .. ..... . ..... . ..... .. .... .. ........ ....... ....... ....... ....... ... .... .. .... .. .... .. ..... . ..... . ..... . ..... . ..... .. .... .. .... .. .... .. .... .. .... .. .... .. .... .. ..... .. .... .. .... .. .... .. .... .. ... .. .... .. .... .. .... .. .... .. .... .. .... .. .... .. .... . ..... . ..... . ..... . ..... . .... .. .... .. .... .. ... ....... ....... ....... ....... ........... .. .... .. .... . ..... . .... .. .... .. ... .. .... ....... ...... ....... ...... ....... ....... ... .. .... . ..... . .... . .... .. .... ...... ...... ....... ...... .... . .... .. ... .. .... ...... ...... ........... ...... ...... ...... ...... ... ...... ...... ................. ............... ................",
"............... ............... ... ......... ......... ........... ......... ........ ........ ... ....... ......... .. ....  .. ..... .  .... ... ....... ........ ........ .. .... ... .... .. ..... .. .... ... ....... ....... ........ ........ ....... .. .... ..  .... .. ..... . ..... . ..... .. .... .. ........ ....... ....... ....... ... .... .. .... .. ....  . ..... . ..... . ..... . ..... .. .... .. .... .. .... .. ..... .. .... .. .... .. .... .. .... .. .... .. .... .. .... .. ..... . ..... . ..... . ..... . ..... . .... .. .... .. .... .. .... .. .... .. .... .. .... .. .... .. ...... .... .. .... .. .... .. .... . ..... . ..... . ..... . .... .. .... .. .... .. ... ....... ....... ....... ....... ... .. .... .. .... . ..... . .... .. .... . .... .. .... ....... ...... ...... ....... ....... ... .. .... . ..... . .... ...... .. .... ...... ...... ....... ... .. .... . .... .. ... ....... ..... ....... ... ....... ..... ....... ..... ........... ..... ...... ...... ... ............... ................",
"............................... ... ......... ......... ... ........ ........ ......... ........... ........  ....... ... ..... . ..... ... ....... ........ ........ .. .... ... ....  . ..... .. .... ... ....... ........ .......  ....... .. .... .. ..... .. .... .. ..... . ..... .. .... .. ........ ....... ....... ....... ... .... .. .... .. ..... . ..... . ..... .. .... .. .... .. .... .. ..... .. .... .. .... .. .... .. ..... . ..... . ..... . ..... . ..... . ..... . ..... . ..... . ..... .. .... .. .... .. .... .. .... .. .... . ..... . ..... . ..... . ..... . ..... . ..... . ..... . .... .. .... .. .... .. .... .. ...... .... .. .... .. .... .. .... . ..... . ..... . .... .. .... .. ... ....... ....... ....... ........... .. .... .. .... . ....... .... .. ... .. .... ....... ...... ....... ...... ....... ...... .... . ..... . .... ...... .. .... ...... ...... ....... ... .. .... . .... . .... ...... ...... ....... ... ...... ...... ...... ...... ... ...... ...... ..... .......... .........................",
".................................... ......... ............ ......... ........  ....... ... ........ ........ .. ..... .. ..... .. ........ ........ ........ .. .... ... ....  . ..... .. .... ... ....... ........ ........ ....... .. .... ... .... .. ..... . ..... .. .... .. ........ ....... ....... .......  .. .... .. ....  . ..... . ..... .. .... .. .... .. ..... .. .... .. .... .. .... .. ..... . ..... . ..... . ..... .  .... .. .... .. .... .. .... .. .... .. .... .. .... .. .... ..  . ..... . ..... . ..... . ..... . ..... ... .. .... .. .... .. .... .. .... .. .... .. .... .. .... .. .... . ..... . ..... . ..... . .... .. .... .. .... .. .... .. ... .. .... .. .... .. .... . ..... . .... .. .... .. ........... ....... ....... ........... .. .... . ..... . .... .. .... . .... .. .... .............. ...... ....... ...... .... . ..... . .... ...... .. .... ...... ...... ....... ... ....... . ...... .... ...... ...... ........... ............. ..... ........... ..... ...... ......................... ....... .",
"......................  ... ......... ......... ... ........ ........  ........ ... .......  ........ .. ..... .. ..... .. ........ ........ ........ .. .... ... ....  . ..... .. ........ ....... ........ ........ ....... .. ..... .. .... .. ..... . ..... .. .... ... ....... ....... ....... ... .... .. ..... . ..... . ..... .. .... .. ....  .. .... .. .... .. ..... . ..... . ..... . ..... .  .... .. .... .. .... .. .... ... . ..... . ..... . ..... . ..... . ..... . ..... . ..... . ..... .. .... .. .... .. .... .. .... .. .... . ..... . ..... . ..... . ..... . ..... . ..... . ..... . ..... . . .. .... .. .... .. .... .. .... . ..... . ..... . ..... . .... .. .... .. .... .. ... .. .... .. .... . ..... . .... .. .... .. ... ....... ....... ....... ... .. .... .. .... . ..... . .... .. ... .. .... ....... ...... ...... ....... ...... .... . ..... . .... ...... ....... ...... ...... ...... .... . .... .. ... .. .... ............. ... ...... ...... ...... ...... ... ...... ............ ... ........................",
"....................... ... .........  ........ ... ......... ......... ........... ......... ....... ... ..... .  .... ... .......  ........ ....... ... ....  . ..... .. ........ ....... ........ ........ ....... .. ..... .. ..... . ..... .. .... .. ........ ....... ....... ... .... .. ....  . ..... . ..... .. .... .. ..... .. .... .. ..... . ..... . ..... . ..... .. .... .. .... .. .... ... . ..... . ..... . ..... . ..... .. .... .. .... .. .... .. .... .. .... .. .... .. .... .. ..... .. .... .. .... .. .... .. .... .. .... . .... .. .... .. .... .. .... .. .... .. .... .. .... .. .... ....... . ..... . ..... . ..... . . .. .... .. .... .. .... .. .... . ..... . ..... . .... .. .... .. ... .. .... .. .... . ..... . .... .. .... .. ... ....... ....... ....... ... .. .... . ..... . .... .. ... .. .... ....... ...... ...... ....... ...... .... . ..... . .... . .... ....... ............. ...... .... . .... ...... ...... ...... ........... ............. ..... ................. ..... ... ............... ....... ",
"......  .................... .......... ............ ........  ........ ... ........ ........ ..  ....  . ..... ... ....... ......... ....... ..  .... .. ..... .. ........ ....... ........ ........ .. .... ..  .... .. ..... . ..... .. .... ... ....... ....... ........ .. ....  . ..... . ..... .. .... .. ..... .. .... .. ..... . ..... . ..... .. .... .. .... .. .. ..... . ..... . ..... . ..... .. .... .. .... .. .... .. ..... .. .... .. .... .. .... .. .... .. .... .. .... .. .... .. ..... . ..... . ..... . ..... . ..... . ....... .... .. .... .. .... .. .... .. .... .. .... .. .... .. .... . .... .. .... .. .... .. .... ....... . ..... . ..... . ......... .. .... .. .... ....... . ..... . .... .. .... .. ... .. .... .. .... . ..... . .... .. .... ...... ....... ....... ...... .... .. .... . .... .. .... . .... ....... ...... ...... ....... ...... .... . ..... . .... . .... ...... ...... ....... ... .. .... . .... . .... ...... ...... ... ...... ...... ...... ...... ... ..... ...... ......... ........ ....... ",
"....... ..................... ......... ... ......... ......... ........... ......... .. ..... .. ..... .. ........ ........ ........ .. ..... .. ..... .. ........ ....... ........ ........ .. .... ... .... .. ..... . ..... .. ........ ....... .......  .. .... .. ..... . ..... .. .... .. ..... .. .... .. ..... . ..... . ..... .. .... .. ........ . ..... . ..... .. .... .. .... .. .... .. ..... .. .... .. .... .. .... .. ..... . ..... . ..... . ..... . ..... . ..... . ..... . ..... . ..... .. .... .. .... .. .... .. .... .. .... . ..... . ..... . ..... . ..... . ..... . ..... . ..... . ..... . .... .. .... .. .... .. .... . .... .. .... .. .... .. .... . ..... . ..... . .... .... .. .... .. .... . ..... . .... .. .... .. ... .. .... .. .... . ..... . .... .. ........... ....... ........... .. .... . ....... .... . .... ....... ...... ...... ....... ...... .... . ....... ...... .... ...... ...... ........... . ....... ... ............. ........... ................... ... ...... .................................",
"..............  ... .........  ............  ........  ........ ... ........ ........ ... ..... .. ........ ........ ........ .. ..... .. ..... .. .... ... ....... ........ ........ .. .... ... .... .. ..... .. .... ..  ....... ....... ........ .. ..... . ..... . ..... .. ..... .. .... .. ..... . ..... . ..... .. .... .. .. ..... . ..... .  .... .. .... .. .... ... .... .. .... .. .... .. ..... . ..... . ..... . ..... . ..... .. .... .. .... .. .... .. .... .. .... .. .... .. .... .. ..... .. .... .. .... .. .... .. .... .. ... .. .... .. .... .. .... .. .... .. .... .. .... .. .... .. .... . ..... . ..... . ..... . ..... . .... .. .... .. .... .. ... .. .... .. .... .. .... . ..... . ......... .. .... .. .... . ..... . .... .. .... .. ... .. .... . ..... . .... .. .... .. ... ....... ....... ... .. .... . ..... . .... . .... .. .... ...... ...... ....... ...... .... . .... .. ... .. .... ...... ...... ...... .... . .... . .... ...... ...... ... ...... ...... ................. ..... ..... ... ................",
"............... ... ........... ... ......... ......... ........... ......... .. ..... .. ..... ... ....... ......... .. ....  .. ..... .  .... ... ....... ........ ........ .. .... ... .... .. ..... .. .... ... ....... ....... ... .... .. ..... . ..... .. .... ..  .... .. ..... . ..... . ..... .. .... .. .. ..... . ..... .. .... .. .... ... .... .. .... .. ....  . ..... . ..... . ..... . ..... .. .... .. .... .. .... .. ..... .. .... .. .... .. .... .. .... .. .... .. .... .. .... .. ..... . ..... . ..... . ..... . ..... . .... .. .... .. .... .. .... .. .... .. .... .. .... .. .... .. ...... .... .. .... .. .... .. .... . ..... . ..... . ..... . .... .. .... .. .... .. ... .. .... .. .... . ..... . ..... ... .. .... .. .... . ..... . .... .. .... . .... .. .... . ..... . .... .. ... ....... ....... ... .. .... . ..... . .... ...... .. .... ...... ...... ....... ... .. .... . .... .. ... ....... ..... ....... ... .. .... . ... .. .... ..... ........... ..... ...... ...... ... ..... ..... ... ................",
"....................  ......... ... ......... ......... ... ........ ........ ... ..... .. ........ ........  ....... ... ..... . ..... ... ....... ........ ........ .. .... ... ....  . ..... .. .... ... ....... ........ .. ....  . ..... .  .... .. ..... .. .... .. ..... . ..... .. .... .. .. ..... . ..... .. .... .. .... ... .... .. .... .. ..... . ..... . ..... .. .... .. .... .. .... .. ..... .. .... .. .... .. .... .. ..... . ..... . ..... . ..... . ..... . ..... . ..... . ..... . ..... .. .... .. .... .. .... .. .... .. .... . ..... . ..... . ..... . ..... . ..... . ..... . ..... . .... .. .... .. .... .. .... .. ...... .... .. .... .. .... .. .... . ..... . ..... . .... .. .... .. ... .. .... .. .... . ..... . ......... .. .... .. .... . ....... .... .. ... .. .... ....... . .... .. .... ...... ....... ...... .... . ..... . .... ...... .. .... ...... ...... ....... ... .. .... . .... . .... ...... ...... ....... ... . .... ...... ...... ...... ... ...... ...... ..... .......... ..... ...................",
"..................... .............. ......... ............ ......... .. .....  . ..... ... ........ ........ .. ..... .. ..... .. ........ ........ ........ .. .... ... ....  . ..... .. .... ... ....... ........ .. ..... . ..... .. .... ... .... .. ..... . ..... .. .... .. .. ..... . ..... .. .... .. ....  .. .... .. ....  . ..... . ..... .. .... .. .... .. ..... .. .... .. .... .. .... .. ..... . ..... . ..... . ..... .  .... .. .... .. .... .. .... .. .... .. .... .. .... .. .... ..  . ..... . ..... . ..... . ..... . ..... ... .. .... .. .... .. .... .. .... .. .... .. .... .. .... .. .... . ..... . ..... . ..... . .... .. .... .. .... .. .... .. ... .. .... .. .... .. .... . ..... . .... .. .... .. ...... .... .. .... . ..... . ......... .. .... . ..... . .... .. .... . .... .. .... . ....... .... ...... ....... ...... .... . ..... . .... ...... .. .... ...... ...... ....... ... ....... . ...... .... ...... ...... ...... .... . ...... .... ..... ........... ..... ...... ......................... ....... .",
"......................  ... ......... ......... ... ........ ........  .. ..... ..  .......  ........ .. ..... .. ..... .. ........ ........ ........ .. .... ... ....  . ..... .. ........ ....... ........ .. ..... . ..... .. ..... .. .... .. ..... . ..... .. .... ... . ..... .. .... .. .... ... .... .. ..... . ..... . ..... .. .... .. ....  .. .... .. .... .. ..... . ..... . ..... . ..... .  .... .. .... .. .... .. .... ... . ..... . ..... . ..... . ..... . ..... . ..... . ..... . ..... .. .... .. .... .. .... .. .... .. .... . ..... . ..... . ..... . ..... . ..... . ..... . ..... . ..... . . .. .... .. .... .. .... .. .... . ..... . ..... . ..... . .... .. .... .. .... .. ... .. .... .. .... . ..... . .... .. .... .. ... .. .... .. .... . ..... . . .. .... .. .... . ..... . .... .. ... .. .... . ..... . .... .. ... ....... ...... .... . ..... . .... ...... ....... ...... ...... ...... .... . .... .. ... .. .... ............. ... . .... .. ... ...... ...... ... ...... ............ ... ..... ..... ............",
"........... ........... ... .........  ........ ... ......... .. ...... .  ........ ......... ....... ... ..... .  .... ... .......  ........ ....... ... ....  . ..... .. ........ ....... ........ .. ..... . ..... .. ..... .. ..... . ..... .. .... .. .. ..... . ..... .. .... ... .... .. ....  . ..... . ..... .. .... .. ..... .. .... .. ..... . ..... . ..... . ..... .. .... .. .... .. .... ... . ..... . ..... . ..... . ..... .. .... .. .... .. .... .. .... .. .... .. .... .. .... .. ..... .. .... .. .... .. .... .. .... .. .... . .... .. .... .. .... .. .... .. .... .. .... .. .... .. .... ....... . ..... . ..... . ..... . . .. .... .. .... .. .... .. .... . ..... . ..... . .... .. .... .. ... .. .... .. .... . ..... . .... .. .... .. ... .. .... .. .... . ..... ... .. .... . ..... . .... .. ... .. .... . ..... . .... .. ... ....... ...... .... . ..... . .... . .... ....... ............. ...... .... . .... ...... ...... ...... ...... .... . ...... .... ..... ................. ..... ... ..... ..... ... ....... ",
"......  ...   .............. .......... ............ ........  .. ..... ... ........ ........ ..  ....  . ..... ... ....... ......... ....... ..  .... .. ..... .. ........ ....... ... .... .. ..... .  .... ..  .... .. ..... . ..... .. .... ... . ..... .. .... .. ..... .. ....  . ..... . ..... .. .... .. ..... .. .... .. ..... . ..... . ..... .. .... .. .... .. .. ..... . ..... . ..... . ..... .. .... .. .... .. .... .. ..... .. .... .. .... .. .... .. .... .. .... .. .... .. .... .. ..... . ..... . ..... . ..... . ..... . ....... .... .. .... .. .... .. .... .. .... .. .... .. .... .. .... . .... .. .... .. .... .. .... ....... . ..... . ..... . ......... .. .... .. .... ....... . ..... . .... .. .... .. ... .. .... .. .... . ..... . .... .. .... ...... .. .... . ..... . .... .... .. .... . .... .. .... . .... ....... . .... .. ... ....... ...... .... . ..... . .... . .... ...... ...... ....... ... .. .... . .... . .... ...... ...... ... ...... .. ... ...... ...... ... ..... ...... ......... ........ ....... ",
"....... ..... ............... ......... ... ......... .. ...... .  ........ ......... .. ..... .. ..... .. ........ ........ ........ .. ..... .. ..... .. ........ ....... ... .... .. ..... .  .... ... .... .. ..... . ..... .. .. ..... . ..... .. ....  .. .... .. ..... . ..... .. .... .. ..... .. .... .. ..... . ..... . ..... .. .... .. ........ . ..... . ..... .. .... .. .... .. .... .. ..... .. .... .. .... .. .... .. ..... . ..... . ..... . ..... . ..... . ..... . ..... . ..... . ..... .. .... .. .... .. .... .. .... .. .... . ..... . ..... . ..... . ..... . ..... . ..... . ..... . ..... . .... .. .... .. .... .. .... . .... .. .... .. .... .. .... . ..... . ..... . .... .... .. .... .. .... . ..... . .... .. .... .. ... .. .... .. .... . ..... . .... .. ...... .... .. .... . ......... .. .... . ....... .... . .... ....... . .... .. ... ....... ...... .... . ....... ...... .... ...... ...... ........... . ....... ... ............. ...... .... . ...... .......... ... ...... ..................... ...........",
"..............  ... .........  ............  ........  .. ..... ... ........ ........ ... ..... .. ........ ........ ........ .. ..... .. ..... .. .... ... ....... ... .... .. ..... .. .... ... .... .. ..... .. .... ..  . ..... .. .... .. ..... .. ..... . ..... . ..... .. ..... .. .... .. ..... . ..... . ..... .. .... .. .. ..... . ..... .  .... .. .... .. .... ... .... .. .... .. .... .. ..... . ..... . ..... . ..... . ..... .. .... .. .... .. .... .. .... .. .... .. .... .. .... .. ..... .. .... .. .... .. .... .. .... .. ... .. .... .. .... .. .... .. .... .. .... .. .... .. .... .. .... . ..... . ..... . ..... . ..... . .... .. .... .. .... .. ... .. .... .. .... .. .... . ..... . ......... .. .... .. .... . ..... . .... .. .... .. ... .. .... . ..... . .... .. .... .. ... .. .... . ..... ... .. .... . ..... . .... . .... .. .... . .... .. ... ....... ...... .... . .... .. ... .. .... ...... ...... ...... .... . .... . .... ...... ...... ... ...... .. ... ................. ..... ..... ... ..... ..........",
"............... ... ........... ... ......... .. ...... .  ........ ......... .. ..... .. ..... ... ....... ......... .. ....  .. ..... .  .... ... ....... ... .... .. ..... .. .... ... .... .. ..... .. .... ... . ..... .. .... ... .... .. ..... . ..... .. .... ..  .... .. ..... . ..... . ..... .. .... .. .. ..... . ..... .. .... .. .... ... .... .. .... .. ....  . ..... . ..... . ..... . ..... .. .... .. .... .. .... .. ..... .. .... .. .... .. .... .. .... .. .... .. .... .. .... .. ..... . ..... . ..... . ..... . ..... . .... .. .... .. .... .. .... .. .... .. .... .. .... .. .... .. ...... .... .. .... .. .... .. .... . ..... . ..... . ..... . .... .. .... .. .... .. ... .. .... .. .... . ..... . ..... ... .. .... .. .... . ..... . .... .. .... . .... .. .... . ..... . .... .. ... .. .... . ..... . . .. .... . ..... . .... ...... .. .... . .... .. ... ....... ... .. .... . .... .. ... ....... ..... ....... ... .. .... . ... .. .... ..... ...... .... . ... ...... ...... ... ..... ..... ... ..... ..........",
"....................  ......... ... ......... ... ..... ... ........ ........ ... ..... .. ........ ........  ....... ... ..... . ..... ... ....... ........ .. ..... .. .... ... ....  . ..... .. .... ... . ..... .. ..... .. ....  . ..... .  .... .. ..... .. .... .. ..... . ..... .. .... .. .. ..... . ..... .. .... .. .... ... .... .. .... .. ..... . ..... . ..... .. .... .. .... .. .... .. ..... .. .... .. .... .. .... .. ..... . ..... . ..... . ..... . ..... . ..... . ..... . ..... . ..... .. .... .. .... .. .... .. .... .. .... . ..... . ..... . ..... . ..... . ..... . ..... . ..... . .... .. .... .. .... .. .... .. ...... .... .. .... .. .... .. .... . ..... . ..... . .... .. .... .. ... .. .... .. .... . ..... . ......... .. .... .. .... . ....... .... .. ... .. .... ....... . .... .. .... . .... .. .... . .... .... . ..... . .... ...... .. .... . .... .. ... ....... ... .. .... . .... . .... ...... ...... ....... ... . .... ...... ...... ...... ... ...... . .... ..... .......... ..... ...................",
"..................... .............. ......... .. ......... ......... .. .....  . ..... ... ........ ........ .. ..... .. ..... .. ........ ........ .. ..... .. .... ... ....  . ..... .. .... ... . ..... .. ..... .. ..... . ..... .. .... ... .... .. ..... . ..... .. .... .. .. ..... . ..... .. .... .. ....  .. .... .. ....  . ..... . ..... .. .... .. .... .. ..... .. .... .. .... .. .... .. ..... . ..... . ..... . ..... .  .... .. .... .. .... .. .... .. .... .. .... .. .... .. .... ..  . ..... . ..... . ..... . ..... . ..... ... .. .... .. .... .. .... .. .... .. .... .. .... .. .... .. .... . ..... . ..... . ..... . .... .. .... .. .... .. .... .. ... .. .... .. .... .. .... . ..... . .... .. .... .. ...... .... .. .... . ..... . ......... .. .... . ..... . .... .. .... . .... .. .... . ....... .... ...... .. .... . .... .... . ..... . .... ...... .. .... . .... ...... ....... ... ....... . ...... .... ...... ...... ...... .... . ...... .... ..... ...... .... . ... ...... ......................... .... .. .",
"... ..................  ... ......... ..  ..... ..  ........ ........  .. ..... ..  .......  ........ .. ..... .. ..... .. ........ ........ .. ..... .  .... ... ....  . ..... .. ........ . ..... .. ..... .. ..... . ..... .. ..... .. .... .. ..... . ..... .. .... ... . ..... .. .... .. .... ... .... .. ..... . ..... . ..... .. .... .. ....  .. .... .. .... .. ..... . ..... . ..... . ..... .  .... .. .... .. .... .. .... ... . ..... . ..... . ..... . ..... . ..... . ..... . ..... . ..... .. .... .. .... .. .... .. .... .. .... . ..... . ..... . ..... . ..... . ..... . ..... . ..... . ..... . . .. .... .. .... .. .... .. .... . ..... . ..... . ..... . .... .. .... .. .... .. ... .. .... .. .... . ..... . .... .. .... .. ... .. .... .. .... . ..... . . .. .... .. .... . ..... . .... .. ... .. .... . ..... . .... .. ... .. .... . .... .... . ..... . .... ...... ....... . .... ...... ...... .... . .... .. ... .. .... ............. ... . .... .. ... ...... ...... ... . .... . .......... ... ..... ..... ....... ....",
"...   ..... ........... ... .........  .. ..... ... ......... .. ...... .  ........ ......... ....... ... ..... .  .... ... .......  .. ..... . ..... ... ....  . ..... .. ........ . ..... .. ..... .. ..... . ..... .. ..... .. ..... . ..... .. .... .. .. ..... . ..... .. .... ... .... .. ....  . ..... . ..... .. .... .. ..... .. .... .. ..... . ..... . ..... . ..... .. .... .. .... .. .... ... . ..... . ..... . ..... . ..... .. .... .. .... .. .... .. .... .. .... .. .... .. .... .. ..... .. .... .. .... .. .... .. .... .. .... . .... .. .... .. .... .. .... .. .... .. .... .. .... .. .... ....... . ..... . ..... . ..... . . .. .... .. .... .. .... .. .... . ..... . ..... . .... .. .... .. ... .. .... .. .... . ..... . .... .. .... .. ... .. .... .. .... . ..... ... .. .... . ..... . .... .. ... .. .... . ..... . .... .. ... .. .... . .... .... . ..... . .... . .... . ..... . ........... ...... .... . .... ...... ...... ...... ...... .... . ...... .... ..... ...... ...... ... ..... ... ..... ..... ... ....... ",
".....   ...   .............. ... ...... .. ......... ........  .. ..... ... ........ ........ ..  ....  . ..... ... ....... ... ..... . ..... ..  .... .. ..... .. ........ . ..... ..  .... .. ..... .  .... ..  .... .. ..... . ..... .. .... ... . ..... .. .... .. ..... .. ....  . ..... . ..... .. .... .. ..... .. .... .. ..... . ..... . ..... .. .... .. .... .. .. ..... . ..... . ..... . ..... .. .... .. .... .. .... .. ..... .. .... .. .... .. .... .. .... .. .... .. .... .. .... .. ..... . ..... . ..... . ..... . ..... . ....... .... .. .... .. .... .. .... .. .... .. .... .. .... .. .... . .... .. .... .. .... .. .... ....... . ..... . ..... . ......... .. .... .. .... ....... . ..... . .... .. .... .. ... .. .... .. .... . ..... . .... .. .... ...... .. .... . ..... . .... .... .. .... . .... .. .... . .... ....... . .... .. ... .. .... . .... .... . ..... . .... . .... . .... .. ... ....... ... .. .... . .... . .... ...... ...... ... ...... .. ... ...... ...... ... . ... ...... ......... ........ .... .. ",
"....... ..... ............... ... ..... ... ......... .. ...... .  ........ ......... .. ..... .. ..... .. ........ ........ .. ..... .. ..... .. ..... .. ........ . ..... ..  .... .. ..... .  .... ... .... .. ..... . ..... .. .. ..... . ..... .. ....  .. .... .. ..... . ..... .. .... .. ..... .. .... .. ..... . ..... . ..... .. .... .. ........ . ..... . ..... .. .... .. .... .. .... .. ..... .. .... .. .... .. .... .. ..... . ..... . ..... . ..... . ..... . ..... . ..... . ..... . ... . .. .. . .. .. . .. .. . .. .. . .. .. . . ..... . ..... . ..... . ..... . ..... . ..... . ..... . ..... . .... .. .... .. .... .. .... . .... .. .... .. .... .. .... . ..... . ..... . .... .... .. .... .. .... . ..... . .... .. .... .. ... .. .... .. .... . ..... . .... .. ...... .... .. .... . ......... .. .... . ....... .... . .... ....... . .... .. ... .. .... . .... .... . ....... ...... .... . .... .. ... ........... . ....... ... ............. ...... .... . ...... .......... ... ...... . ................... ...........",
"..............  ... .........  .. .........  ........  .. ..... ... ........ ........ ... ..... .. ........ ........ .. ..... .. ..... .. ..... .. .... ... . ..... ..  .... .. ..... .. .... ... .... .. ..... .. .... ..  . ..... .. .... .. ..... .. ..... . ..... . ..... .. ..... .. .... .. ..... . ..... . ..... .. .... .. .. ..... . ..... .  .... .. .... .. .... ... .... .. .... .. .... .. ..... . ..... . ..... . ..... . ... . .. .. . .. .. . .. .. . .. .. . .. .. . .. .. . .. .. . .. .. .. .. . .. .. . .. .. . .. .. . .. .. . . .. .. . .. .. . .. .. . .. .. . .. .. . .. .. . .. .. . .. .. . . ..... . ..... . ..... . ..... . .... .. .... .. .... .. ... .. .... .. .... .. .... . ..... . ......... .. .... .. .... . ..... . .... .. .... .. ... .. .... . ..... . .... .. .... .. ... .. .... . ..... ... .. .... . ..... . .... . .... .. .... . .... .. ... .. .... . .... .... . .... .. ... .. .... . .... ...... ...... .... . .... . .... ...... ...... ... ...... .. ... ............ .... . ... ..... ... ..... ....... ..",
"............... ... ........... ..  ......... .. ...... .  ........ ......... .. ..... .. ..... ... ....... ... ..... .  ....  .. ..... .  .... ... . ..... ..  .... .. ..... .. .... ... .... .. ..... .. .... ... . ..... .. .... ... .... .. ..... . ..... .. .... ..  .... .. ..... . ..... . ..... .. .... .. .. ..... . ..... .. .... .. .... ... .... .. .... .. ....  . ..... . ..... . ..... . ... . .. .. . .. .. . .. .. . .. .. .. .. . .. .. . .. .. . .. .. . .. .. . .. .. . .. .. . .. .. .. .. . .. .. . .. .. . .. .. . .. .. . .. . .. . .. .. . .. .. . .. .. . .. .. . .. .. . .. .. . .. .. . .... .. . .. .. . .. .. . .. .. . . ..... . ..... . ..... . .... .. .... .. .... .. ... .. .... .. .... . ..... . ..... ... .. .... .. .... . ..... . .... .. .... . .... .. .... . ..... . .... .. ... .. .... . ..... . . .. .... . ..... . .... ...... .. .... . .... .. ... .. .... . . .. .... . .... .. ... ....... . ... ....... ... .. .... . ... .. .... ..... ...... .... . ... ...... ...... ... . ... ..... ... ..... ....... ..",
"....................  ..  ..... ... ......... ... ..... ... ........ ........ ... ..... .. ........ ... ....  . ..... ... ..... . ..... ... . ..... .. ..... .. ..... .. .... ... ....  . ..... .. .... ... . ..... .. ..... .. ....  . ..... .  .... .. ..... .. .... .. ..... . ..... .. .... .. .. ..... . ..... .. .... .. .... ... .... .. .... .. ..... . ..... . ..... .. .. . .. .. . .. .. . .. .. .. .. . .. .. . .. .. . .. .. .. .. . .. .. . .. .. . .. .. . .. .. . .. .. . .. .. . .. .. . ... . .. .. . .. .. . .. .. . .. .. . .. .... . .. .. . .. .. . .. .. . .. .. . .. .. . .. .. . .. .. . .. . .. . .. .. . .. .. . .. .. . .... .. . .. .. . .. .. . .. .... . ..... . ..... . .... .. .... .. ... .. .... .. .... . ..... . ......... .. .... .. .... . ....... .... .. ... .. .... ....... . .... .. .... . .... .. .... . .... .... . ..... . .... ...... .. .... . .... .. ... .. .... . . .. .... . .... . .... . .... .. ... ....... ... . .... ...... ...... ...... ... ...... . .... ..... .......... . ... ...................",
"..................... ... .......... ......... .. ......... ......... .. .....  . ..... ... ........ .. ..... .. ..... .. ..... .. .. ..... .. ..... .. ..... .. .... ... ....  . ..... .. .... ... . ..... .. ..... .. ..... . ..... .. .... ... .... .. ..... . ..... .. .... .. .. ..... . ..... .. .... .. ....  .. .... .. ....  . ..... . ..... .. .. . .. .. . .. .. .. .. . .. .. . .. .. . .. .. .. .. . .. .. . .. .. . .. .. .  .. . .. .. . .. .. . .. .. . .. .. . .. .. . .. .. . .. .. . ..  . ..... . ..... . ..... . ..... . ..... . . .. .. . .. .. . .. .. . .. .. . .. .. . .. .. . .. .. . .. .. . . .. .. . .. .. . .. .. . .. . .. . .. .. . .. .. . .. .. . . .. .. . .. .. . .. .... . ..... . .... .. .... .. ...... .... .. .... . ..... . ......... .. .... . ..... . .... .. .... . .... .. .... . ....... .... ...... .. .... . .... .... . ..... . .... ...... .. .... . .... ...... ....... ... ....... . ...... .... . .... ...... ...... .... . ...... .... ..... ...... .... . ... ...... ..... ................... .... .. .",
"... ..................  ..  ......... ..  ..... ..  ........ ........  .. ..... ..  .......  .. ..... .. ..... .. ..... .. ........ .. ..... .. ..... .  .... ... ....  . ..... .. ........ . ..... .. ..... .. ..... . ..... .. ..... .. .... .. ..... . ..... .. .... ... . ..... .. .... .. .... ... .... .. ..... . ..... . ..... .. .. . .. .. .  .. . .. .. . .. .. . ... . .. .. . .. .. . .. .. .  .. . .. .. . .. .. . .. .. . ... . ..... . ..... . ..... . ..... . ..... . ..... . ..... . ..... .. .... .. .... .. .... .. .... .. .... . ..... . ..... . ..... . ..... . ..... . ..... . ..... . ..... . . .. .. . .. .. . .. .. . .. .. . . .. .. . .. .. . .. .. . . .. .. . .. .. . .. .. . . .. .. . .. .... . ..... . .... .. .... .. ... .. .... .. .... . ..... . . .. .... .. .... . ..... . .... .. ... .. .... . ..... . .... .. ... .. .... . .... .... . ..... . .... ...... ....... . .... . .... . .... .... . .... .. ... .. .... . ........... ... . .... .. ... ...... ...... ... . .... . .......... ... . ... ..... ....... ....",
"...   ..... ........... ... .........  .. ..... ... ......... .. ...... .  ........ ......... . ..... ... ..... .  .... ... .  ....  .. ..... . ..... ... ....  . ..... .. ........ . ..... .. ..... .. ..... . ..... .. ..... .. ..... . ..... .. .... .. .. ..... . ..... .. .... ... .... .. ....  . ..... . ..... .. .. . .. .. .. .. . .. .. . ... . .. .. . .. .. . ..  . .. .. . .. .. . .. .. . ... . ..... . ..... . ..... . ..... .. .... .. .... .. .... .. .... .. .... .. .... .. .... .. ..... .. .... .. .... .. .... .. .... .. .... . .... .. .... .. .... .. .... .. .... .. .... .. .... .. .... ....... . ..... . ..... . ..... . . .. .. . .. .. . .. .. . .. . .. . .. .. . .. .. . . .. .. . .. .. . . .. .. . .. .. . . ..... . .... .. .... .. ... .. .... .. .... . ..... ... .. .... . ..... . .... .. ... .. .... . ..... . .... .. ... .. .... . .... .... . ..... . .... . .... . ..... . ...... .... . .... .... . .... ...... . .... .. ... ...... .... . ...... .... ..... ...... ...... ... ..... ... . ... ..... ... ....... ",
".....   ...   ..  .......... ... ...... .. ......... ........  .. ..... ... ........ .. ..... ..  ....  . ..... ... . ..... ... ..... . ..... ..  .... .. ..... .. ........ . ..... ..  .... .. ..... .  .... ..  .... .. ..... . ..... .. .... ... . ..... .. .... .. ..... .. ....  . ..... . ..... .. .. . .. .. .. .. . .. .. . ... . .. .. . .. .. .. .. . .. .. . .. .. ..... . ..... . ..... . ..... .. .... .. .... .. .... .. ..... .. .... .. .... .. .... .. .... .. .... .. .... .. .... .. ..... . ..... . ..... . ..... . ..... . ....... .... .. .... .. .... .. .... .. .... .. .... .. .... .. .... . .... .. .... .. .... .. .... ....... . ..... . ..... . ....... . .. .. . .. .. . .... .. . .. .. . . .. .. . .. .. . . .. .. . .. .... . ..... . .... .. .... ...... .. .... . ..... . .... .... .. .... . .... .. .... . .... ....... . .... .. ... .. .... . .... .... . ..... . .... . .... . .... .. ... .. .... . . .. .... . .... . .... . .... ...... ... ...... .. ... ...... ...... ... . ... ...... ..... ... . ...... .... .. ",
"....... ..... ... ........... ... ..... ... ......... .. ...... .  ........ ... ..... .  ..... .. ..... .. .. ..... .. ..... .. ..... .. ..... .. ..... .. ........ . ..... ..  .... .. ..... .  .... ... .... .. ..... . ..... .. .. ..... . ..... .. ....  .. .... .. ..... . ..... .. .. . .. .. .. .. . .. .. .  .. . .. .. . ..  . .. .. . .. .. ..... . ..... . ..... .. .... .. .... .. .... .. ..... .. .... .. .... .. .... .. ..... . ..... . ..... . ..... . ..... . ..... . ..... . ..... . ... . .. .. . .. .. . .. .. . .. .. . .. .. . . ..... . ..... . ..... . ..... . ..... . ..... . ..... . ..... . .... .. .... .. .... .. .... . .... .. .... .. .... .. .... . ..... . ..... . .... .. . .. .. . .. . .. . .. .. . .... .. . .. .. . . .. .. . .. .... . ..... . .... .. ...... .... .. .... . ......... .. .... . ....... .... . .... ....... . .... .. ... .. .... . .... .... . ....... ...... .... . .... .. ... ........... . ....... ... ......... ... ...... .... . ...... .......... ... ...... . ................... ...........",
"..............  ..  .........  .. .........  ........  .. ..... ... ........ .. ..... ... ..... .. ........ .. ..... .. ..... .. ..... .. ..... .. .... ... . ..... ..  .... .. ..... .. .... ... .... .. ..... .. .... ..  . ..... .. .... .. ..... .. ..... . ..... . ... . .. .. .. .. . .. .. . ... . .. .. . ... . .. .. . .. .. ..... . ..... .  .... .. .... .. .... ... .... .. .... .. .... .. ..... . ..... . ..... . ..... . ... . .. .. . .. .. . .. .. . .. .. . .. .. . .. .. . .. .. . .. .. .. .. . .. .. . .. .. . .. .. . .. .. . . .. .. . .. .. . .. .. . .. .. . .. .. . .. .. . .. .. . .. .. . . ..... . ..... . ..... . ..... . .... .. .... .. .... .. ... .. .... .. .... .. .... . ..... . ....... . .. .. . .. . .. . .. .. . . .. .. . .. .. . . .. .. . . ..... . .... .. .... .. ... .. .... . ..... ... .. .... . ..... . .... . .... .. .... . .... .. ... .. .... . .... .... . .... .. ... .. .... . .... . .... . .... .... . .... . .... . .... ...... ... ...... .. ... ............ .... . ... ..... ... . ... ....... ..",
"............... ... ........... ..  ......... .. ...... .  ........ ... ..... .. ..... .. ..... ... . ..... ... ..... .  ....  .. ..... .  .... ... . ..... ..  .... .. ..... .. .... ... .... .. ..... .. .... ... . ..... .. .... ... .... .. ..... . ..... .. .. . ..  . .. .. . ... . .. .. . ..  . .. .. . .. .. ..... . ..... .. .... .. .... ... .... .. .... .. ....  . ..... . ..... . ..... . ... . .. .. . .. .. . .. .. . .. .. .. .. . .. .. . .. .. . .. .. . .. .. . .. .. . .. .. . .. .. .. .. . .. .. . .. .. . .. .. . .. .. . .. . .. . .. .. . .. .. . .. .. . .. .. . .. .. . .. .. . .. .. . .... .. . .. .. . .. .. . .. .. . . ..... . ..... . ..... . .... .. .... .. .... .. ... .. .... .. .... . ..... . ..... . . .. .. . .. . .. . .. .. . . .. .. . .. . .. . .. .. . . ..... . .... .. ... .. .... . ..... . . .. .... . ..... . .... ...... .. .... . .... .. ... .. .... . . .. .... . .... .. ... ....... . ... .. .... . . .. .... . ... .. .... . ... ...... .... . ... ...... ...... ... . ... ..... ... . ... ....... ..",
"....................  ..  ..... ... ......... ... ..... ... ........ .. ..... ... ..... .. .. ..... ..  ....  . ..... ... ..... . ..... ... . ..... .. ..... .. ..... .. .... ... ....  . ..... .. .... ... . ..... .. ..... .. ....  . ..... .  .. . .. .. .. .. . .. .. .. .. . ..  . .. .. . .. .. ..... . ..... .. .... .. .... ... .... .. .... .. ..... . ..... . ..... .. .. . .. .. . .. .. . .. .. .. .. . .. .. . .. .. . .. .. .. .. . .. .. . .. .. . .. .. . .. .. . .. .. . .. .. . .. .. . ... . .. .. . .. .. . .. .. . .. .. . .. .... . .. .. . .. .. . .. .. . .. .. . .. .. . .. .. . .. .. . .. . .. . .. .. . .. .. . .. .. . .... .. . .. .. . .. .. . .. .... . ..... . ..... . .... .. .... .. ... .. .... .. .... . ..... . ....... . .. .. . .. . .. . .. .... . .. .. . . .. .. . ....... . .... .. .... . .... .. .... . .... .... . ..... . .... ...... .. .... . .... .. ... .. .... . . .. .... . .... . .... . .... .. ... .. .... ... . .... ...... . .... ...... ... ...... . .... ..... .......... . ... ..... .............",
"........  ........... ... .......... ......... .. ......... ... ..... .. .....  . ..... ... .. ..... .. ..... .. ..... .. ..... .. .. ..... .. ..... .. ..... .. .... ... ....  . ..... .. .... ... . ..... .. ..... .. ..... . ..... .. .. . ... . .. .. .  .. . .. .. .. .. . .. .. ..... . ..... .. .... .. ....  .. .... .. ....  . ..... . ..... .. .. . .. .. . .. .. .. .. . .. .. . .. .. . .. .. .. .. . .. .. . .. .. . .. .. .  .. . .. .. . .. .. . .. .. . .. .. . .. .. . .. .. . .. .. . ..  . ..... . ..... . ..... . ..... . ..... . . .. .. . .. .. . .. .. . .. .. . .. .. . .. .. . .. .. . .. .. . . .. .. . .. .. . .. .. . .. . .. . .. .. . .. .. . .. .. . . .. .. . .. .. . .. .... . ..... . .... .. .... .. ...... .... .. .... . ..... . ....... . .. .. . . .. .. . .... .. . .. . .. . .. .... . ....... .... ...... .. .... . .... .... . ..... . .... ...... .. .... . .... ...... ....... ... ....... . ...... .... . .... ...... . .... .... . ...... .... . ... ...... .... . ... ...... ..... ................... .... .. .",
"... .....  ...........  ..  ......... ..  ..... ..  ........ .. .....  .. ..... ..  . .....  .. ..... .. ..... .. ..... .. ........ .. ..... .. ..... .  .... ... ....  . ..... .. ........ . ..... .. ..... .. ..... . ... . .. .. .. .. . .. .. .. .. . ... . .. .. . ... . ..... .. .... .. .... ... .... .. ..... . ..... . ..... .. .. . .. .. .  .. . .. .. . .. .. . ... . .. .. . .. .. . .. .. .  .. . .. .. . .. .. . .. .. . ... . ..... . ..... . ..... . ..... . ..... . ..... . ..... . ..... .. .... .. .... .. .... .. .... .. .... . ..... . ..... . ..... . ..... . ..... . ..... . ..... . ..... . . .. .. . .. .. . .. .. . .. .. . . .. .. . .. .. . .. .. . . .. .. . .. .. . .. .. . . .. .. . .. .... . ..... . .... .. .... .. ... .. .... .. .... . ..... . . .. .. . .. . .. . .. .. . . .. .. . . .. .. . . ..... . .... .. ... .. .... . .... .... . ..... . .... ...... ....... . .... . .... . .... .... . .... .. ... .. .... . ...... .... ... . .... .. ... . .... ...... ... . .... . .......... ... . ... ..... .... .. ....",
"...   ..... ........... ... .........  .. ..... ... ... ..... .. ...... .  ........ .. ...... . ..... ... ..... .  .... ... .  ....  .. ..... . ..... ... ....  . ..... .. ........ . ..... .. ..... .. ..... . ... . .. .. .. .. . ... . .. .. .. .. . .. .. ..... . ..... .. .... ... .... .. ....  . ..... . ..... .. .. . .. .. .. .. . .. .. . ... . .. .. . .. .. . ..  . .. .. . .. .. . .. .. . ... . ..... . ..... . ..... . ..... .. .... .. .... .. .... .. .... .. .... .. .... .. .... .. ..... .. .... .. .... .. .... .. .... .. .... . .... .. .... .. .... .. .... .. .... .. .... .. .... .. .... ....... . ..... . ..... . ..... . . .. .. . .. .. . .. .. . .. . .. . .. .. . .. .. . . .. .. . .. .. . . .. .. . .. .. . . ..... . .... .. .... .. ... .. .... .. .... . ..... . . .. .. . . .. .. . . .. .. . . .. .. . . ..... . .... .. ... .. .... . .... .... . ..... . .... . .... . ..... . ...... .... . .... .... . .... ...... . .... .. ... . .... .... . ...... .... . ... ...... ...... ... ..... ... . ... ..... ... ....... ",
".....   ...   ..  .......... ... ...... .. ......... .. .....  .. ..... ... . ...... .. ..... ..  ....  . ..... ... . ..... ... ..... . ..... ..  .... .. ..... .. ........ . ..... ..  .... .. ..... .  .. . ..  . .. .. .. .. . ..  . .. .. . ... . ..... .. .... .. ..... .. ....  . ..... . ..... .. .. . .. .. .. .. . .. .. . ... . .. .. . .. .. .. .. . .. .. . .. .. ..... . ..... . ..... . ..... .. .... .. .... .. .... .. ..... .. .... .. .... .. .... .. .... .. .... .. .... .. .... .. ..... . ..... . ..... . ..... . ..... . ....... .... .. .... .. .... .. .... .. .... .. .... .. .... .. .... . .... .. .... .. .... .. .... ....... . ..... . ..... . ....... . .. .. . .. .. . .... .. . .. .. . . .. .. . .. .. . . .. .. . .. .... . ..... . .... .. .... ...... .. .... . ..... . .... .. . .. . .. . .. . .. . .. . .. . ....... . .... .. ... .. .... . .... .... . ..... . .... . .... . .... .. ... .. .... . . .. .... . .... . .... . .... . .... . . ...... .. ... . .... ...... ... . ... ...... ..... ... . ...... . .. .. ",
"....... ..... ... ........... ... ..... ... ......... .. ...... .  ........ ..  ..... .  ..... .. ..... .. .. ..... .. ..... .. ..... .. ..... .. ..... .. ........ . ..... ..  .... .. ..... .  .. . ... . .. .. .. .. . ... . .. .. ..... . ..... .. ....  .. .... .. ..... . ..... .. .. . .. .. .. .. . .. .. .  .. . .. .. . ..  . .. .. . .. .. ..... . ..... . ..... .. .... .. .... .. .... .. ..... .. .... .. .... .. .... .. ..... . ..... . ..... . ..... . ..... . ..... . ..... . ..... . ... . .. .. . .. .. . .. .. . .. .. . .. .. . . ..... . ..... . ..... . ..... . ..... . ..... . ..... . ..... . .... .. .... .. .... .. .... . .... .. .... .. .... .. .... . ..... . ..... . .... .. . .. .. . .. . .. . .. .. . .... .. . .. .. . . .. .. . .. .... . ..... . .... .. ...... .... .. .... . ....... . .. .... . .. .... . .. . .. . ....... . .... .. ... .. .... . .... .... . ....... ...... .... . .... .. ... ........... . ....... ... ......... ... ...... .... . ...... ...... ... ... ...... . ................... .... ......",
"..............  ..  .........  .. .........  .. .....  .. ..... ... .  ..... .. ..... ... ..... .. ........ .. ..... .. ..... .. ..... .. ..... .. .... ... . ..... ..  .... .. ..... .. .. . ... . .. .. .. .. .. .. . ..  . ..... .. .... .. ..... .. ..... . ..... . ... . .. .. .. .. . .. .. . ... . .. .. . ... . .. .. . .. .. ..... . ..... .  .... .. .... .. .... ... .... .. .... .. .... .. ..... . ..... . ..... . ..... . ... . .. .. . .. .. . .. .. . .. .. . .. .. . .. .. . .. .. . .. .. .. .. . .. .. . .. .. . .. .. . .. .. . . .. .. . .. .. . .. .. . .. .. . .. .. . .. .. . .. .. . .. .. . . ..... . ..... . ..... . ..... . .... .. .... .. .... .. ... .. .... .. .... .. .... . ..... . ....... . .. .. . .. . .. . .. .. . . .. .. . .. .. . . .. .. . . ..... . .... .. .... .. ... .. .... . ..... . . .. .. . . .. .. . . .. . .. . .. .... . .... .. ... .. .... . .... .... . .... .. ... .. .... . .... . .... . .... .... . .... . .... . .... . .... . . ...... .. ... . .......... .... . ... ..... ... . ... ....... ..",
"............... ... ........... ..  ......... .  ...... .  ........ ... ..... .. ..... .. ..... ... . ..... ... ..... .  ....  .. ..... .  .... ... . ..... ..  .... .. ..... .. .. . ... . .. .. .. .. .. .. . ... . ..... .. .... ... .... .. ..... . ..... .. .. . ..  . .. .. . ... . .. .. . ..  . .. .. . .. .. ..... . ..... .. .... .. .... ... .... .. .... .. ....  . ..... . ..... . ..... . ... . .. .. . .. .. . .. .. . .. .. .. .. . .. .. . .. .. . .. .. . .. .. . .. .. . .. .. . .. .. .. .. . .. .. . .. .. . .. .. . .. .. . .. . .. . .. .. . .. .. . .. .. . .. .. . .. .. . .. .. . .. .. . .... .. . .. .. . .. .. . .. .. . . ..... . ..... . ..... . .... .. .... .. .... .. ... .. .... .. .... . ..... . ..... . . .. .. . .. . .. . .. .. . . .. .. . .. . .. . .. .. . . ..... . .... .. ... .. .... . ..... . . .. .. . . .. .. . . .. .... . .. .... . .... .. ... .. .... . . .. .... . .... .. ... ....... . ... .. .... . . .. .... . ... .. .... . ... ...... .... . ... ...... ...... ... . ... ..... ... . ... .... .. ..",
"....................  ..  ..... ... ... ..... ... ..... ... .  ..... .. ..... ... ..... .. .. ..... ..  ....  . ..... ... ..... . ..... ... . ..... .. ..... .. ..... .. .. . ... . ..  . .. .. .. .. . ... . ..... .. ..... .. ....  . ..... .  .. . .. .. .. .. . .. .. .. .. . ..  . .. .. . .. .. ..... . ..... .. .... .. .... ... .... .. .... .. ..... . ..... . ..... .. .. . .. .. . .. .. . .. .. .. .. . .. .. . .. .. . .. .. .. .. . .. .. . .. .. . .. .. . .. .. . .. .. . .. .. . .. .. . ... . .. .. . .. .. . .. .. . .. .. . .. .... . .. .. . .. .. . .. .. . .. .. . .. .. . .. .. . .. .. . .. . .. . .. .. . .. .. . .. .. . .... .. . .. .. . .. .. . .. .... . ..... . ..... . .... .. .... .. ... .. .... .. .... . ..... . ....... . .. .. . .. . .. . .. .... . .. .. . . .. .. . ....... . .... .. .... . .... .. .... . .... .. . . .. .. . . .. .... . .. .... . .... .. ... .. .... . . .. .... . .... . .... . .... .. ... .. .... ... . .... ...... . .... . .... . . ...... . .... . ... .......... . ... ..... .............",
"  ......  ........... ... .......... .. ...... .. ......... ... ..... .. .....  . ..... ... .. ..... .. ..... .. ..... .. ..... .. .. ..... .. ..... .. ..... .. .. . ... . ..  . .. .. .. .. . ... . ..... .. ..... .. ..... . ..... .. .. . ... . .. .. .  .. . .. .. .. .. . .. .. ..... . ..... .. .... .. ....  .. .... .. ....  . ..... . ..... .. .. . .. .. . .. .. .. .. . .. .. . .. .. . .. .. .. .. . .. .. . .. .. . .. .. .  .. . .. .. . .. .. . .. .. . .. .. . .. .. . .. .. . .. .. . ..  . .. .. . .. .. . .. .. . .. .. . .. .. . . .. .. . .. .. . .. .. . .. .. . .. .. . .. .. . .. .. . .. .. . . .. .. . .. .. . .. .. . .. . .. . .. .. . .. .. . .. .. . . .. .. . .. .. . .. .... . ..... . .... .. .... .. ...... .... .. .... . ..... . ....... . .. .. . . .. .. . .... .. . .. . .. . .. .... . ....... .... ...... .. .... . .... .. . . .. .. . . .. .... . .. .... . .... ...... ....... ... ....... . ...... .... . .... ...... . .... .... . ...... .... . ... ...... .... . ... . .... ..... ................... .... .. .",
".   .....  ...........  ..  ......... ..  ..... ..  .  ..... .. .....  .. ..... ..  . .....  .. ..... .. ..... .. ..... .. ........ .. ..... .. ..... .  .. . ... . ..  . .. .. .. .. ..... . ..... .. ..... .. ..... . ... . .. .. .. .. . .. .. .. .. . ... . .. .. . ... . ..... .. .... .. .... ... .... .. ..... . ..... . ..... .. .. . .. .. .  .. . .. .. . .. .. . ... . .. .. . .. .. . .. .. .  .. . .. .. . .. .. . .. .. . ... . .. .. . .. .. . .. .. . .. .. . .. .. . .. .. . .. .. . .. .. .. .. . .. .. . .. .. . .. .. . .. .. . . .. .. . .. .. . .. .. . .. .. . .. .. . .. .. . .. .. . .. .. . . .. .. . .. .. . .. .. . .. .. . . .. .. . .. .. . .. .. . . .. .. . .. .. . .. .. . . .. .. . .. .... . ..... . .... .. .... .. ... .. .... .. .... . ..... . . .. .. . .. . .. . .. .. . . .. .. . . .. .. . . ..... . .... .. ... .. .... . .... .. . . .. .. . . .. .... . ....... . .... . .... . .... .... . .... .. ... .. .... . ...... .... ... . .... .. ... . .... . .... ... . .... . ...... ... ... . ... ..... .... .. ....",
"...   ..... ........... ... ... .....  .. ..... ... ... ..... .. ...... .  ........ .. ...... . ..... ... ..... .  .... ... .  ....  .. ..... . ... . ... . ..  . .. .. .. .. ..... . ..... .. ..... .. ..... . ... . .. .. .. .. . ... . .. .. .. .. . .. .. ..... . ..... .. .... ... .... .. ....  . ..... . ..... .. .. . .. .. .. .. . .. .. . ... . .. .. . .. .. . ..  . .. .. . .. .. . .. .. . ... . .. .. . .. .. . .. .. . .. .. .. .. . .. .. . .. .. . .. .. . .. .. . .. .. . .. .. . .. .. .. .. . .. .. . .. .. . .. .. . .. .. . .. . .. . .. .. . .. .. . .. .. . .. .. . .. .. . .. .. . .. .. . .... .. . .. .. . .. .. . .. .. . . .. .. . .. .. . .. .. . .. . .. . .. .. . .. .. . . .. .. . .. .. . . .. .. . .. .. . . ..... . .... .. .... .. ... .. .... .. .... . ..... . . .. .. . . .. .. . . .. .. . . .. .. . . ..... . .... .. ... .. .... . .... .. . . .. .. . . .. . .. . . ..... . ...... .... . .... .... . .... ...... . .... .. ... . .... .... . ...... .... . ... . .... ...... ... . ... ... . ... ..... ... ....... ",
".....   ...   ..  .......... ..  ...... .. .. ...... .. .....  .. ..... ... . ...... .. ..... ..  ....  . ..... ... . ..... ... ..... . ... . ..  . .. .. .. .. .. .. ..... . ..... ..  .... .. ..... .  .. . ..  . .. .. .. .. . ..  . .. .. . ... . ..... .. .... .. ..... .. ....  . ..... . ..... .. .. . .. .. .. .. . .. .. . ... . .. .. . .. .. .. .. . .. .. . .. .. .. .. . .. .. . .. .. . .. .. .. .. . .. .. . .. .. . .. .. .. .. . .. .. . .. .. . .. .. . .. .. . .. .. . .. .. . .. .. . ... . .. .. . .. .. . .. .. . .. .. . .. .... . .. .. . .. .. . .. .. . .. .. . .. .. . .. .. . .. .. . .. . .. . .. .. . .. .. . .. .. . .... .. . .. .. . .. .. . .. .... . .. .. . .. .. . .... .. . .. .. . . .. .. . .. .. . . .. .. . .. .... . ..... . .... .. .... ...... .. .... . ..... . .... .. . .. . .. . .. . .. . .. . .. . ....... . .... .. ... .. .... . .... .. . . .. .. . . .. . .. . . .... .. ... .. .... . . .. .... . .... . .... . .... . .... . . ...... .. ... . .... . .... ... . ... ...... ..... ... . ...... . .. .. ",
"....... ..... ... ........... ... ..... ... .. ...... .. ...... .  ........ ..  ..... .  ..... .. ..... .. .. ..... .. ..... .. ..... .. .. .. .. .. .. .. .. ..... . ..... ..  .... .. ..... .  .. . ... . .. .. .. .. . ... . .. .. ..... . ..... .. ....  .. .... .. ..... . ..... .. .. . .. .. .. .. . .. .. .  .. . .. .. . ..  . .. .. . .. .. .. .. . .. .. . .. .. .. .. . .. .. . .. .. . .. .. .. .. . .. .. . .. .. . .. .. .  .. . .. .. . .. .. . .. .. . .. .. . .. .. . .. .. . .. .. . ..  . .. .. . .. .. . .. .. . .. .. . .. .. . . .. .. . .. .. . .. .. . .. .. . .. .. . .. .. . .. .. . .. .. . . .. .. . .. .. . .. .. . .. . .. . .. .. . .. .. . .. .. . . .. .. . .. .. . .. . .. . .. .. . .. . .. . .. .. . .... .. . .. .. . . .. .. . .. .... . ..... . .... .. ...... .... .. .... . ....... . .. .... . .. .... . .. . .. . ....... . .... .. ... .. .... . .... .. . . .. .... . .... .. . . .... .. ... ........... . ....... ... ......... ... ...... .... . ...... ...... ... . . ...... . ................... .... ......",
"..............  ..  ... .....  .. .........  .. .....  .. ..... ... .  ..... .. ..... ... ..... .. ........ .. ..... .. ..... .. .. .. .. .. .. .. .. . ... . ..... ..  .... .. ..... .. .. . ... . .. .. .. .. .. .. . ..  . ..... .. .... .. ..... .. ..... . ..... . ... . .. .. .. .. . .. .. . ... . .. .. . ... . .. .. . .. .. .. .. . .. .. .  .. . .. .. . .. .. . ... . .. .. . .. .. . .. .. .  .. . .. .. . .. .. . .. .. . ... . .. .. . .. .. . .. .. . .. .. . .. .. . .. .. . .. .. . .. .. .. .. . .. .. . .. .. . .. .. . .. .. . . .. .. . .. .. . .. .. . .. .. . .. .. . .. .. . .. .. . .. .. . . .. .. . .. .. . .. .. . .. .. . . .. .. . .. .. . .. .. . . .. .. . .. .. . .. .. . . .. .. . .. .... . .. .. . .. . .. . .. .. . . .. .. . .. .. . . .. .. . . ..... . .... .. .... .. ... .. .... . ..... . . .. .. . . .. .. . . .. . .. . .. .... . .... .. ... .. .... . .... .. . . .. . .. . . .. .... . .... . .... . .... .... . .... . .... . .... . .... . . ...... .. ... . ...... ... .... . ... . ... ... . ... ....... ..",
"............... ... ... ....... ..  .  ...... .  ...... .  ........ ... ..... .. ..... .. ..... ... . ..... ... ..... .  .. .  .. .  .. .  .. . ... . ..... ..  .... .. ..... .. .. . ... . .. .. .. .. .. .. . ... . ..... .. .... ... .... .. ..... . ..... .. .. . ..  . .. .. . ... . .. .. . ..  . .. .. . .. .. .. .. . .. .. .. .. . .. .. . ... . .. .. . .. .. . ..  . .. .. . .. .. . .. .. . ... . .. .. . .. .. . .. .. . .. .. .. .. . .. .. . .. .. . .. .. . .. .. . .. .. . .. .. . .. .. .. .. . .. .. . .. .. . .. .. . .. .. . .. . .. . .. .. . .. .. . .. .. . .. .. . .. .. . .. .. . .. .. . .... .. . .. .. . .. .. . .. .. . . .. .. . .. .. . .. .. . .. . .. . .. .. . .. .. . . .. .. . .. .. . . .. .. . .. .. . . .. .. . .. . .. . .. .. . . .. .. . .. . .. . .. .. . . ..... . .... .. ... .. .... . ..... . . .. .. . . .. .. . . .. .... . .. .... . .... .. ... .. .... . . .. .. . . .... .. . . ....... . ... .. .... . . .. .... . ... .. .... . ... ...... .... . ... ...... ...... ... . ... . ... ... . ... .... .. ..",
"....................  ..  ..... ... ... ..... ... ..... ... .  ..... .. ..... ... ..... .. .. ..... ..  ....  . ... . ... . ... . ... . ... . ..... .. ..... .. ..... .. .. . ... . ..  . .. .. .. .. . ... . ..... .. ..... .. ....  . ..... .  .. . .. .. .. .. . .. .. .. .. . ..  . .. .. . .. .. .. .. . .. .. .. .. . .. .. . ... . .. .. . .. .. .. .. . .. .. . .. .. .. .. . .. .. . .. .. . .. .. .. .. . .. .. . .. .. . .. .. .. .. . .. .. . .. .. . .. .. . .. .. . .. .. . .. .. . .. .. . ... . .. .. . .. .. . .. .. . .. .. . .. .... . .. .. . .. .. . .. .. . .. .. . .. .. . .. .. . .. .. . .. . .. . .. .. . .. .. . .. .. . .... .. . .. .. . .. .. . .. .... . .. .. . .. .. . .... .. . .. .. . . .. .. . .. .. . . .. .. . .. .... . .. .. . .. . .. . .. .... . .. .. . . .. .. . ....... . .... .. .... . .... .. .... . .... .. . . .. .. . . .. .... . .. .... . .... .. ... .. .... . . .. . .. . . .. . .. . . .... .. ... .. .... ... . .... ...... . .... . .... . . ...... . .... . ... . ........ . ... ..... .............",
"  ......  ........... ... .......... .. ...... .. ......... ... ..... .. .....  . ..... ... .. ..... .. ..... .. .. .. .. .. .. .. .. ..... .. ..... .. ..... .. .. . ... . ..  . .. .. .. .. . ... . ..... .. ..... .. ..... . ..... .. .. . ... . .. .. .  .. . .. .. .. .. . .. .. .. .. . .. .. .. .. . .. .. .  .. . .. .. . ..  . .. .. . .. .. .. .. . .. .. . .. .. .. .. . .. .. . .. .. . .. .. .. .. . .. .. . .. .. . .. .. .  .. . .. .. . .. .. . .. .. . .. .. . .. .. . .. .. . .. .. . ..  . .. .. . .. .. . .. .. . .. .. . .. .. . . .. .. . .. .. . .. .. . .. .. . .. .. . .. .. . .. .. . .. .. . . .. .. . .. .. . .. .. . .. . .. . .. .. . .. .. . .. .. . . .. .. . .. .. . .. . .. . .. .. . .. . .. . .. .. . .... .. . .. .. . . .. .. . .. .... . .. .. . . .. .. . .... .. . .. . .. . .. .... . ....... .... ...... .. .... . .... .. . . .. .. . . .. .... . .. .... . .... ...... ....... . . .... .. . . .... .... . .... ...... . .... .... . ...... .... . ... ...... .... . ... . .... . ... ................... .... .. .",
".   .....  .... ......  ..  .  ...... ..  ..... ..  .  ..... .. .....  .. ..... ..  . .....  .. ..... .. .. .. .. .. .. .. .. ..... .. ..... .. ..... .  .. . ... . ..  . .. .. .. .. ..... . ..... .. ..... .. ..... . ... . .. .. .. .. . .. .. .. .. . ... . .. .. . ... . .. .. .. .. . .. .. . ... . .. .. . ... . .. .. . .. .. .. .. . .. .. .  .. . .. .. . .. .. . ... . .. .. . .. .. . .. .. .  .. . .. .. . .. .. . .. .. . ... . .. .. . .. .. . .. .. . .. .. . .. .. . .. .. . .. .. . .. .. .. .. . .. .. . .. .. . .. .. . .. .. . . .. .. . .. .. . .. .. . .. .. . .. .. . .. .. . .. .. . .. .. . . .. .. . .. .. . .. .. . .. .. . . .. .. . .. .. . .. .. . . .. .. . .. .. . .. .. . . .. .. . .. .... . .. .. . .. . .. . .. .. . . .. .. . .. .. . . .. .. . . .. .. . .. . .. . .. .. . . .. .. . . .. .. . . ..... . .... .. ... .. .... . .... .. . . .. .. . . .. .... . ....... . .... . .... . .... .. . . .. . .. . . .. .... . ...... .... ... . .... .. ... . .... . .... ... . .... . ...... ... ... . ... . ... .... .. ....",
"...   ..... ... ....... ... ... .....  .. ..... ... ... ..... .. ...... .  ........ .. ...... . ... . ... . ... .  .. . ... .  ....  .. ..... . ... . ... . ..  . .. .. .. .. ..... . ..... .. ..... .. ..... . ... . .. .. .. .. . ... . .. .. .. .. . .. .. .. .. . ..  . .. .. . ... . .. .. . ..  . .. .. . .. .. .. .. . .. .. .. .. . .. .. . ... . .. .. . .. .. . ..  . .. .. . .. .. . .. .. . ... . .. .. . .. .. . .. .. . .. .. .. .. . .. .. . .. .. . .. .. . .. .. . .. .. . .. .. . .. .. .. .. . .. .. . .. .. . .. .. . .. .. . .. . .. . .. .. . .. .. . .. .. . .. .. . .. .. . .. .. . .. .. . .... .. . .. .. . .. .. . .. .. . . .. .. . .. .. . .. .. . .. . .. . .. .. . .. .. . . .. .. . .. .. . . .. .. . .. .. . . .. .. . .. . .. . .. .. . . .. .. . .. . .. . .. .. . . .. .. . . .. .. . . .. .. . . .. .. . . ..... . .... .. ... .. .... . .... .. . . .. .. . . .. . .. . . ..... . ...... .... . .... .. . . . .. .... . . .... .. ... . .... .... . ...... .... . ... . .... ...... ... . ... . . . ... . ... ... ....... ",
".....   ...   ..  .......... ..  ...... .. .. ...... .. .....  .. ..... ... . ...... .. ..... ..  . ..  . ..  . ... . ..... ... ..... . ... . ..  . .. .. .. .. .. .. ..... . ..... ..  .... .. ..... .  .. . ..  . .. .. .. .. . ..  . .. .. .  .. . .. .. .. .. . .. .. .. .. . ..  . .. .. . .. .. .. .. . .. .. .. .. . .. .. . ... . .. .. . .. .. .. .. . .. .. . .. .. .. .. . .. .. . .. .. . .. .. .. .. . .. .. . .. .. . .. .. .. .. . .. .. . .. .. . .. .. . .. .. . .. .. . .. .. . .. .. . ... . .. .. . .. .. . .. .. . .. .. . .. .... . .. .. . .. .. . .. .. . .. .. . .. .. . .. .. . .. .. . .. . .. . .. .. . .. .. . .. .. . .... .. . .. .. . .. .. . .. .... . .. .. . .. .. . .... .. . .. .. . . .. .. . .. .. . . .. .. . .. .... . .. .. . .. . .. . .. .... . .. .. . . .. .. . .... .. . .. . .. . .. . .. . .. . .. . ....... . .... .. ... .. .... . .... .. . . .. .. . . .. . .. . . .... .. ... .. .... . . .. . .. . . .. . .. . . .... . .... . . ...... .. ... . .... . .... ... . ... ...... . ... ... . ...... . .. .. ",
"....... ..... ... ... ....... ... ..... ... .. ...... .. ...... .  ........ ..  ..... .  .. .. .. .. .. .. .. ..... .. ..... .. ..... .. .. .. .. .. .. .. .. ..... . ..... ..  .... .. ..... .  .. . ... . .. .. .. .. . ... . .. .. .. .. . ... . .. .. .  .. . .. .. .. .. . .. .. .. .. . .. .. .. .. . .. .. .  .. . .. .. . ..  . .. .. . .. .. .. .. . .. .. . .. .. .. .. . .. .. . .. .. . .. .. .. .. . .. .. . .. .. . .. .. .  .. . .. .. . .. .. . .. .. . .. .. . .. .. . .. .. . .. .. . ..  . .. .. . .. .. . .. .. . .. .. . .. .. . . .. .. . .. .. . .. .. . .. .. . .. .. . .. .. . .. .. . .. .. . . .. .. . .. .. . .. .. . .. . .. . .. .. . .. .. . .. .. . . .. .. . .. .. . .. . .. . .. .. . .. . .. . .. .. . .... .. . .. .. . . .. .. . .. .... . .. .. . . .. .. . .... .. . .. . .. . .. .... . .. .... . .. .... . .. . .. . ....... . .... .. ... .. .... . .... .. . . .. .... . .... .. . . .... .. ... ......... . . .. .... . . ......... ... ...... .... . ...... ...... ... . . ...... . ................... .... ......",
"..............  ..  ..  .....  .. .........  .. .....  .. ..... ... .  ..... .. ... . ... .  .. .. .. ..... .. ..... .. ..... .. .. .. .. .. .. .. .. . ... . ..... ..  .... .. ..... .. .. . ... . .. .. .. .. .. .. . ..  . .. .. .. .. . .. .. .. .. . ... . .. .. . ... . .. .. .. .. . .. .. . ... . .. .. . ... . .. .. . .. .. .. .. . .. .. .  .. . .. .. . .. .. . ... . .. .. . .. .. . .. .. .  .. . .. .. . .. .. . .. .. . ... . .. .. . .. .. . .. .. . .. .. . .. .. . .. .. . .. .. . .. .. .. .. . .. .. . .. .. . .. .. . .. .. . . .. .. . .. .. . .. .. . .. .. . .. .. . .. .. . .. .. . .. .. . . .. .. . .. .. . .. .. . .. .. . . .. .. . .. .. . .. .. . . .. .. . .. .. . .. .. . . .. .. . .. .... . .. .. . .. . .. . .. .. . . .. .. . .. .. . . .. .. . . .. .. . .. . .. . .. .. . . .. .. . . .. .. . . .. .. . . .. .. . . .. . .. . .. .... . .... .. ... .. .... . .... .. . . .. . .. . . .. .... . .... . .... . .... .. . . .... . .. . . .... . .... . . ...... .. ... . ...... ... .... . ... . ... ... . ... ....... ..",
"............... ... ... ....... ..  .  ...... .  ...... .  ........ ... ..... .. .. .. .. ... . ... . ..... ... ..... .  .. .  .. .  .. .  .. . ... . ..... ..  .... .. ..... .. .. . ... . .. .. .. .. .. .. . ... . .. .. .. .. . ... . .. .. .. .. . .. .. .. .. . ..  . .. .. . ... . .. .. . ..  . .. .. . .. .. .. .. . .. .. .. .. . .. .. . ... . .. .. . .. .. . ..  . .. .. . .. .. . .. .. . ... . .. .. . .. .. . .. .. . .. .. .. .. . .. .. . .. .. . .. .. . .. .. . .. .. . .. .. . .. .. .. .. . .. .. . .. .. . .. .. . .. .. . .. . .. . .. .. . .. .. . .. .. . .. .. . .. .. . .. .. . .. .. . .... .. . .. .. . .. .. . .. .. . . .. .. . .. .. . .. .. . .. . .. . .. .. . .. .. . . .. .. . .. .. . . .. .. . .. .. . . .. .. . .. . .. . .. .. . . .. .. . .. . .. . .. .. . . .. .. . . .. .. . . .. .. . . .. .. . . .. .. . . .. .. . . .. .... . .. .... . .... .. ... .. .... . . .. .. . . .... .. . . ....... . ... .. .... . . .. . .. . . . .. .... . ... ...... .... . ... ...... ...... ... . ... . ... . . . ... . .. .. ..",
"....... ............  ..  ..... ... ... ..... ... ..... ... .  ..... .. ... . ... .. .. .. .. ..... ..  ....  . ... . ... . ... . ... . ... . ..... .. ..... .. ..... .. .. . ... . ..  . .. .. .. .. .  .. . ..  . .. .. .. .. . ..  . .. .. .  .. . .. .. .. .. . .. .. .. .. . ..  . .. .. . .. .. .. .. . .. .. .. .. . .. .. . ... . .. .. . .. .. .. .. . .. .. . .. .. .. .. . .. .. . .. .. . .. .. .. .. . .. .. . .. .. . .. .. .. .. . .. .. . .. .. . .. .. . .. .. . .. .. . .. .. . .. .. . ... . .. .. . .. .. . .. .. . .. .. . .. .... . .. .. . .. .. . .. .. . .. .. . .. .. . .. .. . .. .. . .. . .. . .. .. . .. .. . .. .. . .... .. . .. .. . .. .. . .. .... . .. .. . .. .. . .... .. . .. .. . . .. .. . .. .. . . .. .. . .. .... . .. .. . .. . .. . .. .... . .. .. . . .. .. . .... .. . .. . .. . .. . .. . .. . .. . .... .. . . .. .. . . .. .... . .. .... . .... .. ... .. .... . . .. . .. . . .. . .. . . .... .. ... .. .... . . . .. . .... . . .... . .... . . ...... . .... . ... . ........ . ... . ... .... ........",
"  .....   ... ....... ... .......... .. ...... .. ......... ... ..... .. .. ..  . ... . ... .. ..... .. ..... .. .. .. .. .. .. .. .. ..... .. ..... .. ..... .. .. . ... . ..  . .. .. .. .. .  .. . ... . .. .. .. .. . ... . .. .. .. .. . ... . .. .. .  .. . .. .. .. .. . .. .. .. .. . .. .. .. .. . .. .. .  .. . .. .. . ..  . .. .. . .. .. .. .. . .. .. . .. .. .. .. . .. .. . .. .. . .. .. .. .. . .. .. . .. .. . .. .. .  .. . .. .. . .. .. . .. .. . .. .. . .. .. . .. .. . .. .. . ..  . .. .. . .. .. . .. .. . .. .. . .. .. . . .. .. . .. .. . .. .. . .. .. . .. .. . .. .. . .. .. . .. .. . . .. .. . .. .. . .. .. . .. . .. . .. .. . .. .. . .. .. . . .. .. . .. .. . .. . .. . .. .. . .. . .. . .. .. . .... .. . .. .. . . .. .. . .. .... . .. .. . . .. .. . .... .. . .. . .. . .. .... . .. .... . .. .... . .. . .. . .... .. . . .. .. . . .. .... . .. .... . .... ...... ....... . . .... .. . . .... .... . .... ...... . .... .... . . .... .... . ... ...... .... . ... . .... . ... ................... .... .. .",
".   .....  ...  ......  ..  .  ...... ..  ..... ..  .  ..... .. ... .  .. .. .. ..  . .....  .. ..... .. .. .. .. .. .. .. .. ..... .. ..... .. ..... .  .. . ... . ..  . .. .. .. .. .. .. . ... . .. .. .. .. .. .. . ..  . .. .. .. .. . .. .. .. .. . ... . .. .. . ... . .. .. .. .. . .. .. . ... . .. .. . ... . .. .. . .. .. .. .. . .. .. .  .. . .. .. . .. .. . ... . .. .. . .. .. . .. .. .  .. . .. .. . .. .. . .. .. . ... . .. .. . .. .. . .. .. . .. .. . .. .. . .. .. . .. .. . .. .. .. .. . .. .. . .. .. . .. .. . .. .. . . .. .. . .. .. . .. .. . .. .. . .. .. . .. .. . .. .. . .. .. . . .. .. . .. .. . .. .. . .. .. . . .. .. . .. .. . .. .. . . .. .. . .. .. . .. .. . . .. .. . .. .... . .. .. . .. . .. . .. .. . . .. .. . .. .. . . .. .. . . .. .. . .. . .. . .. .. . . .. .. . . .. .. . . .. .. . . .. .. . . .. . .. . .. . .. . . .. .. . . .. .... . ....... . .... . .... . .... .. . . .. . .. . . .. .... . ...... .... . . . .. . .. . . . .... . .... ... . .... . ...... ... ... . ... . ... .... .. ....",
"...   ..... ... ....... ... ... .....  .. ..... ... ... ..... .. .. ... .  .. ..... .. ...... . ... . ... . ... .  .. . ... .  ....  .. ..... . ... . ... . ..  . .. .. .. .. .. .. . ... . .. .. .. .. .. .. . ... . .. .. .. .. . ... . .. .. .. .. . .. .. .. .. . ..  . .. .. . ... . .. .. . ..  . .. .. . .. .. .. .. . .. .. .. .. . .. .. . ... . .. .. . .. .. . ..  . .. .. . .. .. . .. .. . ... . .. .. . .. .. . .. .. . .. .. .. .. . .. .. . .. .. . .. .. . .. .. . .. .. . .. .. . .. .. .. .. . .. .. . .. .. . .. .. . .. .. . .. . .. . .. .. . .. .. . .. .. . .. .. . .. .. . .. .. . .. .. . .... .. . .. .. . .. .. . .. .. . . .. .. . .. .. . .. .. . .. . .. . .. .. . .. .. . . .. .. . .. .. . . .. .. . .. .. . . .. .. . .. . .. . .. .. . . .. .. . .. . .. . .. .. . . .. .. . . .. .. . . .. .. . . .. .. . . .. .. . . .. .. . . .. .... . .. . .. . . .. .. . . .. . .. . . ..... . ...... .... . .... .. . . . .. .... . . .... .. ... . .... .. . . . .... .... . ... . .... ...... ... . ... . . . ... . ... . . ....... ",
".....   ...   ..  .......... ..  ...... .. .. ...... .. ... .  .. .. .. ... . ...... .. ..... ..  . ..  . ..  . ... . ..... ... ..... . ... . ..  . .. .. .. .. .. .. .. .. . ... . ..  . .. .. .. .. .  .. . ..  . .. .. .. .. . ..  . .. .. .  .. . .. .. .. .. . .. .. .. .. . ..  . .. .. . .. .. .. .. . .. .. .. .. . .. .. . ... . .. .. . .. .. .. .. . .. .. . .. .. .. .. . .. .. . .. .. . .. .. .. .. . .. .. . .. .. . .. .. .. .. . .. .. . .. .. . .. .. . .. .. . .. .. . .. .. . .. .. . ... . .. .. . .. .. . .. .. . .. .. . .. .... . .. .. . .. .. . .. .. . .. .. . .. .. . .. .. . .. .. . .. . .. . .. .. . .. .. . .. .. . .... .. . .. .. . .. .. . .. .... . .. .. . .. .. . .... .. . .. .. . . .. .. . .. .. . . .. .. . .. .... . .. .. . .. . .. . .. .... . .. .. . . .. .. . .... .. . .. . .. . .. . .. . .. . .. . .... .. . . .. .. . . .. .... . .. . .. . . .. .. . . .. . .. . . .... .. ... .. .... . . .. . .. . . .. . .. . . .... . .... . . .... . .. . . . .... . .... ... . ... ...... . ... ... . ...... . .. .. ",
"....... ..... ... ... ....... ... ..... ... .. ...... .. .. ... .  .. ..... ..  ..... .  .. .. .. .. .. .. .. ..... .. ..... .. ..... .. .. .. .. .. .. .. .. .. .. . ... . ..  . .. .. .. .. .  .. . ... . .. .. .. .. . ... . .. .. .. .. . ... . .. .. .  .. . .. .. .. .. . .. .. .. .. . .. .. .. .. . .. .. .  .. . .. .. . ..  . .. .. . .. .. .. .. . .. .. . .. .. .. .. . .. .. . .. .. . .. .. .. .. . .. .. . .. .. . .. .. .  .. . .. .. . .. .. . .. .. . .. .. . .. .. . .. .. . .. .. . ..  . .. .. . .. .. . .. .. . .. .. . .. .. . . .. .. . .. .. . .. .. . .. .. . .. .. . .. .. . .. .. . .. .. . . .. .. . .. .. . .. .. . .. . .. . .. .. . .. .. . .. .. . . .. .. . .. .. . .. . .. . .. .. . .. . .. . .. .. . .... .. . .. .. . . .. .. . .. .... . .. .. . . .. .. . .... .. . .. . .. . .. .... . .. .... . .. .... . .. . .. . .... .. . . .. .. . . .. .... . .. . .. . . .. .... . .... .. . . .... .. ... ......... . . .. .... . . ......... ... ...... .. . . . .... ...... ... . . ...... . ................... . .. ......",
"..............  ..  ..  .....  .. .........  .. ... .  .. .. .. ... .  ..... .. ... . ... .  .. .. .. ..... .. ..... .. ..... .. .. .. .. .. .. .. .. .  .. . ... . ..  . .. .. .. .. .. .. . ... . .. .. .. .. .. .. . ..  . .. .. .. .. . .. .. .. .. . ... . .. .. . ... . .. .. .. .. . .. .. . ... . .. .. . ... . .. .. . .. .. .. .. . .. .. .  .. . .. .. . .. .. . ... . .. .. . .. .. . .. .. .  .. . .. .. . .. .. . .. .. . ... . .. .. . .. .. . .. .. . .. .. . .. .. . .. .. . .. .. . .. .. .. .. . .. .. . .. .. . .. .. . .. .. . . .. .. . .. .. . .. .. . .. .. . .. .. . .. .. . .. .. . .. .. . . .. .. . .. .. . .. .. . .. .. . . .. .. . .. .. . .. .. . . .. .. . .. .. . .. .. . . .. .. . .. .... . .. .. . .. . .. . .. .. . . .. .. . .. .. . . .. .. . . .. .. . .. . .. . .. .. . . .. .. . . .. .. . . .. .. . . .. .. . . .. . .. . .. . .. . . .. .. . . .. .... . .... .. . . .. . .. . . .. .... . .... . .... . .... .. . . .... . .. . . .... . .... . . .... . .. . . . ...... ... .... . ... . ... ... . ... ....... ..",
"............... ... ... ....... ..  .  ...... .  .. ... .  .. ..... ... ..... .. .. .. .. ... . ... . ..... ... ..... .  .. .  .. .  .. .  .. . ... . ... . ..  . .. .. .. .. .. .. . ... . .. .. .. .. .. .. . ... . .. .. .. .. . ... . .. .. .. .. . .. .. .. .. . ..  . .. .. . ... . .. .. . ..  . .. .. . .. .. .. .. . .. .. .. .. . .. .. . ... . .. .. . .. .. . ..  . .. .. . .. .. . .. .. . ... . .. .. . .. .. . .. .. . .. .. .. .. . .. .. . .. .. . .. .. . .. .. . .. .. . .. .. . .. .. .. .  . .. .  . .. .  . .. .  . .. .  . .. . .. . .. .. . .. .. . .. .. . .. .. . .. .. . .. .. . .. .. . .... .. . .. .. . .. .. . .. .. . . .. .. . .. .. . .. .. . .. . .. . .. .. . .. .. . . .. .. . .. .. . . .. .. . .. .. . . .. .. . .. . .. . .. .. . . .. .. . .. . .. . .. .. . . .. .. . . .. .. . . .. .. . . .. .. . . .. .. . . .. .. . . .. .... . .. . .. . . .. .. . . .. . .. . . .. .. . . .... .. . . ....... . ... .. .... . . .. . .. . . . .. .... . ... ...... .. . . . . ...... ...... ... . ... . ... . . . ... . .. .. . ",
".....   ............  ..  ..... ... ... ..... ... .. .. ... .  ..... .. ... . ... .. .. .. .. ..... ..  ....  . ... . ... . ... . ... . ... . ..  . .. .. .. .. .. .. .. .. . ... . ..  . .. .. .. .. .  .. . ..  . .. .. .. .. . ..  . .. .. .  .. . .. .. .. .. . .. .. .. .. . ..  . .. .. . .. .. .. .. . .. .. .. .. . .. .. . ... . .. .. . .. .. .. .. . .. .. . .. .. .. .. . .. .. . .. .. . .. .. .. .. . .. .. . .. .. . .. .. .. .  . .. .  . .. .  . .. .  . .. .  . .. .  . .. .  . .. .  . ...   .. ..   .. ..   .. ..   .. ..   .. ...  . .. .  . .. .  . .. .  . .. .  . .. .  . .. .  . .. .  . .. . .. . .. .. . .. .. . .. .. . .... .. . .. .. . .. .. . .. .... . .. .. . .. .. . .... .. . .. .. . . .. .. . .. .. . . .. .. . .. .... . .. .. . .. . .. . .. .... . .. .. . . .. .. . .... .. . .. . .. . .. . .. . .. . .. . .... .. . . .. .. . . .. .... . .. . .. . . .. .. . . .. . .. . . .. . .. . . .. . .. . . .... .. ... .. .... . . . .. . .... . . .... . .... . . .... . . .. . . ... . ........ . ... . ... .... ....... ",
"  .....   ... ....... ... .......... .. ... .. .. ... ..... ... ..... .. .. ..  . ... . ... .. ..... .. ..... .. .. .. .. .. .. .. .. .. .. .. .. .. .. .. .. .. .. . ... . ..  . .. .. .. .. .  .. . ... . .. .. .. .. . ... . .. .. .. .. . ... . .. .. .  .. . .. .. .. .. . .. .. .. .. . .. .. .. .. . .. .. .  .. . .. .. . ..  . .. .. . .. .. .. .. . .. .. . .. .. .. .. . .. .. . .. .. . .. .. .. .  . .. .  . .. .  . .. .  .  ..   .. ..   .. ..   .. ..   .. ..   .. ..   .. ..   .. ..   ..  . .. .. . .. .. . .. .. . .. .. . .. .. .   .. ..   .. ..   .. ..   .. ..   .. ..   .. ..   .. ..   .. ..   . .. .  . .. .  . .. .  . .. . .. . .. .. . .. .. . .. .. . . .. .. . .. .. . .. . .. . .. .. . .. . .. . .. .. . .... .. . .. .. . . .. .. . .. .... . .. .. . . .. .. . .... .. . .. . .. . .. .... . .. .... . .. .... . .. . .. . .... .. . . .. .. . . .. .... . .. . .. . . .. .... . .... .. . . .... .. . . .... .... . .... ...... . .... .... . . .... .... . ... ...... .... . . . . .... . ... ................... .... .. .",
".   .....  ...  ......  ..  .  ...... ..  .  .. ..  .  ..... .. ... .  .. .. .. ..  . .....  .. ..... .. .. .. .. .. .. .. .. .. .. .. .. .. .. .. .. .  .. . ... . ..  . .. .. .. .. .. .. . ... . .. .. .. .. .. .. . ..  . .. .. .. .. . .. .. .. .. . ... . .. .. . ... . .. .. .. .. . .. .. . ... . .. .. . ... . .. .. . .. .. .. .. . .. .. .  .. . .. .. . .. .. . ..  . .. .  . .. .  . .. .  .  ..   .. ..   .. ..   .. ..   ... . .. .. . .. .. . .. .. . .. .. . .. .. . .. .. . .. .. . .. .. .. .. . .. .. . .. .. . .. .. . .. .. . . .. .. . .. .. . .. .. . .. .. . .. .. . .. .. . .. .. . .. .. .   .. ..   .. ..   .. ..   .. ..   . .. .  . .. .  . .. .  . . .. .. . .. .. . .. .. . . .. .. . .. .... . .. .. . .. . .. . .. .. . . .. .. . .. .. . . .. .. . . .. .. . .. . .. . .. .. . . .. .. . . .. .. . . .. .. . . .. .. . . .. . .. . .. . .. . . .. .. . . .. .... . .... .. . . .. . .. . . .. . .. . . .. . .. . . .. .... . ...... .... . . . .. . .. . . . .... . .... . . . .... . ...... ... ... . ... . ... .... .. ....",
"...   ..... ... ....... ... ... ... .  .. ... . ... ... ..... .. .. ... .  .. ..... .. ...... . ... . ... . ... .  .. .  .. .  .. .  .. .  .. . ... . ... . ..  . .. .. .. .. .. .. . ... . .. .. .. .. .. .. . ... . .. .. .. .. . ... . .. .. .. .. . .. .. .. .. . ..  . .. .. . ... . .. .. . ..  . .. .. . .. .. .. .. . .. .. .. .. . .. .. . ..  . .. .  . .. .  . ..    .. ..   .. ..   .. ..   ... . .. .. . .. .. . .. .. . .. .. .. .. . .. .. . .. .. . .. .. . .. .. . .. .. . .. .. . .. .. .. .. . .. .. . .. .. . .. .. . .. .. . .. . .. . .. .. . .. .. . .. .. . .. .. . .. .. . .. .. . .. .. . .... .. . .. .. . .. .. . .. .. .   .. ..   .. ..   .. ..   .. . .  . .. .  . .. .  . . .. .. . .. .. . . .. .. . .. .. . . .. .. . .. . .. . .. .. . . .. .. . .. . .. . .. .. . . .. .. . . .. .. . . .. .. . . .. .. . . .. .. . . .. .. . . .. .... . .. . .. . . .. .. . . .. . .. . . .. .. . . .... .. . . .... .. . . . .. .... . . .... .. ... . .... .. . . . .... .... . ... . .... . .... . . . ... . . . ... . ... . . ..... . ",
".....   ...   ..  .......... ..  .. ... .. .. ...... .. ... .  .. .. .. ... . ...... .. ..... ..  . ..  . ..  . ... . ... . ... . ... . ... . ..  . .. .. .. .. .. .. .. .. . ... . ..  . .. .. .. .. .  .. . ..  . .. .. .. .. . ..  . .. .. .  .. . .. .. .. .. . .. .. .. .. . ..  . .. .. . .. .. .. .. . .. .. .. .. . .. .. . ..  . .. .  . .. .  .. ..   .. ..   .. .. .. .. . .. .. . .. .. . .. .. .. .. . .. .. . .. .. . .. .. .. .. . .. .. . .. .. . .. .. . .. .. . .. .. . .. .. . .. .. . ... . .. .. . .. .. . .. .. . .. .. . .. .... . .. .. . .. .. . .. .. . .. .. . .. .. . .. .. . .. .. . .. . .. . .. .. . .. .. . .. .. . .... .. . .. .. . .. .. . .. ....   .. ..   .. ..   .... .  . .. .  . . .. .. . .. .. . . .. .. . .. .... . .. .. . .. . .. . .. .... . .. .. . . .. .. . .... .. . .. . .. . .. . .. . .. . .. . .... .. . . .. .. . . .. .... . .. . .. . . .. .. . . .. . .. . . .. . .. . . .. . .. . . .. . .. . . .. . .. . . .... . .... . . .... . .. . . . .... . .... . . . . . ...... . ... ... . ...... . .. .. ",
"....... ..... ... ... ....... ... .. .. ... .. ...... .. .. ... .  .. ..... ..  ..... .  .. .. .. .. .. .. .. .. .. .. .. .. .. .. .. .. .. .. .. .. .. .. .. .. .. . ... . ..  . .. .. .. .. .  .. . ... . .. .. .. .. . ... . .. .. .. .. . ... . .. .. .  .. . .. .. .. .. . .. .. .. .. . .. .. .. .. . .. .. .  .  . .. .  . ..    .. ..   .. .. .. .. . .. .. . .. .. .. .. . .. .. . .. .. . .. .. .. .. . .. .. . .. .. . .. .. .  .. . .. .. . .. .. . .. .. . .. .. . .. .. . .. .. . .. .. . ..    .. ..   .. ..   .. ..   .. ..   .. ..   . .. .. . .. .. . .. .. . .. .. . .. .. . .. .. . .. .. . .. .. . . .. .. . .. .. . .. .. . .. . .. . .. .. . .. .. . .. .. . . .. .. . .. .. . .. . ..   .. ..   .. . .  . .. .  . .... .. . .. .. . . .. .. . .. .... . .. .. . . .. .. . .... .. . .. . .. . .. .... . .. .... . .. .... . .. . .. . .... .. . . .. .. . . .. .... . .. . .. . . .. .... . .... .. . . .... .. . . .... .... . . .. .... . . ......... ... ...... .. . . . .... ...... ... . . .... . . ................... . .. .... .",
"..............  ..  ..  ... .  .. ... .....  .. ... .  .. .. .. ... .  ..... .. ... . ... .  .. .. .. .. .. .. .. .. .. .. .. .. .. .. .. .. .. .. .. .  .. . ... . ..  . .. .. .. .. .. .. . ... . .. .. .. .. .. .. . ..  . .. .. .. .. . .. .. .. .. . ... . .. .. . ... . .. .. .. .. . .. .. . ..  . .. .  . ...   .. ..   .. .. .. .. . .. .. .  .. . .. .. . .. .. . ... . .. .. . .. .. . .. .. .  .. . .. .. . .. .. . .. .. . ...   .. ..   .. ..   .. ..   .. ..   .. ..   .. ..   .. ..   .. .. .  .. . .  .. . .  .. . .  .. . .  .. . . .. ..   .. ..   .. ..   .. ..   .. ..   .. ..   .. ..   .. ..   . .. .. . .. .. . .. .. . .. .. . . .. .. . .. .. . .. .. . . .. .. . .. .. . .. .. . . .. .. . .. ....   .. ..   .. . .  . .. .  . . .. .. . .. .. . . .. .. . . .. .. . .. . .. . .. .. . . .. .. . . .. .. . . .. .. . . .. .. . . .. . .. . .. . .. . . .. .. . . .. .... . .... .. . . .. . .. . . .. . .. . . .. . .. . . .. . .. . . .... . .. . . .... . .... . . .... . .. . . . ...... ... .... . . . . ... ... . ... ....... ..",
"............... ... ... ... ... ..  .  ...... .  .. ... .  .. ..... ... ..... .. .. .. .. ... . ... . ... . ... .  .. .  .. .  .. .  .. .  .. . ... . ... . ..  . .. .. .. .. .. .. . ... . .. .. .. .. .. .. . ... . .. .. .. .. . ... . .. .. .. .. . .. .. .. .. . ..  . .. .. . ..  . .. .  . ..    .. ..   .. .. .. .. . .. .. .. .. . .. .. . ... . .. .. . .. .. . ..  . .. .. . .. .. . .. .. . ...   .. ..   .. ..   .. ..   .. .. .  .. . .  .. . .  .. . .  .. . .  .. . .  .. . .  .. . .  .. .. .  . .. .  . .. .  . .. .  . .. .  . ..   .. . .  .. . .  .. . .  .. . .  .. . .  .. . .  .. . .  .. . . .. ..   .. ..   .. ..   .. ..   . .. .. . .. .. . .. .. . .. . .. . .. .. . .. .. . . .. .. . .. .. . . .. .. . .. .. .   .. ..   .. . .  . .. .  . . .. .. . .. . .. . .. .. . . .. .. . . .. .. . . .. .. . . .. .. . . .. .. . . .. .. . . .. .... . .. . .. . . .. .. . . .. . .. . . .. .. . . .... .. . . .... .. . . . .. .... . . .. . .. . . . .. .... . ... ...... .. . . . . ...... ...... . . . . . . ... . . . ... . .. .. . ",
".....   ............  ..  .. .. ... ... ..... ... .. .. ... .  ..... .. ... . ... .. .. .. .. ..  . ..  . ..  . ... . ... . ... . ... . ... . ..  . .. .. .. .. .. .. .. .. . ... . ..  . .. .. .. .. .  .. . ..  . .. .. .. .. . ..  . .. .. .  .. . .. .. .. .. . .. .. .. .  . ..    .. ..   .. .. .. .. . .. .. .. .. . .. .. . ... . .. .. . .. .. .. .. . .. .. . .. .. .. ..   .. ..   .. ..   .. .. .  .. . .  .. . .  .. . .  .. .. .  . .. .  . .. .  . .. .  . .. .  . .. .  . .. .  . .. .  . ...   .. ..   .. ..   .. ..   .. ..   .. ...  . .. .  . .. .  . .. .  . .. .  . .. .  . .. .  . .. .  . .. . .. . .  .. . .  .. . .  .. . . .. ..   .. ..   .. ..   .. .... . .. .. . .. .. . .... .. . .. .. . . .. .. . .. .. . . .. .. . .. ....   .. ..   .. . .  . .. . .. . .. .. . . .. .. . .... .. . .. . .. . .. . .. . .. . .. . .... .. . . .. .. . . .. .... . .. . .. . . .. .. . . .. . .. . . .. . .. . . .. . .. . . .. . .. . . .. . .. . . . .. . .... . . .... . .... . . .... . . .. . . ... . ...... . . ... . ... .... ....... ",
"  .....   ... ....... ... ... ...... .. ... .. .. ... ..... ... ..... .. .. ..  . ... .  .. .. .. .. .. .. .. .. .. .. .. .. .. .. .. .. .. .. .. .. .. .. .. .. .. . ... . ..  . .. .. .. .. .  .. . ... . .. .. .. .. . ... . .. .. .. .. . ... . .. .. .  .  . .. .  .. ..   .. .. .. .. . .. .. .. .. . .. .. .  .. . .. .. . ..  . .. .. . .. .. .. ..   .. ..   .. ..    .. . .  .. . .  .. . .  .. .. .  . .. .  . .. .  . .. .  .  ..   .. ..   .. ..   .. ..   .. ..   .. ..   .. ..   .. ..   ..  . .. .. . .. .. . .. .. . .. .. . .. .. .   .. ..   .. ..   .. ..   .. ..   .. ..   .. ..   .. ..   .. ..   . .. .  . .. .  . .. .  . .. . .. . .  .. . .  .. . .  .. .   .. ..   .. ..   .. . .. . .. .. . .. . .. . .. .. . .... .. . .. .. . . .. .. . .. ....   .. ..   . .. .  . .... .. . .. . .. . .. .... . .. .... . .. .... . .. . .. . .... .. . . .. .. . . .. .... . .. . .. . . .. .... . .... .. . . .... .. . . .... .... . . .. .... . . .... .... . . .... .... . ... ...... .... . . . . .... . ... ................... .... .. .",
".   .....  ...  ... ..  ..  .  ...... ..  .  .. ..  .  ..... .. ... .  .. .. .. ..  . ... .  .. .. .. .. .. .. .. .. .. .. .. .. .. .. .. .. .. .. .. .  .. . ... . ..  . .. .. .. .. .. .. . ... . .. .. .. .. .. .. . ..  . .. .. .. .. . .. .. .. .  . ...   .. ..   ... . .. .. .. .. . .. .. . ... . .. .. . ... . .. .. . .. .. .. ..   .. ..    .. . .  .. . .  .. . ..  . .. .  . .. .  . .. .  .  ..   .. ..   .. ..   .. ..   ... . .. .. . .. .. . .. .. . .. .. . .. .. . .. .. . .. .. . .. .. .. .. . .. .. . .. .. . .. .. . .. .. . . .. .. . .. .. . .. .. . .. .. . .. .. . .. .. . .. .. . .. .. .   .. ..   .. ..   .. ..   .. ..   . .. .  . .. .  . .. .  . . .  .. . .  .. . .  .. .   .. ..   .. .... . .. .. . .. . .. . .. .. . . .. .. . .. .. . . .. .. . . .. ..   .. . .  . .. .  . . .. .. . . .. .. . . .. .. . . .. .. . . .. . .. . .. . .. . . .. .. . . .. .... . .... .. . . .. . .. . . .. . .. . . .. . .. . . .. . .. . . .... . .. . . . .. . .. . . . .... . .... . . . .... . ...... ... . . . . . . ... .... .. ....",
"...   ..... ... ... ... ... ... ... .  .. ... . ... ... ..... .. .. ... .  .. .. .. .. .. ... . ... . ... . ... .  .. .  .. .  .. .  .. .  .. . ... . ... . ..  . .. .. .. .. .. .. . ... . .. .. .. .. .. .. . ... . .. .. .. .. . ..  . .. .  .. ..   .. .. .. .. . ..  . .. .. . ... . .. .. . ..  . .. .. . .. .  .. ..   .. ..    .. . .  .. . .   . .. .  . .. .  . ..    .. ..   .. ..   .. ..   ... . .. .. . .. .. . .. .. . .. .. .. .. . .. .. . .. .. . .. .. . .. .. . .. .. . .. .. . .. .. .. .. . .. .. . .. .. . .. .. . .. .. . .. . .. . .. .. . .. .. . .. .. . .. .. . .. .. . .. .. . .. .. . .... .. . .. .. . .. .. . .. .. .   .. ..   .. ..   .. ..   .. . .  . .. .  . .. .  . . .  .. . .  .. .   .. ..   .. .. . . .. .. . .. . .. . .. .. . . .. .. . .. . .. . .. .. .   .. ..   . .. .  . . .. .. . . .. .. . . .. .. . . .. .. . . .. .... . .. . .. . . .. .. . . .. . .. . . .. .. . . .... .. . . .... .. . . . .. .... . . .. . .. . . . .. . .. . . . .... .... . ... . .... . .... . . . ... . . . . . . ... . . ..... . ",
".....   ...   ..  ..  ...... ..  .. ... .. .. ...... .. ... .  .. .. .. ... . ... .. .. .. .. ..  . ..  . ..  . ... . ... . ... . ... . ... . ..  . .. .. .. .. .. .. .. .. . ... . ..  . .. .. .. .. .  .. . ..  . .. .. .. .  . ..    .. ..    .. . .. .. .. .. . .. .. .. .. . ..  . .. .. . .. .. .. ..   .. .. .  .. . .  .. . ..  . .. .  . .. .  .. ..   .. ..   .. .. .. .. . .. .. . .. .. . .. .. .. .. . .. .. . .. .. . .. .. .. .. . .. .. . .. .. . .. .. . .. .. . .. .. . .. .. . .. .. . ... . .. .. . .. .. . .. .. . .. .. . .. .... . .. .. . .. .. . .. .. . .. .. . .. .. . .. .. . .. .. . .. . .. . .. .. . .. .. . .. .. . .... .. . .. .. . .. .. . .. ....   .. ..   .. ..   .... .  . .. .  . . .  .. . .  .. .   .. ..   .. .... . .. .. . .. . .. . .. .... . .. .. . . .. .. . .... ..   .. . .  . .. . .. . .. . .. . .... .. . . .. .. . . .. .... . .. . .. . . .. .. . . .. . .. . . .. . .. . . .. . .. . . .. . .. . . .. . .. . . . .. . .... . . .... . .. . . . .... . .... . . . . . ...... . ... . . . ...... . .. .. ",
"....... ..... ... ... ....... ... .. .. ... .. ...... .. .. ... .  .. .. .. ..  . ... .  .. .. .. .. .. .. .. .. .. .. .. .. .. .. .. .. .. .. .. .. .. .. .. .. .. . ... . ..  . .. .. .. .. .  .. . ... . .. .. .. .  . ...   .. .. .. .. . ... . .. .. .  .. . .. .. .. .. . .. .. .. ..   .. ..    .. . .  .. .  .  . .. .  . ..    .. ..   .. .. .. .. . .. .. . .. .. .. .. . .. .. . .. .. . .. .. .. .. . .. .. . .. .. . .. .. .  .. . .. .. . .. .. . .. .. . .. .. . .. .. . .. .. . .. .. . ..    .. ..   .. ..   .. ..   .. ..   .. ..   . .. .. . .. .. . .. .. . .. .. . .. .. . .. .. . .. .. . .. .. . . .. .. . .. .. . .. .. . .. . .. . .. .. . .. .. . .. .. . . .. .. . .. .. . .. . ..   .. ..   .. . .  . .. .  . ...  .. . .  .. .   .. ..   .. .... . .. .. . . .. .. . .... .. . .. . .. . .. ....   .. ...  . .. . .. . .. . .. . .... .. . . .. .. . . .. .... . .. . .. . . .. .... . .... .. . . .... .. . . .... .... . . .. .... . . .... .... . . .... . .. . . . .... ...... ... . . .... . . ................... . .. .... .",
"..............  ..  ..  ... .  .. ... .....  .. ... .  .. .. .. ... .  .. .. .. ..  . ... .  .. .. .. .. .. .. .. .. .. .. .. .. .. .. .. .. .. .. .. .  .. . ... . ..  . .. .. .. .. .. .. . ... . .. .. .. .  .. ..   ..  . .. .. .. .. . .. .. .. .. . ... . .. .. . ...   .. ..    .. . .  .. . ..  . .. .  . ...   .. ..   .. .. .. .. . .. .. .  .. . .. .. . .. .. . ... . .. .. . .. .. . .. .. .  .. . .. .. . .. .. . .. .. . ...   .. ..   .. ..   .. ..   .. ..   .. ..   .. ..   .. ..   .. .. .  .. . .  .. . .  .. . .  .. . .  .. . . .. ..   .. ..   .. ..   .. ..   .. ..   .. ..   .. ..   .. ..   . .. .. . .. .. . .. .. . .. .. . . .. .. . .. .. . .. .. . . .. .. . .. .. . .. .. . . .. .. . .. ....   .. ..   .. . .  . .. .  . . .  .. . .  .. .   .. ..   . .. .. . .. . .. . .. .. . . .. .. . . .. .. .   .. ..   . .. .  . . .. . .. . .. . .. . . .. .. . . .. .... . .... .. . . .. . .. . . .. . .. . . .. . .. . . .. . .. . . .... . .. . . . .. . .. . . . .... . .. . . . ...... ... .... . . . . ... . . . . . ....... ..",
"........... ... ... ... ... ... ..  .  ...... .  .. ... .  .. .. .. ... .  .. .. .. .. .. ... . ... . ... . ... .  .. .  .. .  .. .  .. .  .. . ... . ... . ..  . .. .. .. .. .. .. . ... . .. .. .. .  .. ..   ... . .. .. .. .. . ... . .. .. .. .. . .. .  .. ..   ..  . .  .. . ..  . .. .  . ..    .. ..   .. .. .. .. . .. .. .. .. . .. .. . ... . .. .. . .. .. . ..  . .. .. . .. .. . .. .. . ...   .. ..   .. ..   .. ..   .. .. .  .. . .  .. . .  .. . .  .. . .  .. . .  .. . .  .. . .  .. .. .  . .. .  . .. .  . .. .  . .. .  . ..   .. . .  .. . .  .. . .  .. . .  .. . .  .. . .  .. . .  .. . . .. ..   .. ..   .. ..   .. ..   . .. .. . .. .. . .. .. . .. . .. . .. .. . .. .. . . .. .. . .. .. . . .. .. . .. .. .   .. ..   .. . .  . .. .  . . .  .. . .  . ..   .. .. . . .. .. . . .. .. . . .. .. . . .. .. . . .. ..   . .. .  . . .. .... . .. . .. . . .. .. . . .. . .. . . .. .. . . .... .. . . .... .. . . . .. .... . . .. . .. . . . .. . .. . . . .... . .. . . . . ...... ...... . . . . . . ... . . . . . . .. .. . ",
".....   ...   ......  ..  .. .. ... ... ..... ... .. .. ... .  .. .. .. ... . ... .. .. .. .. ..  . ..  . ..  . ... . ... . ... . ... . ... . ..  . .. .. .. .. .. .. .. .. . ... . ..  . .. .  .. ..    .. . ..  . .. .. .. .. . ..  . .. .. .  ..   .. .. .  .. . .  .. .. .  . ..    .. ..   .. .. .. .. . .. .. .. .. . .. .. . ... . .. .. . .. .. .. .. . .. .. . .. .. .. ..   .. ..   .. ..   .. .. .  .. . .  .. . .  .. . .  .. .. .  . .. .  . .. .  . .. .  . .. .  . .. .  . .. .  . .. .  . ...   .. ..   .. ..   .. ..   .. ..   .. ...  . .. .  . .. .  . .. .  . .. .  . .. .  . .. .  . .. .  . .. . .. . .  .. . .  .. . .  .. . . .. ..   .. ..   .. ..   .. .... . .. .. . .. .. . .... .. . .. .. . . .. .. . .. .. . . .. .. . .. ....   .. ..   .. . .  . .. . .. . .  .. .   .. ..   .... .. . .. . .. . .. . .. . .. . .. . .... ..   . .. .  . . .. .... . .. . .. . . .. .. . . .. . .. . . .. . .. . . .. . .. . . .. . .. . . .. . .. . . . .. . .... . . .... . .. . . . .... . . .. . . ... . ...... . . ... . ... .... ....... ",
"  .....   ... ....... ... ... ...... .. ... .. .. ... .. .. ... .  .. .. .. ..  . ... .  .. .. .. .. .. .. .. .. .. .. .. .. .. .. .. .. .. .. .. .. .. .. .. .. .. . ... . ..  . .. .  .. ..    .. . ... . .. .. .. .. . ... . .. .. .. ..   ... . .  .. .  .  . .. .  .. ..   .. .. .. .. . .. .. .. .. . .. .. .  .. . .. .. . ..  . .. .. . .. .. .. ..   .. ..   .. ..    .. . .  .. . .  .. . .  .. .. .  . .. .  . .. .  . .. .  .  ..   .. ..   .. ..   .. ..   .. ..   .. ..   .. ..   .. ..   ..  . .. .. . .. .. . .. .. . .. .. . .. .. .   .. ..   .. ..   .. ..   .. ..   .. ..   .. ..   .. ..   .. ..   . .. .  . .. .  . .. .  . .. . .. . .  .. . .  .. . .  .. .   .. ..   .. ..   .. . .. . .. .. . .. . .. . .. .. . .... .. . .. .. . . .. .. . .. ....   .. ..   . .. .  . ...  .. . .  . ..   .. .... . .. .... . .. .... . .. . .. . .... ..   . .. .  . . .. .... . .. . .. . . .. .... . .... .. . . .... .. . . .... .... . . .. .... . . .... .... . . .... . .. . . . .... . .... . . . . .... . ... ................. . .... .. .",
".   .....  ...  ... ..  ..  .  ...... ..  .  .. ..  .  .. .. .. ... .  .. .. .. ..  . ... .  .. .. .. .. .. .. .. .. .. .. .. .. .. .. .. .. .. .. .. .  .. . ... . ..  . .. .  .. ..  . .. . ... . .. .. .. .. .. .. . ..    .. ..    .. . .  .. .. .  . ...   .. ..   ... . .. .. .. .. . .. .. . ... . .. .. . ... . .. .. . .. .. .. ..   .. ..    .. . .  .. . .  .. . ..  . .. .  . .. .  . .. .  .  ..   .. ..   .. ..   .. ..   ... . .. .. . .. .. . .. .. . .. .. . .. .. . .. .. . .. .. . .. .. .. .. . .. .. . .. .. . .. .. . .. .. . . .. .. . .. .. . .. .. . .. .. . .. .. . .. .. . .. .. . .. .. .   .. ..   .. ..   .. ..   .. ..   . .. .  . .. .  . .. .  . . .  .. . .  .. . .  .. .   .. ..   .. .... . .. .. . .. . .. . .. .. . . .. .. . .. .. . . .. .. . . .. ..   .. . .  . .. .  . . .  .. .   .. ..   . .. .. . . .. .. . . .. . .. . .. . ..   . .. .  . . .. .... . .... .. . . .. . .. . . .. . .. . . .. . .. . . .. . .. . . .... . .. . . . .. . .. . . . .... . .. . . . . .... . ...... ... . . . . . . ... . .. .. ....",
"...   ..... ... ... ... ... ... ... .  .. ... .  .. ... .  .. .. .. ... .  .. .. .. .. .. ... . ... . ... . ... .  .. .  .. .  .. .  .. .  .. . ... . ... . ..  . .. .  .. ..  . .. . ... . .. .. .. .. .. .. . ...   .. .. .  .. . ..  . .. .  .. ..   .. .. .. .. . ..  . .. .. . ... . .. .. . ..  . .. .. . .. .  .. ..   .. ..    .. . .  .. . .   . .. .  . .. .  . ..    .. ..   .. ..   .. ..   ... . .. .. . .. .. . .. .. . .. .. .. .. . .. .. . .. .. . .. .. . .. .. . .. .. . .. .. . .. .. .. .. . .. .. . .. .. . .. .. . .. .. . .. . .. . .. .. . .. .. . .. .. . .. .. . .. .. . .. .. . .. .. . .... .. . .. .. . .. .. . .. .. .   .. ..   .. ..   .. ..   .. . .  . .. .  . .. .  . . .  .. . .  .. .   .. ..   .. .. . . .. .. . .. . .. . .. .. . . .. .. . .. . .. . .. .. .   .. ..   . .. .  . . .  .. . . .. ..   . .. .. . . .. .. . . .. .... . .. . ..   . .. .  . . .. . .. . . .. .. . . .... .. . . .... .. . . . .. .... . . .. . .. . . . .. . .. . . . .... . .. . . . . .... . .... . . . ... . . . . . . ... . . ..... . ",
".....   ...   ..  ..  ...... ..  .. ... .. .. ... .. .. ... .  .. .. .. ... . ... .. .. .. .. ..  . ..  . ..  . ... . ... . ... . ... . ... . ..  . .. .. .. .  .. ..  . .. . ... . ..  . .. .. .. .. .  ..   ..  . .  .. .. .  . ..    .. ..    .. . .. .. .. .. . .. .. .. .. . ..  . .. .. . .. .. .. ..   .. .. .  .. . .  .. . ..  . .. .  . .. .  .. ..   .. ..   .. .. .. .. . .. .. . .. .. . .. .. .. .. . .. .. . .. .. . .. .. .. .. . .. .. . .. .. . .. .. . .. .. . .. .. . .. .. . .. .. . ... . .. .. . .. .. . .. .. . .. .. . .. .... . .. .. . .. .. . .. .. . .. .. . .. .. . .. .. . .. .. . .. . .. . .. .. . .. .. . .. .. . .... .. . .. .. . .. .. . .. ....   .. ..   .. ..   .... .  . .. .  . . .  .. . .  .. .   .. ..   .. .... . .. .. . .. . .. . .. .... . .. .. . . .. .. . .... ..   .. . .  . ..   .. . .  . ..   .... .. . . .. .. . . .. .... . .. . ..   . .. .  . . .. . .. . . .. . .. . . .. . .. . . .. . .. . . .. . .. . . . .. . .... . . .... . .. . . . .... . . .. . . . . . ...... . ... . . . ...... . .. .. ",
"....... ..... ... ... ....... ... .. .. ... .. .. ... .. .. ... .  .. .. .. ..  . ... .  .. .. .. .. .. .. .. .. .. .. .. .. .. .. .. .. .. .. .. .. .  .. ..  . .. . ... . ..  . .. .. .. .. .  ..   ... . .  .. .. .  . ...   .. .. .. .. . ... . .. .. .  .. . .. .. .. .. . .. .. .. ..   .. ..    .. . .  .. .  .  . .. .  . ..    .. ..   .. .. .. .. . .. .. . .. .. .. .. . .. .. . .. .. . .. .. .. .. . .. .. . .. .. . .. .. .  .. . .. .. . .. .. . .. .. . .. .. . .. .. . .. .. . .. .. . ..    .. ..   .. ..   .. ..   .. ..   .. ..   . .. .. . .. .. . .. .. . .. .. . .. .. . .. .. . .. .. . .. .. . . .. .. . .. .. . .. .. . .. . .. . .. .. . .. .. . .. .. . . .. .. . .. .. . .. . ..   .. ..   .. . .  . .. .  . ...  .. . .  .. .   .. ..   .. .... . .. .. . . .. .. . .... .. . .. . .. . .. ....   .. ...  . .. . .. . .  . ..   .... .. . . .. .. . . .. .... . .. . ..   . .. . .. . .... .. . . .... .. . . .... .... . . .. .... . . .... .... . . .... . .. . . . .... . .... . . . . .... . . ................... . .. . .. .",
"... ..........  ..  ..  ... .  .. ... ..  .  .. ..  .  .. .. .. ... .  .. .. .. ..  . ... .  .. .. .. .. .. .. .. .. .. .. .. .. .. .. .. .. .  .. ..    .. . ... . ..  . .. .. .. .. .. ..   ... . .  .. .. .  .. ..   ..  . .. .. .. .. . .. .. .. .. . ... . .. .. . ...   .. ..    .. . .  .. . ..  . .. .  . ...   .. ..   .. .. .. .. . .. .. .  .. . .. .. . .. .. . ... . .. .. . .. .. . .. .. .  .. . .. .. . .. .. . .. .. . ...   .. ..   .. ..   .. ..   .. ..   .. ..   .. ..   .. ..   .. .. .  .. . .  .. . .  .. . .  .. . .  .. . . .. ..   .. ..   .. ..   .. ..   .. ..   .. ..   .. ..   .. ..   . .. .. . .. .. . .. .. . .. .. . . .. .. . .. .. . .. .. . . .. .. . .. .. . .. .. . . .. .. . .. ....   .. ..   .. . .  . .. .  . . .  .. . .  .. .   .. ..   . .. .. . .. . .. . .. .. . . .. .. . . .. .. .   .. ..   . .. .  . . .  . ..   .. . .. . . .. .. . . .. .... . .... ..   . .. . .. . . .. . .. . . .. . .. . . .. . .. . . .... . .. . . . .. . .. . . . .... . .. . . . . .... . . .... . . . . ... . . . . . ..... . ..",
"...   ..... ... ... ... ... ... ..  .  .. ... .  .. ... .  .. .. .. ... .  .. .. .. .. .. ... . ... . ... . ... .  .. .  .. .  .. .  .  .  ..   ... . ... . ..  . .. .. .. .. .. ..   ... . .  .. .. .  .. ..   ... . .. .. .. .. . ... . .. .. .. .. . .. .  .. ..   ..  . .  .. . ..  . .. .  . ..    .. ..   .. .. .. .. . .. .. .. .. . .. .. . ... . .. .. . .. .. . ..  . .. .. . .. .. . .. .. . ...   .. ..   .. ..   .. ..   .. .. .  .. . .  .. . .  .. . .  .. . .  .. . .  .. . .  .. . .  .. .. .  . .. .  . .. .  . .. .  . .. .  . ..   .. . .  .. . .  .. . .  .. . .  .. . .  .. . .  .. . .  .. . . .. ..   .. ..   .. ..   .. ..   . .. .. . .. .. . .. .. . .. . .. . .. .. . .. .. . . .. .. . .. .. . . .. .. . .. .. .   .. ..   .. . .  . .. .  . . .  .. . .  . ..   .. .. . . .. .. . . .. .. . . .. .. . . .. .. . . .. ..   . .. .  . . .  ....   .. . .. . . .. .. . . .. . .. . . .. ..   . .... .. . . .... .. . . . .. .... . . .. . .. . . . .. . .. . . . .... . .. . . . . .... . .... . . . . . . . ... . . . . . . .. .. . ",
".....   ...   ......  ..  .. ..  .. ... .. .. ... .. .. ... .  .. .. .. ... . ... .. .. .. .. ..  . ..  . ..  . ... . ... . ..  . ...   ... . ..  . .. .. .. .. .. .. .. ..   ... . .   . .. .  .. ..    .. . ..  . .. .. .. .. . ..  . .. .. .  ..   .. .. .  .. . .  .. .. .  . ..    .. ..   .. .. .. .. . .. .. .. .. . .. .. . ... . .. .. . .. .. .. .. . .. .. . .. .. .. ..   .. ..   .. ..   .. .. .  .. . .  .. . .  .. . .  .. .. .  . .. .  . .. .  . .. .  . .. .  . .. .  . .. .  . .. .  . ...   .. ..   .. ..   .. ..   .. ..   .. ...  . .. .  . .. .  . .. .  . .. .  . .. .  . .. .  . .. .  . .. . .. . .  .. . .  .. . .  .. . . .. ..   .. ..   .. ..   .. .... . .. .. . .. .. . .... .. . .. .. . . .. .. . .. .. . . .. .. . .. ....   .. ..   .. . .  . .. . .. . .  .. .   .. ..   .... .. . .. . .. . .. . .. . .. . .. . .... ..   . .. .  . . .  ....   .. . .. . . .. .. . . .. . .. .   .. . .  . . .. . .. . . .. . .. . . .. . .. . . . .. . .... . . .... . .. . . . .... . . .. . . . . . ...... . . ... . ... .... .... .. ",
"  .....   ... ....... ... ... ... .. .. ... .. .. ... .. .. ... .  .. .. .. ..  . ... .  .. .. .. .. .. .. .. .. .. .. .. .. .  .. .. .. .. .. .. .. .. .. .. .. ..   ... . .   . .. .  .. ..    .. . ... . .. .. .. .. . ... . .. .. .. ..   ... . .  .. .  .  . .. .  .. ..   .. .. .. .. . .. .. .. .. . .. .. .  .. . .. .. . ..  . .. .. . .. .. .. ..   .. ..   .. ..    .. . .  .. . .  .. . .  .. .. .  . .. .  . .. .  . .. .  .  ..   .. ..   .. ..   .. ..   .. ..   .. ..   .. ..   .. ..   ..  . .. .  . .. .  . .. .  . .. .  . .. .  .   .. ..   .. ..   .. ..   .. ..   .. ..   .. ..   .. ..   .. ..   . .. .  . .. .  . .. .  . .. . .. . .  .. . .  .. . .  .. .   .. ..   .. ..   .. . .. . .. .. . .. . .. . .. .. . .... .. . .. .. . . .. .. . .. ....   .. ..   . .. .  . ...  .. . .  . ..   .. .... . .. .... . .. .... . .. . .. . .... ..   . .. .  . . .  ....   .. . .. . . .. .... . .... .. .   .... .  . . .... .... . . .. .... . . .... .... . . .... . .. . . . .... . .... . . . . .... . . . ................. . .... .. .",
".   .....  ...  ... ..  ..  .  .. ... ..  .  .. ..  .  .. .. .. ... .  .. .. .. ..  . ... .  .. .. .. .. .. .. .. .. .  .. .. .. .. .. .. .. .. .. .. .  ..   ... . .   . .. .  .. ..  . .. . ... . .. .. .. .. .. .. . ..    .. ..    .. . .  .. .. .  . ...   .. ..   ... . .. .. .. .. . .. .. . ... . .. .. . ... . .. .. . .. .. .. ..   .. ..    .. . .  .. . .  .. . ..  . .. .  . .. .  . .. .  .  ..   .. ..   .. ..   .. ..   ..  . .. .  . .. .  . .. .  . .. .  . .. .  . .. .  . .. .  . .. .  .. ..   .. ..   .. ..   .. ..   .. ..   . .. .  . .. .  . .. .  . .. .  . .. .  . .. .  . .. .  . .. .  .   .. ..   .. ..   .. ..   .. ..   . .. .  . .. .  . .. .  . . .  .. . .  .. . .  .. .   .. ..   .. .... . .. .. . .. . .. . .. .. . . .. .. . .. .. . . .. .. . . .. ..   .. . .  . .. .  . . .  .. .   .. ..   . .. .. . . .. .. . . .. . .. . .. . ..   . .. .  . . .  ....   .... .. . . .. . .. . . .. . ..   . .. . .. . . .. . .. . . .... . .. . . . .. . .. . . . .... . .. . . . . .... . . .... . . . . . . . . ... . .. .. . ..",
"...   ..... ... ... ... ... ... ..  .  .. ... .  .. ... .  .. .. .. ... .  .. .. .. .. .. ... . ... . ... . ..  .  ..    .. .  .. .  .. .  .. . ...   ... . .   . .. .  .. ..  . .. . ... . .. .. .. .. .. .. . ...   .. .. .  .. . ..  . .. .  .. ..   .. .. .. .. . ..  . .. .. . ... . .. .. . ..  . .. .. . .. .  .. ..   .. ..    .. . .  .. . .   . .. .  . .. .  . ..    .. ..   .. ..   .. ..   ..  . .. .  . .. .  . .. .  . .. .  .. ..   .. ..   .. ..   .. ..   .. ..   .. ..   .. ..   .. ..    .. . .  .. . .  .. . .  .. . .  .. . .  . ..   .. ..   .. ..   .. ..   .. ..   .. ..   .. ..   .. ..   .... .  . .. .  . .. .  . .. .  .   .. ..   .. ..   .. ..   .. . .  . .. .  . .. .  . . .  .. . .  .. .   .. ..   .. .. . . .. .. . .. . .. . .. .. . . .. .. . .. . .. . .. .. .   .. ..   . .. .  . . .  .. . . .. ..   . .. .. . . .. .. . . .. .... . .. . ..   . .. .  . . .  . ..   . .. .. . . .... .. . . .... ..   . . .. .... . . .. . .. . . . .. . .. . . . .... . .. . . . . .... . .... . . . . . . . . . . . ... . . ..... . ",
".....   ...   ..  ..  ..  .. ..  .. ... .. .. ... .. .. ... .  .. .. .. ... . ... .. .. .. .. ..  . ..  . ..    ... . ... . ... . ... . ...   ..  . .  .. .. .  .. ..  . .. . ... . ..  . .. .. .. .. .  ..   ..  . .  .. .. .  . ..    .. ..    .. . .. .. .. .. . .. .. .. .. . ..  . .. .. . .. .. .. ..   .. .. .  .. . .  .. . ..  . .. .  . .. .  .. ..   .. ..   .. .. .. .  . .. .  . .. .  . .. .  .. ..   .. ..   .. ..   .. .. .  .. . .  .. . .  .. . .  .. . .  .. . .  .. . .  .. . .  .. . ..  . .. .  . .. .  . .. .  . .. .  . .. . .. . .  .. . .  .. . .  .. . .  .. . .  .. . .  .. . .  .. . .  . ..   .. ..   .. ..   .. ..   .... .  . .. .  . .. .  . .. . ..   .. ..   .. ..   .... .  . .. .  . . .  .. . .  .. .   .. ..   .. .... . .. .. . .. . .. . .. .... . .. .. . . .. .. . .... ..   .. . .  . ..   .. . .  . ..   .... .. . . .. .. . . .. .... . .. . ..   . .. .  . . .  . ..   . .. . .. . . .. . .. .   .. . .  . . .. . .. . . . .. . .... . . .... . .. . . . .... . . .. . . . . . ...... . . . . . . ...... . .. .. ",
"....... ..... ... ... ... ... ... .. .. ... .. .. ... .. .. ... .  .. .. .. ..  . ... .  .. .. .. .. .  .. .. .. .. .. .. .. .. .. .  .. .. .  .. .. .  .. ..  . .. . ... . ..  . .. .. .. .. .  ..   ... . .  .. .. .  . ...   .. .. .. .. . ... . .. .. .  .. . .. .. .. .. . .. .. .. ..   .. ..    .. . .  .. .  .  . .. .  . ..    .. ..   .. .. .. .  . .. .  . .. .  .. ..   .. ..   .. ..   .. .. .  .. . .  .. . .  .. . .  .. .  .  . .. .  . .. .  . .. .  . .. .  . .. .  . .. .  . .. .  . ..    .. ..   .. ..   .. ..   .. ..   .. ..   . .. .  . .. .  . .. .  . .. .  . .. .  . .. .  . .. .  . .. .  . . .  .. . .  .. . .  .. . .  . ..   .. ..   .. ..   .. ..   . .. .  . .. .  . .. . ..   .. ..   .. . .  . .. .  . ...  .. . .  .. .   .. ..   .. .... . .. .. . . .. .. . .... .. . .. . .. . .. ....   .. ...  . .. . .. . .  . ..   .... .. . . .. .. . . .. .... . .. . ..   . .. . .. . . .. .. . . .... .. . . .... ....   . .. . .. . . .... .... . . .... . .. . . . .... . .... . . . . .... . . . ................. . .. . .. .",
"... ..........  ..  ..  ..  .  .. ... ..  .  .. ..  .  .. .. .. ... .  .. .. .. ..  . ... .  .  .. ..  . .. .. .. .. .. .. .. .. .. .  .. .. .  .. ..    .. . ... . ..  . .. .. .. .. .. ..   ... . .  .. .. .  .. ..   ..  . .. .. .. .. . .. .. .. .. . ... . .. .. . ...   .. ..    .. . .  .. . ..  . .. .  . ...   .. ..   .. .. .. .  . .. .  .  ..   .. ..   .. ..   ... . .  .. . .  .. . .  .. .  .  . .. .  . .. .  . .. .  . ...   .. ..   .. ..   .. ..   .. ..   .. ..   .. ..   .. ..   .. .. .  .. . .  .. . .  .. . .  .. . .  .. . . .. ..   .. ..   .. ..   .. ..   .. ..   .. ..   .. ..   .. ..   . .. .  . .. .  . .. .  . .. .  . . .  .. . .  .. . .  .. . . .. ..   .. ..   .. ..   . .. .  . .. . ..   .. ..   .. . .  . .. .  . . .  .. . .  .. .   .. ..   . .. .. . .. . .. . .. .. . . .. .. . . .. .. .   .. ..   . .. .  . . .  . ..   .. . .. . . .. .. . . .. .... . .... ..   . .. . .. .   .. . .. . . .. . .. . . .. . ..   . .... . .. . . . .. . .. . . . .... . .. . . . . .... . . .... . . . . . . . . . . . ..... . ..",
"...   ..... ... ... ... ... ... ..  .  .. ... .  .. ... .  .. .. .. ... .  .. .. .. .. .. ...   ... . ... . ... .  .. .  ..    .. .  .  .  ..   ... . ... . ..  . .. .. .. .. .. ..   ... . .  .. .. .  .. ..   ... . .. .. .. .. . ... . .. .. .. .. . .. .  .. ..   ..  . .  .. . ..  . .. .  . ..    .. ..   .. .. .. .  . .. .  .. ..   .. ..   ... . .  .. . .  .. . .   . .. .  . .. .  . .. .  . ...   .. ..   .. ..   .. ..   .. .. .  .. . .  .. . .  .. . .  .. . .  .. . .  .. . .  .. . .  .. .. .  . .. .  . .. .  . .. .  . .. .  . ..   .. . .  .. . .  .. . .  .. . .  .. . .  .. . .  .. . .  .. . . .. ..   .. ..   .. ..   .. ..   . .. .  . .. .  . .. .  . ..   .. . .  .. . .  .. .   .. ..   .. ..   . .. .  . .. .  .   .. ..   .. . .  . .. .  . . .  .. . .  . ..   .. .. . . .. .. . . .. .. . . .. .. . . .. .. . . .. ..   . .. .  . . .  ....   .. . .. . . .. .. . . .. . .. . . .. ..   . ...  .. .   .... .. . . . .. .... . . .. . .  . . . .. . .. . . . .... . .. . . . . .... . .... . . . . . . . . . . . . . . . .. .. . ",
".....   ...   ..  ..  ..  .. ..  .. ... .. .. ... .. .. ... .  .. .. .. ... . ... .. .  .. .. ..  . ..  . ..  . ...   ... . .   . ...   ... . ..  . .. .. .. .. .. .. .. ..   ... . .   . .. .  .. ..    .. . ..  . .. .. .. .. . ..  . .. .. .  ..   .. .. .  .. . .  .. .. .  . ..    .. ..   .. .. .. .  . .. .  .. ..   .. ..   ... . .  .. . .  .. .. .  . .. .  . .. .  .. ..   .. ..   .. ..   .. .. .  .. . .  .. . .  .. . .  .. .. .  . .. .  . .. .  . .. .  . .. .  . .. .  . .. .  . .. .  . ...   .. ..   .. ..   .. ..   .. ..   .. ...  . .. .  . .. .  . .. .  . .. .  . .. .  . .. .  . .. .  . .. . .. . .  .. . .  .. . .  .. . . .. ..   .. ..   .. ..   .. ...  . .. .  . .. .  . ...  .. . .  .. . . .. ..   .. ..   . .. .  . .. . ..   .. ..   .. . .  . .. . .. . .  .. .   .. ..   .... .. . .. . .. . .. . .. . .. . .. . .... ..   . .. .  . . .  ....   .. . .. . . .. .. . . .. . .. .   .. . .  . . .  . ..   . .. . .. . . .. . .. .   . .. . .... . . .... . .. . . . .... . . .. . . . . . ...... . . . . . . . .... .... .. ",
"  .....   ... ... ... ... ... ... .. .. ... .. .. ... .. .. ... .  .. .. .. ..  . ...    .. .. .. .. .. .. .. .. .. .  .. .. .  .. .. .. .. .. .. .. .. .. .. .. ..   ... . .   . .. .  .. ..    .. . ... . .. .. .. .. . ... . .. .. .. ..   ... . .  .. .  .  . .. .  .. ..   .. .. .. .  . .. .  .. ..   .. ..    .. . .  .. . .   . .. .  . .. .  .. ..   .. ..   .. ..    .. . .  .. . .  .. . .  .. .. .  . .. .  . .. .  . .. .  .  ..   .. ..   .. ..   .. ..   .. ..   .. ..   .. ..   .. ..   ..  . .. .  . .. .  . .. .  . .. .  . .. .  .   .. ..   .. ..   .. ..   .. ..   .. ..   .. ..   .. ..   .. ..   . .. .  . .. .  . .. .  . .. . .. . .  .. . .  .. . .  .. .   .. ..   .. ..   .. . .  . .. .  . ..   .. . .  .. . . .. ..   .. ..   . .. .  . .. . ..   .. ..   . .. .  . ...  .. . .  . ..   .. .... . .. .... . .. .... . .. . .. . .... ..   . .. .  . . .  ....   .. . .. . . .. .... . .... .. .   .... .  . . . .. .... . . .. .... . . .... ...  . . .... . .. . . . .... . .... . . . . .... . . . ................. . .... .. .",
".   .....  ...  ..  ..  ..  .  .. ... ..  .  .. ..  .  .. .. .. ... .  .. .. .  ..  . ... .  .. .. .. .. ..    .. .. .  .. .. .. .. .. .. .. .. .. .. .  ..   ... . .   . .. .  .. ..  . .. . ... . .. .. .. .. .. .. . ..    .. ..    .. . .  .. .. .  . ...   .. ..   ..  . .. .  .. ..   .. ..   ... . .  .. . .   . .. .  . .. .  .. ..   .. ..    .. . .  .. . .  .. . ..  . .. .  . .. .  . .. .  .  ..   .. ..   .. ..   .. ..   ..  . .. .  . .. .  . .. .  . .. .  . .. .  . .. .  . .. .  . .. .  .. ..   .. ..   .. ..   .. ..   .. ..   . .. .  . .. .  . .. .  . .. .  . .. .  . .. .  . .. .  . .. .  .   .. ..   .. ..   .. ..   .. ..   . .. .  . .. .  . .. .  . . .  .. . .  .. . .  .. .   .. ..   .. ...  . .. .  . .. . .. . .  .. . . .. ..   .. ..   . .. .  . . .. ..   .. . .  . .. .  . . .  .. .   .. ..   . .. .. . . .. .. . . .. . .. . .. . ..   . .. .  . . .  ....   .... .. . . .. . .. . . .. . ..   . .. . .. .   .. . .. . . .... . .. .   . .. . .. . . . .... . .. . . . . .... . . .... . . . . . . . . . . . .. .. . ..",
"...   ..... ... ... ... ... ... ..  .  .. ... .  .. ... .  .. .. .. ..  .  ..  . .. .. .. ... . ...   ... . ..  .  ..    .. .  .. .  .. .  .. . ...   ... . .   . .. .  .. ..  . .. . ... . .. .. .. .. .. .. . ...   .. .. .  .. . ..  . .. .  .. ..   .. .. .. .  . ..    .. ..   ... . .  .. . .   . .. .  . .. .  .. ..   .. ..    .. . .  .. . .   . .. .  . .. .  . ..    .. ..   .. ..   .. ..   ..  . .. .  . .. .  . .. .  . .. .  .. ..   .. ..   .. ..   .. ..   .. ..   .. ..   .. ..   .. ..    .. . .  .. . .  .. . .  .. . .  .. . .  . ..   .. ..   .. ..   .. ..   .. ..   .. ..   .. ..   .. ..   .... .  . .. .  . .. .  . .. .  .   .. ..   .. ..   .. ..   .. . .  . .. .  . .. .  . . .  .. . .  .. .   .. ..   .. ..   . .. .  . ..   .. . .  .. . . .. ..   .. . .  . .. .  .   .. ..   . .. .  . . .  .. . . .. ..   . .. .. . . .. .. . . .. .... . .. . ..   . .. .  . . .  . ..   . .. .. . . .... .. . . .... ..   . . .  ....   . .. . .. . . . .. . ..   . . .... . .. . . . . .... . .... . . . . . . . . . . . . . . . ..... . ",
".....   ...   ..  ..  ..  .. ..  .. ... .. .. ... .. .. ... .  .. .. .  ... . ... .. .. .. .  ..  . .   . ..    ... . ... . ... . ... . ...   ..  . .  .. .. .  .. ..  . .. . ... . ..  . .. .. .. .. .  ..   ..  . .  .. .. .  . ..    .. ..    .  . .. .  .. ..   .. .. .  .. . .   . .. .  . .. .  .. ..   .. .. .  .. . .  .. . ..  . .. .  . .. .  .. ..   .. ..   .. .. .. .  . .. .  . .. .  . .. .  .. ..   .. ..   .. ..   .. .. .  .. . .  .. . .  .. . .  .. . .  .. . .  .. . .  .. . .  .. . ..  . .. .  . .. .  . .. .  . .. .  . .. . .. . .  .. . .  .. . .  .. . .  .. . .  .. . .  .. . .  .. . .  . ..   .. ..   .. ..   .. ..   .... .  . .. .  . .. .  . .. . ..   .. ..   .. ..   .... .  . .. .  . . .  .. . .  .. .   .. ..   .. ...  . .. .  . ..   .. . .  ....   .. ..   . .. .  . .... ..   .. . .  . ..   .. . .  . ..   .... .. . . .. .. . . .. .... . .. . ..   . .. .  . . .  . ..   . .. . .. . . .. . .. .   .. . .  . . .  . .. . . . .. . .... .   .... . .. . . . .... . . .. . . . . . ...... . . . . . . . .... . .. .. ",
".......   ... ... ... ... ... ... .. .. ... .. .. ... .. .. ..  .  .. .. .. ..  . ... .  .. .  .. .. .  .. .. .. .. .. .. .. .. .. .  .. .. .  .. .. .  .. ..  . .. . ... . ..  . .. .. .. .. .  ..   ... . .  .. .. .  . ...   .. .. .. .  . ...   .. ..    .. . .  .. .. .  . .. .  .. ..   .. ..    .. . .  .. .  .  . .. .  . ..    .. ..   .. .. .. .  . .. .  . .. .  .. ..   .. ..   .. ..   .. .. .  .. . .  .. . .  .. . .  .. .  .  . .. .  . .. .  . .. .  . .. .  . .. .  . .. .  . .. .  . ..    .. ..   .. ..   .. ..   .. ..   .. ..   . .. .  . .. .  . .. .  . .. .  . .. .  . .. .  . .. .  . .. .  . . .  .. . .  .. . .  .. . .  . ..   .. ..   .. ..   .. ..   . .. .  . .. .  . .. . ..   .. ..   .. . .  . .. .  . ...  .. . .  .. .   .. ..   .. ...  . .. .  . . .  .. . . .. ..   .. . .  . .. . ..   .. ...  . .. . .. . .  . ..   .... .. . . .. .. . . .. .... . .. . ..   . .. . .. . . .. .. . . .... .. . . .... ....   . .. . .. .   .... .... . . .... . ..   . . .... . .... . . . . .... . . . ................. . .. . .. .",
"... .....  ...  ..  ..  ..  .  .. ... ..  .  .. ..  .  .. .. .  ... .  .. .. .. ..    ... .  .  .. ..  . .. .. .. .. .. .. .. .. .. .  .. .. .  .. ..    .. . ... . ..  . .. .. .. .. .. ..   ... . .  .. .. .  .. ..   ..  . .. .  .. ..   .. .. .  .. . .   . .. .  . ...   .. ..    .. . .  .. . ..  . .. .  . ...   .. ..   .. .. .. .  . .. .  .  ..   .. ..   .. ..   ... . .  .. . .  .. . .  .. .  .  . .. .  . .. .  . .. .  . ...   .. ..   .. ..   .. ..   .. ..   .. ..   .. ..   .. ..   .. .. .  .. . .  .. . .  .. . .  .. . .  .. . . .. ..   .. ..   .. ..   .. ..   .. ..   .. ..   .. ..   .. ..   . .. .  . .. .  . .. .  . .. .  . . .  .. . .  .. . .  .. . . .. ..   .. ..   .. ..   . .. .  . .. . ..   .. ..   .. . .  . .. .  . . .  .. . .  .. .   .. ..   . .. .  . .. . .. . .  .. .   .. ..   . .. .  .   .. ..   . .. .  . . .  . ..   .. . .. . . .. .. . . .. .... . .... ..   . .. . .. .   .. . .. . . .. . .. . . .. . ..   . ...  . ..   . . .. . .. . .   .... . .. . . . . .... . . .... . . . . . . . . . . . .. .. . ..",
"...   ..... ... ... ... ... ... ..  .  .. ... .  .. ..  .  .. .. .. ... .  .. .. .. .  .. ...   ... . ... . ... .  .. .  ..    .. .  .  .  ..   ... . ... . ..  . .. .. .. .. .. ..   ... . .  .. .. .  .. ..   ..  . .. .  .. ..   ... . .  .. .. .  . .. .  .. ..   ..  . .  .. . ..  . .. .  . ..    .. ..   .. .. .. .  . .. .  .. ..   .. ..   ... . .  .. . .  .. . .   . .. .  . .. .  . .. .  . ...   .. ..   .. ..   .. ..   .. .. .  .. . .  .. . .  .. . .  .. . .  .. . .  .. . .  .. . .  .. .. .  . .. .  . .. .  . .. .  . .. .  . ..   .. . .  .. . .  .. . .  .. . .  .. . .  .. . .  .. . .  .. . . .. ..   .. ..   .. ..   .. ..   . .. .  . .. .  . .. .  . ..   .. . .  .. . .  .. .   .. ..   .. ..   . .. .  . .. .  .   .. ..   .. . .  . .. .  . . .  .. . .  . ..   .. ..   . .. .  . . .  .. . . .. ..   . .. .  . . .. ..   . .. .  . . .  ....   .. . .. . . .. .. . . .. . .. . . .. ..   . ...  .. .   .... .. . . . .. .... . . .. . .  . . . .. . .. . . . .... . ..   . . . .... . .... . . . . . . . . . . . . . . . .. .. . ",
".....   ...   ..  ..  ..  .. ..  .. ... .. .. ... .. .  ... .  .. .. .. ...   ... .. .  .. .. ..  . ..  . ..  . ...   ... . .   . ...   ... . ..  . .. .. .. .. .. .. .. ..   ... . .   . .. .  .. ..    .  . ..    .. ..    .. . .   . .. .  .  ..   .. .. .  .. . .  .. .. .  . ..    .. ..   .. .. .. .  . .. .  .. ..   .. ..   ... . .  .. . .  .. .. .  . .. .  . .. .  .. ..   .. ..   .. ..   .. .. .  .. . .  .. . .  .. . .  .. .. .  . .. .  . .. .  . .. .  . .. .  . .. .  . .. .  . .. .  . ...   .. ..   .. ..   .. ..   .. ..   .. ...  . .. .  . .. .  . .. .  . .. .  . .. .  . .. .  . .. .  . .. . .. . .  .. . .  .. . .  .. . . .. ..   .. ..   .. ..   .. ...  . .. .  . .. .  . ...  .. . .  .. . . .. ..   .. ..   . .. .  . .. . ..   .. ..   .. . .  . .. . .. . .  .. .   .. ..   .... .  . ..   .. . .  . ..   .. . .  . .... ..   . .. .  . . .  ....   .. . .. . . .. .. . . .. . .. .   .. . .  . . .  . ..   . .. . .. . . .. . .. .   . ..   ....   . .... . .. . .   .... . . .. . . . . . ...... . . . . . . . .... . .. .. ",
"  .....   ... ... ... ... ... ... .. .. ... .. .. ... .. .. ... .  .. .. .. .   . ...    .. .. .. .. .. .. .. .. .. .  .. .. .  .. .. .. .. .. .. .. .. .. .. .. ..   ... . .   . .. .  .. ..    .  . ...   .. .. .  .. . ..  . .. .  .. ..   ... . .  .. .  .  . .. .  .. ..   .. .. .. .  . .. .  .. ..   .. ..    .. . .  .. . .   . .. .  . .. .  .. ..   .. ..   .. ..    .. . .  .. . .  .. . .  .. .. .  . .. .  . .. .  . .. .  .  ..   .. ..   .. ..   .. ..   .. ..   .. ..   .. ..   .. ..   ..  . .. .  . .. .  . .. .  . .. .  . .. .  .   .. ..   .. ..   .. ..   .. ..   .. ..   .. ..   .. ..   .. ..   . .. .  . .. .  . .. .  . .. . .. . .  .. . .  .. . .  .. .   .. ..   .. ..   .. . .  . .. .  . ..   .. . .  .. . . .. ..   .. ..   . .. .  . .. . ..   .. ..   . .. .  . ...  .. . .  . ..   .. ...  . .. . .. . .  ....   .. . .  . .... ..   . .. .  . . .  ....   .. . .. . . .. .... . .... .. .   .... .  . . . .. .... . . .. .... . . .... ...  . . . .. . .. . . . .... . ...  . . . . .... . . . ................. . .. . .. .",
".   .....  ...  ..  ..  ..  .  .. ... ..  .  .  ..  .  .. .. .. ...    .. .. .  ..  . ... .  .. .. .. .. ..    .. .. .  .. .. .. .. .. .. .. .. .. .. .  ..   ... . .   . .. .  .. ..  . .  . ...   .. .. .  .. .. .  . ..    .. ..    .. . .  .. .. .  . ...   .. ..   ..  . .. .  .. ..   .. ..   ... . .  .. . .   . .. .  . .. .  .. ..   .. ..    .. . .  .. . .  .. . ..  . .. .  . .. .  . .. .  .  ..   .. ..   .. ..   .. ..   ..  . .. .  . .. .  . .. .  . .. .  . .. .  . .. .  . .. .  . .. .  .. ..   .. ..   .. ..   .. ..   .. ..   . .. .  . .. .  . .. .  . .. .  . .. .  . .. .  . .. .  . .. .  .   .. ..   .. ..   .. ..   .. ..   . .. .  . .. .  . .. .  . . .  .. . .  .. . .  .. .   .. ..   .. ...  . .. .  . .. . .. . .  .. . . .. ..   .. ..   . .. .  . . .. ..   .. . .  . .. .  . . .  .. .   .. ..   . .. .  . . .  .. .   .. . .  . .. . ..   . .. .  . . .  ....   .... .. . . .. . .. . . .. . ..   . .. . .. .   .. . .. . . .... . .. .   . .. . .. .   . .... . .. . .   . .... . . .... . . . . . . . . . . . .. .. . ..",
"...   ..... ... ... ... ... ... ..  .  .. ...    .. ... .  .. .. .. .   .  ..  . .. .. .. ... . ...   ... . ..  .  ..    .. .  .. .  .. .  .. . ...   ... . .   . .. .  .. ..  . .  . ...   .. .. .  .. .. .  . ...   .. .. .  .. . ..  . .. .  .. ..   .. .. .. .  . ..    .. ..   ... . .  .. . .   . .. .  . .. .  .. ..   .. ..    .. . .  .. . .   . .. .  . .. .  . ..    .. ..   .. ..   .. ..   ..  . .. .  . .. .  . .. .  . .. .  .. ..   .. ..   .. ..   .. ..   .. ..   .. ..   .. ..   .. ..    .. . .  .. . .  .. . .  .. . .  .. . .  . ..   .. ..   .. ..   .. ..   .. ..   .. ..   .. ..   .. ..   .... .  . .. .  . .. .  . .. .  .   .. ..   .. ..   .. ..   .. . .  . .. .  . .. .  . . .  .. . .  .. .   .. ..   .. ..   . .. .  . ..   .. . .  .. . . .. ..   .. . .  . .. .  .   .. ..   . .. .  . . .  .. . . .. ..   . .. .  . . .  .. .   .. ...  . .. . ..   . .. .  . . .  . ..   . .. .. . . .... .. . . .... ..   . . .  ....   . .. . .. . . . .. . ..   . . . .. . .. . . . . .... . . .. . . . . . . . . . . . . . . . .. .. . ",
".....   ...   ..  ..  ..  .. ..  .. ..  .. .. ... .. .. ...    .. .. .  ... . ... .. .. .. .  ..  . .   . ..    ... . ... . ... . ... . ...   ..  . .  .. .. .  .. ..  . .  . ...   ..  . .  .. .. .  .  ..   ..  . .  .. .. .  . ..    .. ..    .  . .. .  .. ..   .. .. .  .. . .   . .. .  . .. .  .. ..   .. .. .  .. . .  .. . ..  . .. .  . .. .  .. ..   .. ..   .. .. .. .  . .. .  . .. .  . .. .  .. ..   .. ..   .. ..   .. .. .  .. . .  .. . .  .. . .  .. . .  .. . .  .. . .  .. . .  .. . ..  . .. .  . .. .  . .. .  . .. .  . .. . .. . .  .. . .  .. . .  .. . .  .. . .  .. . .  .. . .  .. . .  . ..   .. ..   .. ..   .. ..   .... .  . .. .  . .. .  . .. . ..   .. ..   .. ..   .... .  . .. .  . . .  .. . .  .. .   .. ..   .. ...  . .. .  . ..   .. . .  ....   .. ..   . .. .  . .... ..   .. . .  . ..   .. . .  . ..   .... .  . . .  .. .   .. ...  . .. . ..   . .. .  . . .  . ..   . .. . .. . . .. . .. .   .. . .  . . .  . .. . . . .. . .... .   .... . .. .   . .... . . .. .   . . . ...... . . . . . . . .... . .. .. ",
"  .....   ... ... ... ... ... ... .. .  ... .. .. ... .. .. .   .  .. .. .. ..  . ... .  .. .  .. .. .  .. .. .. .. .. .. .. .. .. .  .. .. .  .. .. .  .. ..  . .  . ...   ..  . .  .. .. .  .  ..   ... . .  .. .. .  . ...   .. .. .. .  . ...   .. ..    .. . .  .. .. .  . .. .  .. ..   .. ..    .. . .  .. .  .  . .. .  . ..    .. ..   .. .. .. .  . .. .  . .. .  .. ..   .. ..   .. ..   .. .. .  .. . .  .. . .  .. . .  .. .  .  . .. .  . .. .  . .. .  . .. .  . .. .  . .. .  . .. .  . ..    .  ..   .  ..   .  ..   .  ..   .  ..   . .. .  . .. .  . .. .  . .. .  . .. .  . .. .  . .. .  . .. .  . . .  .. . .  .. . .  .. . .  . ..   .. ..   .. ..   .. ..   . .. .  . .. .  . .. . ..   .. ..   .. . .  . .. .  . ...  .. . .  .. .   .. ..   .. ...  . .. .  . . .  .. . . .. ..   .. . .  . .. . ..   .. ...  . .. . .. . .  . ..   .... .  . . .  .. .   .. ...  . .. . ..   . .. . .. . . .. .. . . .... .. . . .... ....   . .. . .. .   .... .... . . .... . ..   . . . .. . .... . . . . .... . . . ................. . .. . .. .",
".   .....  ...  ..  ..  ..  .  .. ... ..  .  .. ..     .. .. .  ... .  .. .. .. ..    ... .  .  .. ..  . .. .. .. .. .. .. .. .. .. .  .. .. .  .. ..    .  . ...   ..  . .  .. .. .  .. ..   ... . .  .. .. .  .. ..   ..  . .. .  .. ..   .. .. .  .. . .   . .. .  . ...   .. ..    .. . .  .. . ..  . .. .  . ...   .. ..   .. .. .. .  . .. .  .  ..   .. ..   .. ..   ... . .  .. . .  .. . .  .. .  .  . .. .  . .. .  . .. .  . ...   .  ..   .  ..   .  ..   .  ..   .  ..   .  ..   .  ..   .  .. .  .  . .  .  . .  .  . .  .  . .  .  . . .  ..   .  ..   .  ..   .  ..   .  ..   .  ..   .  ..   .  ..   . .. .  . .. .  . .. .  . .. .  . . .  .. . .  .. . .  .. . . .. ..   .. ..   .. ..   . .. .  . .. . ..   .. ..   .. . .  . .. .  . . .  .. . .  .. .   .. ..   . .. .  . .. . .. . .  .. .   .. ..   . .. .  .   .. ..   . .. .  . . .  . ..   .. . .  . . .  .. .   .. ...  . .... ..   . .. . .. .   .. . .. . . .. . .. . . .. . ..   . ...  . ..   . . .. . .. . .   .... . .. .   . . .... . . ...  . . . . . . . . . . . .. .. . ..",
"...   ..... ... ... ... ... ..  ..  .  .. ... .  .. .   .  .. .. .. ... .  .. .. .. .  .. ...   ... . ... . ... .  .. .  ..    .. .  .  .  ..   ..  . ...   ..  . .  .. .. .  .. ..   ... . .  .. .. .  .. ..   ..  . .. .  .. ..   ... . .  .. .. .  . .. .  .. ..   ..  . .  .. . ..  . .. .  . ..    .. ..   .. .. .. .  . .. .  .. ..   .. ..   ... . .  .. . .  .. . .   . .. .  . .. .  . .. .  . ...   .  ..   .  ..   .  ..   .  .. .  .  . .  .  . .  .  . .  .  . .  .  . .  .  . .  .  . .  .  .. .    .. .    .. .    .. .    .. .    ..   .  . .  .  . .  .  . .  .  . .  .  . .  .  . .  .  . .  .  . . .  ..   .  ..   .  ..   .  ..   . .. .  . .. .  . .. .  . ..   .. . .  .. . .  .. .   .. ..   .. ..   . .. .  . .. .  .   .. ..   .. . .  . .. .  . . .  .. . .  . ..   .. ..   . .. .  . . .  .. . . .. ..   . .. .  . . .. ..   . .. .  . . .  ....   .. . .  . . .  .. .   .. . .  . . .. ..   . ...  .. .   .... .. . . . .. .... . . .. . .  . . . .. . .. . . . .... . ..   . . . .... . .... . .   . . . . . . . . . . . . .. .. . ",
".....   ...   ..  ..  ..  .. .   .. ... .. .  ... .. .  ... .  .. .. .. ...   ... .. .  .. .. ..  . ..  . ..  . ...   ... . .   . ...   ..  . ..    .. .. .  .. .. .  .. ..   ... . .   . .. .  .. ..    .  . ..    .. ..    .. . .   . .. .  .  ..   .. .. .  .. . .  .. .. .  . ..    .. ..   .. .. .. .  . .. .  .. ..   .. ..   ... . .  .. . .  .. .. .  . .. .  . .. .  .  ..   .  ..   .  ..   .  .. .  .  . .  .  . .  .  . .  .  .. .    .. .    .. .    .. .    .. .    .. .    .. .    .. .    ...   .  ..   .  ..   .  ..   .  ..   .  ...    .. .    .. .    .. .    .. .    .. .    .. .    .. .    .. . .  . .  .  . .  .  . .  .  . . .  ..   .  ..   .  ..   .  ...  . .. .  . .. .  . ...  .. . .  .. . . .. ..   .. ..   . .. .  . .. . ..   .. ..   .. . .  . .. . .. . .  .. .   .. ..   .... .  . ..   .. . .  . ..   .. . .  . .... ..   . .. .  . . .  ....   .. . .  . . .  .. .   .. . .  .   .. . .  . . .  . ..   . .. . .. . . .. . .. .   . ..   ....   . .... . .. . .   ....   . .. . . . . . ...... . . . . . . . .... . .. .. ",
"  .....   ... ... ... ... ... ... .. .. ... .  .. ... .. .. ... .  .. .. .. .   . ...    .. .. .. .. .. .. .. .. .. .  .. .. .  .. .. .. .  .. .. .  .. .. .  .. ..   ... . .   . .. .  .. ..    .  . ...   .. .. .  .. . ..  . .. .  .. ..   ... . .  .. .  .  . .. .  .. ..   .. .. .. .  . .. .  .. ..   .. ..    .. . .  .. . .   . .. .  . .. .  .  ..   .  ..   .  ..    .  . .  .  . .  .  . .  .  .. .    .. .    .. .    .. .     ..   .  ..   .  ..   .  ..   .  ..   .  ..   .  ..   .  ..   .   . .. .  . .. .  . .. .  . .. .  . .. .  .   .  ..   .  ..   .  ..   .  ..   .  ..   .  ..   .  ..   .  ..     .. .    .. .    .. .    .. . .  . .  .  . .  .  . .  .  .   .  ..   .  ..   .  . .  . .. .  . ..   .. . .  .. . . .. ..   .. ..   . .. .  . .. . ..   .. ..   . .. .  . ...  .. . .  . ..   .. ...  . .. . .. . .  ....   .. . .  . .... ..   . .. .  . . .  ....   .. . .  . . .  ....   .... .  .   .... .  . . . .. .... . . .. .... . . .... ...  . . . .. . .. . . . .... . ...  . .   . .... . . . ... ............. . .. . .. .",
".   .....  ...  ..  ..  ..  .  .. ... ..  .  .  ..  .  .. .. .. ...    .. .. .  ..  . ... .  .. .. .. .. ..    .. .. .  .. .. .. .  .. .. .  .. .. .  .  ..   ... . .   . .. .  .. ..  . .  . ...   .. .. .  .. .. .  . ..    .. ..    .. . .  .. .. .  . ...   .. ..   ..  . .. .  .. ..   .. ..   ... . .  .. . .   . .. .  . .. .  .  ..   .  ..    .  . .  .  . .  .  . ..    .. .    .. .    .. .     ..   .  ..   .  ..   .  ..   .   . .. .  . .. .  . .. .  . .. .  . .. .  . .. .  . .. .  . .. .  .. ..   .. ..   .. ..   .. ..   .. ..   . .. .  . .. .  . .. .  . .. .  . .. .  . .. .  . .. .  . .. .  .   .  ..   .  ..   .  ..   .  ..     .. .    .. .    .. .    . .  .  . .  .  . .  .  .   .  ..   .  ...  . .. .  . .. . .. . .  .. . . .. ..   .. ..   . .. .  . . .. ..   .. . .  . .. .  . . .  .. .   .. ..   . .. .  . . .  .. .   .. . .  . .. . ..   . .. .  . . .  ....   .... .  . . .  . ..   . .. . ..   . .. . .. .   .. . .. . . .... . .. .   . .. . .. .   . .... . .. . .   . ...  . . .... . . .   . . . . . . . .. .. . ..",
"...   ..... ... ... ..  ... ... ..     .. ...    .. ... .  .. .. .. .   .  ..  . .. .. .. ... . ...   ... . ..  .  ..    .  .  ..    .. .  .  . ...   ... . .   . .. .  .. ..  . .  . ...   .. .. .  .. .. .  . ...   .. .. .  .. . ..  . .. .  .. ..   .. .. .. .  . ..    .. ..   ... . .  .. . .   . .. .  . .. .  .  ..   .  ..    .  . .  .  . .     .. .    .. .    ..    .  ..   .  ..   .  ..   .   . .. .  . .. .  . .. .  . .. .  .. ..   .. ..   .. ..   .. ..   .. ..   .. ..   .. ..   .. ..    .. . .  .. . .  .. . .  .. . .  .. . .  . ..   .. ..   .. ..   .. ..   .. ..   .. ..   .. ..   .. ..   .... .  . .. .  . .. .  . .. .  .   .  ..   .  ..   .  ..   .  . .    .. .    .. .    . .  .  . .  .  .   .  ..   .  ..   . .. .  . ..   .. . .  .. . . .. ..   .. . .  . .. .  .   .. ..   . .. .  . . .  .. . . .. ..   . .. .  . . .  .. .   .. ...  . .. . ..   . .. .  . . .  . ..   . .. .  . . . .. ..   . .... ..   . . .  ....   . .. . .. . . . .. . ..   . . . .. . .. . . . . .... . . .. .   . . . . . . . . . . . . . .. .. . ",
".....   ...   ..  ..   .  .. ..  .. .   .. .. ... .. .. ...    .. .. .  ... . ... .. .. .. .  ..  . .   . ..    ..  . ...   ... . .   . ...   ..  . .  .. .. .  .. ..  . .  . ...   ..  . .  .. .. .  .  ..   ..  . .  .. .. .  . ..    .. ..    .  . .. .  .. ..   .. .. .  .. . .   . .. .  . .. .  .  ..   .  .. .  .  . .  .  . ..    .. .    .. .  .  ..   .  ..   .  .. .. .  . .. .  . .. .  . .. .  .. ..   .. ..   .. ..   .. .. .  .. . .  .. . .  .. . .  .. . .  .. . .  .. . .  .. . .  .. . ..  . .. .  . .. .  . .. .  . .. .  . .. . .. . .  .. . .  .. . .  .. . .  .. . .  .. . .  .. . .  .. . .  . ..   .. ..   .. ..   .. ..   .... .  . .. .  . .. .  . .. . ..   .  ..   .  ..   . .. .    .. .    . .  .  . .  .  .   .  ..   .  ...  . .. .  . ..   .. . .  ....   .. ..   . .. .  . .... ..   .. . .  . ..   .. . .  . ..   .... .  . . .  .. .   .. ...  . .. . ..   . .. .  . . .  . ..   . .. . .. .   .. . .  .   .. . .  . . .  . .. . . . .. . .... .   .... . .. .   . .... . . .. .   . . . ...... . . . . . . . .... . .. .. ",
"  .....   ... ... ... ... ... ... .. .  ... .. .. ... .. .. .   .  .. .. .. ..  . ... .  .. .  .. .. .  .. .. .. .  .. .. .  .. .. .  .. .. .  .. .. .  .. ..  . .  . ...   ..  . .  .. .. .  .  ..   ... . .  .. .. .  . ...   .. .. .. .  . ...   .. ..    .. . .  .. .. .  . .. .  .  ..   .  ..    .  . .  .  .  .    .. .    ..    .  ..   .  .. .. .  . .. .  . .. .  .. ..   .. ..   .. ..   .. .. .  .. . .  .. . .  .. . .  .. .  .  . .. .  . .. .  . .. .  . .. .  . .. .  . .. .  . .. .  . ..    .  ..   .  ..   .  ..   .  ..   .  ..   . .. .  . .. .  . .. .  . .. .  . .. .  . .. .  . .. .  . .. .  . . .  .. . .  .. . .  .. . .  . ..   .. ..   .. ..   .. ..   . .. .  . .. .  . .. . ..   .  ..   .  . .    .. .    ...  .  . .  .  .   .  ..   .  ...  . .. .  . . .  .. . . .. ..   .. . .  . .. . ..   .. ...  . .. . .. . .  . ..   .... .  . . .  .. .   .. ...  . .. . ..   . .. . .. . . .. ..   . ...  .. .   .... . ..   . .. . .. .   .... .... . . .... . ..   . . . .. . .... . . . . ....   . . ........... ..... . .. . .. .",
".   .....  ...  ..  ..  ..     .. ... ..  .  .. ..     .. .. .  ... .  .. .. .. ..    ... .  .  .. ..  . .  .. .. .  .. .. .  .. .. .  .. .. .  .. ..    .  . ...   ..  . .  .. .. .  .. ..   ... . .  .. .. .  .. ..   ..  . .. .  .. ..   .. .. .  .. . .   . .. .  . ...   .  ..    .  . .  .  . ..    .. .    ...   .  ..   .  .. .. .  . .. .  .  ..   .. ..   .. ..   ... . .  .. . .  .. . .  .. .  .  . .. .  . .. .  . .. .  . ...   .  ..   .  ..   .  ..   .  ..   .  ..   .  ..   .  ..   .  .. .  .  . .  .  . .  .  . .  .  . .  .  . . .  ..   .  ..   .  ..   .  ..   .  ..   .  ..   .  ..   .  ..   . .. .  . .. .  . .. .  . .. .  . . .  .. . .  .. . .  .. . . .. ..   .. ..   .. ..   . .. .  . .. . ..   .  ..   .  . .    .. .    . .  .  . .  .  .   .  ..   . .. .  . .. . .. . .  .. .   .. ..   . .. .  .   .. ..   . .. .  . . .  . ..   .. . .  . . .  .. .   .. ...  . .... ..   . .. . .. .   .. . .  . . .  . ..   . .. . ..   . ...  . ..   . . .. . .. . .   .... . .. .   . . .... . . ...  . .   . . . .   . . . .. .. . ..",
"...   ..... ..  ... ... ... .   ..  .  .. ... .  .. .   .  .. .. .. ... .  .. .. .. .  .. ...   ..  . ...   ... .  .  .  ..    .. .  .  .  ..   ..  . ...   ..  . .  .. .. .  .. ..   ... . .  .. .. .  .. ..   ..  . .. .  .. ..   ... . .  .. .. .  . .. .  .  ..   .   . .  .  . ..    .. .    ..    .  ..   .  .. .. .  . .. .  .. ..   .. ..   ... . .  .. . .  .. . .   . .. .  . .. .  . .. .  . ...   .  ..   .  ..   .  ..   .  .. .  .  . .  .  . .  .  . .  .  . .  .  . .  .  . .  .  . .  .  .. .    .. .    .. .    .. .    .. .    ..   .  . .  .  . .  .  . .  .  . .  .  . .  .  . .  .  . .  .  . . .  ..   .  ..   .  ..   .  ..   . .. .  . .. .  . .. .  . ..   .. . .  .. . .  .. .   .. ..   .. ..   . .. .  . .. .  .   .  ..   .  . .    .. .    . .  .  . .    ..   .  ..   . .. .  . . .  .. . . .. ..   . .. .  . . .. ..   . .. .  . . .  ....   .. . .  . . .  .. .   .. . .  . . .. ..   . ...  .. .   .... .  . . . .. ...  . . .. . .  . . . .. . .. . . . .... . ..   . . . .... . .... . .   . . . . . . . . . . . . .. .. . ",
".....   ...    .  ..  ..  .. .   .. ... .. .  ... .. .  ... .  .. .. .. ...   ... .. .  .. .. ..    ..  . .   . ...   ... . .   . ...   ..  . ..    .. .. .  .. .. .  .. ..   ... . .   . .. .  .. ..    .  . ..    .. ..    .. . .   . .. .  .  ..   .  .. .  .  . .  .  .. .    ..    .  ..   .  .. .. .  . .. .  .. ..   .. ..   ... . .  .. . .  .. .. .  . .. .  . .. .  .  ..   .  ..   .  ..   .  .. .  .  . .  .  . .  .  . .  .  .. .    .. .    .. .    .. .    .. .    .. .    .. .    .. .    ...   .  ..   .  ..   .  ..   .  ..   .  ...    .. .    .. .    .. .    .. .    .. .    .. .    .. .    .. . .  . .  .  . .  .  . .  .  . . .  ..   .  ..   .  ..   .  ...  . .. .  . .. .  . ...  .. . .  .. . . .. ..   .. ..   . .. .  . .. . ..   .  ..   .  . .    .. . .  . .  .  .   .  ..   . .. .  . ..   .. . .  . ..   .. . .  . .... ..   . .. .  . . .  ....   .. . .  . . .  .. .   .. . .  .   .. . .  . . .  . ..   . ..   .. .   .. . .  .   . ..   ....   . .... . .. . .   ....   . .. . . . . . ......   . . . . . . .... . .. .. ",
"  .....   ... ... ... ... ... ... .. .. ... .  .. ... .. .. ... .  .. .. .. .   . ...    .  .. .. .  .. .. .  .. .. .  .. .. .  .. .. .. .  .. .. .  .. .. .  .. ..   ... . .   . .. .  .. ..    .  . ...   .. .. .  .. . ..  . .. .  .  ..   .   . .  .  .  .    .. .     ..   .  .. .. .  . .. .  .. ..   .. ..    .. . .  .. . .   . .. .  . .. .  .  ..   .  ..   .  ..    .  . .  .  . .  .  . .  .  .. .    .. .    .. .    .. .     ..   .  ..   .  ..   .  ..   .  ..   .  ..   .  ..   .  ..   .   . .. .  . .. .  . .. .  . .. .  . .. .  .   .  ..   .  ..   .  ..   .  ..   .  ..   .  ..   .  ..   .  ..     .. .    .. .    .. .    .. . .  . .  .  . .  .  . .  .  .   .  ..   .  ..   .  . .  . .. .  . ..   .. . .  .. . . .. ..   .. ..   . .. .  . .. . ..   .  ..     .. .    ...  .  . .  . ..   .  ...  . .. . .. . .  ....   .. . .  . .... ..   . .. .  . . .  ....   .. . .  . . .  ....   .... .  .   .... .  . . . .. ...  . . .  ....   . .... ...  . . . .. . .. . . . .... . ...  . .   . .... . . . ... ............. . .. . .. .",
".   .....  ...  ..      ..  .  .. ... ..  .  .  ..  .  .. .. .. ...    .. .. .  ..  . ...    .. .. .  .. ..    .. .. .  .. .. .. .  .. .. .  .. .. .  .  ..   ... . .   . .. .  .. ..  . .  . ...   .. .. .  .. .. .  . ..    .  ..    .  . .  .  .. .    ...   .  ..   ..  . .. .  .. ..   .. ..   ... . .  .. . .   . .. .  . .. .  .  ..   .  ..    .  . .  .  . .  .  . ..    .. .    .. .    .. .     ..   .  ..   .  ..   .  ..   .   . .. .  . .. .  . .. .  . .. .  . .. .  . .. .  . .. .  . .. .  .. ..   .. ..   .. ..   .. ..   .. ..   . .. .  . .. .  . .. .  . .. .  . .. .  . .. .  . .. .  . .. .  .   .  ..   .  ..   .  ..   .  ..     .. .    .. .    .. .    . .  .  . .  .  . .  .  .   .  ..   .  ...  . .. .  . .. . .. . .  .. . . .. ..   .. ..   . .. .  . . .  ..   .  . .    .. .    . .  .  .   .  ..   . .. .  . . .  .. .   .. . .  . .. . ..   . .. .  . . .  ....   .... .  . . .  . ..   . .. . ..   . .. . .. .   .. . .  . . . .. . .  .   . .. . .. .   . .... . .. . .   . ...  . . .... . . .   . .   . . . .  . .. . ..",
"...   ..... ... ... ..  ... ... ..     .. ...    .. ... .  .. .. .. .   .  ..  . .  .. .. .   . ...   ... . ..  .  ..    .  .  ..    .. .  .  . ...   ... . .   . .. .  .. ..  . .  . ...   .. .. .  .. .. .  . ...   .  .. .  .  . ..    .. .  .  ..   .  .. .. .  . ..    .. ..   ... . .  .. . .   . .. .  . .. .  .  ..   .  ..    .  . .  .  . .     .. .    .. .    ..    .  ..   .  ..   .  ..   .   . .. .  . .. .  . .. .  . .. .  .. ..   .. ..   .. ..   .. ..   .. ..   .. ..   .. ..   .. ..    .. . .  .. . .  .. . .  .. . .  .. . .  . ..   .. ..   .. ..   .. ..   .. ..   .. ..   .. ..   .. ..   .... .  . .. .  . .. .  . .. .  .   .  ..   .  ..   .  ..   .  . .    .. .    .. .    . .  .  . .  .  .   .  ..   .  ..   . .. .  . ..   .. . .  .. . . .. ..   .. . .  . .. .  .   .  ..     .. .    . .  .  . . .  ..   . .. .  . . .  .. .   .. ...  . .. . ..   . .. .  . . .  . ..   . .. .  . . . .. ..   . .... ..   . . .  ....   . .. . .. .   . .. . ..   . . . .. . .. . . . . .... . . .. .   . . . . . . . . . . . .   .. .. . ",
".....   ...   ..  ..   .  .. ..  .. .   .. .. ... .. .. ...    .. .. .  ..  . ...    .. .. .  ..  . .   . ..    ..  . ...   ... . .   . ...   ..  . .  .. .. .  .. ..  . .  . ...   ..  . .  .. .. .  .  ..   .   . .  .  .. .    ..    .  ..    .  . .. .  .. ..   .. .. .  .. . .   . .. .  . .. .  .  ..   .  .. .  .  . .  .  . ..    .. .    .. .  .  ..   .  ..   .  .. .. .  . .. .  . .. .  . .. .  .. ..   .. ..   .. ..   .. .. .  .. . .  .. . .  .. . .  .. . .  .. . .  .. . .  .. . .  .. . ..  . .. .  . .. .  . .. .  . .. .  . .. . .. . .  .. . .  .. . .  .. . .  .. . .  .. . .  .. . .  .. . .  . ..   .. ..   .. ..   .. ..   .... .  . .. .  . .. .  . .. . ..   .  ..   .  ..   . .. .    .. .    . .  .  . .  .  .   .  ..   .  ...  . .. .  . ..   .. . .  ....   .. ..   . .. .  . ...  ..   .  . .    ..   .  . .    ..   . .. .  . . .  .. .   .. ...  . .. . ..   . .. .  . . .  . ..   . .. . .. .   .. . .  .   .. . .  . . .  . ..   . . .  . ...  .   .... . .. .   . .... . . .. .   . . . ...... . . . .   . . .... . .. .. ",
"  ....    ... ... ... ... ... ... .. .  ... .. .. ... .. .. .   .  .. .. .  ..  . ..  .  .. .  .. .. .  .. .. .. .  .. .. .  .. .. .  .. .. .  .. .. .  .. ..  . .  . ...   ..  . .  .. .. .  .  ..   .   . .  .  .. .    ...   .  .. .. .  . ...   .. ..    .. . .  .. .. .  . .. .  .  ..   .  ..    .  . .  .  .  .    .. .    ..    .  ..   .  .. .. .  . .. .  . .. .  .. ..   .. ..   .. ..   .. .. .  .. . .  .. . .  .. . .  .. .  .  . .. .  . .. .  . .. .  . .. .  . .. .  . .. .  . .. .  . ..    .  ..   .  ..   .  ..   .  ..   .  ..   . .. .  . .. .  . .. .  . .. .  . .. .  . .. .  . .. .  . .. .  . . .  .. . .  .. . .  .. . .  . ..   .. ..   .. ..   .. ..   . .. .  . .. .  . .. . ..   .  ..   .  . .    .. .    ...  .  . .  .  .   .  ..   .  ...  . .. .  . . .  .. . . .. ..   .. . .  . .. . ..   .  ...    .. . .  . .  . ..   . .. .  . . .  .. .   .. ...  . .. . ..   . .. . .. . . .. ..   . ...  .. .   .... . ..   . .. . .. .   .... . .. .   .... . ..   . . . .. . .... . . . . ....   . . ........... ..... . .. . .. .",
".   .. ..  .    ..  ..  ..     .. ... ..  .  .. ..     .. .. .  ..  .  .. .  .. ..    ... .  .  .. ..  . .  .. .. .  .. .. .  .. .. .  .. .. .  .. ..    .  . ...   ..  . .  .. .. .  .  ..   .   . .  .  .. .     ..   .   . .. .  .. ..   .. .. .  .. . .   . .. .  . ...   .  ..    .  . .  .  . ..    .. .    ...   .  ..   .  .. .. .  . .. .  .  ..   .. ..   .. ..   ... . .  .. . .  .. . .  .. .  .  . .. .  . .. .  . .. .  . ...   .  ..   .  ..   .  ..   .  ..   .  ..   .  ..   .  ..   .  .. .  .  . .  .  . .  .  . .  .  . .  .  . . .  ..   .  ..   .  ..   .  ..   .  ..   .  ..   .  ..   .  ..   . .. .  . .. .  . .. .  . .. .  . . .  .. . .  .. . .  .. . . .. ..   .. ..   .. ..   . .. .  . .. . ..   .  ..   .  . .    .. .    . .  .  . .  .  .   .  ..   . .. .  . .. . .. . .  .. .   .. ..   . .. .  .   .  ..     .. .    . .  . ..   .  . .  . . .  .. .   .. ...  . .... ..   . .. . .. .   .. . .  . . .  . ..   . .. . ..   . ...  . ..   . . .  . ..   .   .... . .. .   . . .... . . ...  . .   . . . .   . . . .. .. . ..",
"...   ..... ..  ... ... ... .   ..  .  .. ... .  .. .   .  .. .. .  ... .  .  .. .. .  .. ...   ..  . ...   ... .  .  .  ..    .. .  .  .  ..   ..  . ...   ..  . .  .. .. .  .  ..   ..  . .  .  .. .  .  ..   ..  . .. .  .. ..   ... . .  .. .. .  . .. .  .  ..   .   . .  .  . ..    .. .    ..    .  ..   .  .. .. .  . .. .  .. ..   .. ..   ... . .  .. . .  .. . .   . .. .  . .. .  . .. .  . ...   .  ..   .  ..   .  ..   .  .. .  .  . .  .  . .  .  . .  .  . .  .  . .  .  . .  .  . .  .  .. .    .. .    .. .    .. .    .. .    ..   .  . .  .  . .  .  . .  .  . .  .  . .  .  . .  .  . .  .  . . .  ..   .  ..   .  ..   .  ..   . .. .  . .. .  . .. .  . ..   .. . .  .. . .  .. .   .. ..   .. ..   . .. .  . .. .  .   .  ..   .  . .    .. .    . .  .  . .    ..   .  ..   . .. .  . . .  .. . . .. ..   . .. .  . . .  ..     .. .    . .  . ..   .  . .  . . .  .. .   .. . .  . . .. ..   . ...  .. .   .... .  . . . .. ...  . . .. . .  . . . .. . .  . .   .... . ..   . . . .... . .... . .   . . . . . . . . . .   . .. .. . ",
".....   ...    .  ..  ..  .. .   .. ... .. .  ... .. .  ..  .  .. .  .. ...   ... .. .  .. .. ..    ..  . .   . ...   ... . .   . ...   ..  . ..    .. .. .  .. .. .  .  ..   ..  . .     .. .  .  ..    .  . ..    .. ..    .. . .   . .. .  .  ..   .  .. .  .  . .  .  .. .    ..    .  ..   .  .. .. .  . .. .  .. ..   .. ..   ... . .  .. . .  .. .. .  . .. .  . .. .  .  ..   .  ..   .  ..   .  .. .  .  . .  .  . .  .  . .  .  .. .    .. .    .. .    .. .    .. .    .. .    .. .    .. .    ...   .  ..   .  ..   .  ..   .  ..   .  ...    .. .    .. .    .. .    .. .    .. .    .. .    .. .    .. . .  . .  .  . .  .  . .  .  . . .  ..   .  ..   .  ..   .  ...  . .. .  . .. .  . ...  .. . .  .. . . .. ..   .. ..   . .. .  . .. . ..   .  ..   .  . .    .. . .  . .  .  .   .  ..   . .. .  . ..   .. . .  . ..   .. . .  . ...  ..     .. .    . .  . ..   .  . .  . . .  .. .   .. . .  .   .. . .  . . .  . ..   . ..   .. .   .. . .  .   . ..   ....   . ...  . ..   .   ....   . .. . . . . . ......   . . . . . . .. . . .. .. ",
"  .....   ... ... ... ... ... ... .. .. ... .  .. ... .. .  ... .  .  .. .. .   . ...    .  .. .. .  .. .. .  .. .. .  .. .. .  .. .. .. .  .. .. .  .. .. .  .  ..   ..  . .     .. .  .  ..    .  . ...   .. .. .  .. . ..  . .. .  .  ..   .   . .  .  .  .    .. .     ..   .  .. .. .  . .. .  .. ..   .. ..    .. . .  .. . .   . .. .  . .. .  .  ..   .  ..   .  ..    .  . .  .  . .  .  . .  .  .. .    .. .    .. .    .. .     ..   .  ..   .  ..   .  ..   .  ..   .  ..   .  ..   .  ..   .   . .. .  . .. .  . .. .  . .. .  . .. .  .   .  ..   .  ..   .  ..   .  ..   .  ..   .  ..   .  ..   .  ..     .. .    .. .    .. .    .. . .  . .  .  . .  .  . .  .  .   .  ..   .  ..   .  . .  . .. .  . ..   .. . .  .. . . .. ..   .. ..   . .. .  . .. . ..   .  ..     .. .    ...  .  . .  . ..   .  ...  . .. . .. . .  ....   .. . .  . ...  ..   . .. .    . .  . ..   .  . .  . . .  ....   .... .  .   .... .  . . . .. ...  . . .  ....   . .... ...  . . . .. . .  . .   .... . ...  . .   . .... . . . ... ............. . .. . .. .",
".   .....  ...  ..      ..  .  .. ... ..  .  .  ..  .  .. .  .. ...    .. .. .  ..  . ...    .. .. .  .. ..    .. .. .  .. .. .. .  .. .. .  .. .. .  .  ..   ..  . .     .. .  .  ..  . .  . ...   .. .. .  .. .. .  . ..    .  ..    .  . .  .  .. .    ...   .  ..   ..  . .. .  .. ..   .. ..   ... . .  .. . .   . .. .  . .. .  .  ..   .  ..    .  . .  .  . .  .  . ..    .. .    .. .    .. .     ..   .  ..   .  ..   .  ..   .   . .. .  . .. .  . .. .  . .. .  . .. .  . .. .  . .. .  . .. .  .  ..   .  ..   .  ..   .  ..   .  ..   . .. .  . .. .  . .. .  . .. .  . .. .  . .. .  . .. .  . .. .  .   .  ..   .  ..   .  ..   .  ..     .. .    .. .    .. .    . .  .  . .  .  . .  .  .   .  ..   .  ...  . .. .  . .. . .. . .  .. . . .. ..   .. ..   . .. .  . . .  ..   .  . .    .. .    . .  .  .   .  ..   . .. .  . . .  .. .   .. . .  . ..   ..   . .. .    . .  . ..   . .. .  . . .  . ..   . .. . ..   . .. . .. .   .. . .  . . . .. . .  .   . .. . .. .   . ...  . ..   .   . ...  . . .... . . .   . .   . . . .  . .. .  .",
"...   ..... ... ... ..  ... ... ..     .. ...    .  ... .  .  .. .. .   .  ..  . .  .. .. .   . ...   ... . ..  .  ..    .  .  ..    .. .  .  . ...   .   . .     .. .  .  ..  . .  . ...   .. .. .  .. .. .  . ...   .  .. .  .  . ..    .. .  .  ..   .  .. .. .  . ..    .. ..   ... . .  .. . .   . .. .  . .. .  .  ..   .  ..    .  . .  .  . .     .. .    .. .    ..    .  ..   .  ..   .  ..   .   . .. .  . .. .  . .. .  . .. .  .  ..   .  ..   .  ..   .  ..   .  ..   .  ..   .  ..   .  ..    .  . .  .  . .  .  . .  .  . .  .  . .    ..   .  ..   .  ..   .  ..   .  ..   .  ..   .  ..   .  ..   . .. .  . .. .  . .. .  . .. .  .   .  ..   .  ..   .  ..   .  . .    .. .    .. .    . .  .  . .  .  .   .  ..   .  ..   . .. .  . ..   .. . .  .. . . .. ..   .. . .  . .. .  .   .  ..     .. .    . .  .  . . .  ..   . .. .  . . .  .. .   .. ...  . ..   ..   . .. .    . .  . ..   . .. .  . . . .. ..   . .... ..   . . .  ....   . .. . .. .   . .. . ..   . . . .. . .  . .   . .... . . .. .   . . . . . . . . . . . .   .. ..   ",
".....   ...   ..  ..   .  .. ..  .. .   .. .. ...    .. ...    .. .. .  ..  . ...    .. .. .  ..  . .   . ..    ..  . ...   ... . .   . ...   .   . .  .  .. .  .  ..  . .  . ...   ..  . .  .. .. .  .  ..   .   . .  .  .. .    ..    .  ..    .  . .. .  .. ..   .. .. .  .. . .   . .. .  . .. .  .  ..   .  .. .  .  . .  .  . ..    .. .    .. .  .  ..   .  ..   .  .. .. .  . .. .  . .. .  . .. .  .  ..   .  ..   .  ..   .  .. .  .  . .  .  . .  .  . .  .  . .  .  . .  .  . .  .  . .  .  . ..    .. .    .. .    .. .    .. .    .. . .  . .  .  . .  .  . .  .  . .  .  . .  .  . .  .  . .  .  . .  . ..   .  ..   .  ..   .  ..   . .. .  . .. .  . .. .  . .. . ..   .  ..   .  ..   . .. .    .. .    . .  .  . .  .  .   .  ..   .  ...  . .. .  . ..   .. . .  ....   .. ..   . .. .  . ...  ..   .  . .    ..   .  . .    ..   . .. .  . . .  .. .   .. ...  . ..   ..   . .. .    . .    ..   . .. . .. .   .. . .  .   .. . .  . . .  . ..   . . .  . ...  .   .... . .. .   . ...  . . .  .   . . . ...... . . . .   . . .... . .. .. ",
"  ..      ... ... ... ... ... ... .. .  ..  .. .. ..  .. .. .   .  .. .. .  ..  . ..  .  .. .  .. .. .  .. .. .. .  .. .. .  .. .. .  .  .. .  .  .. .  .  ..  . .  . ...   ..  . .  .. .. .  .  ..   .   . .  .  .. .    ...   .  .. .. .  . ...   .. ..    .. . .  .. .. .  . .. .  .  ..   .  ..    .  . .  .  .  .    .. .    ..    .  ..   .  .. .. .  . .. .  . .. .  .  ..   .  ..   .  ..   .  .. .  .  . .  .  . .  .  . .  .  .  .    .. .    .. .    .. .    .. .    .. .    .. .    .. .    ..    .  ..   .  ..   .  ..   .  ..   .  ..     .. .    .. .    .. .    .. .    .. .    .. .    .. .    .. .    . .  .  . .  .  . .  .  . .  . ..   .  ..   .  ..   .  ..   . .. .  . .. .  . .. . ..   .  ..   .  . .    .. .    ...  .  . .  .  .   .  ..   .  ...  . .. .  . . .  .. . . .. ..   .. . .  . .. . ..   .  ...    .. . .  . .  . ..   . .. .  . . .  .. .   .. ...  . ..   ..     .. . .  . . .  ..   . ...  .. .   .... . ..   . .. . .. .   .... . .. .   .... . ..   . . . .. . . .. .   . . ....   . . ........... ..... . .. . .. .",
".   .. ..  .    ..  ..  ..     .. ... ..     .. ..     .. .. .  ..  .  .. .  .. ..    ... .  .  .. ..  . .  .. .. .  .. .. .  .  .. .  .  .. .     ..    .  . ...   ..  . .  .. .. .  .  ..   .   . .  .  .. .     ..   .   . .. .  .. ..   .. .. .  .. . .   . .. .  . ...   .  ..    .  . .  .  . ..    .. .    ...   .  ..   .  .. .. .  . .. .  .  ..   .  ..   .  ..   ..  . .  .  . .  .  . .  .  .  .    .. .    .. .    .. .    ...   .  ..   .  ..   .  ..   .  ..   .  ..   .  ..   .  ..   .  .. .  .  . .  .  . .  .  . .  .  . .  .  . . .  ..   .  ..   .  ..   .  ..   .  ..   .  ..   .  ..   .  ..     .. .    .. .    .. .    .. .    . .  .  . .  .  . .  .  . . .  ..   .  ..   .  ..   . .. .  . .. . ..   .  ..   .  . .    .. .    . .  .  . .  .  .   .  ..   . .. .  . .. . .. . .  .. .   .. ..   . .. .  .   .  ..     .. .    . .  . ..   .  . .  . . .  .. .   .. ...  . ...  ..     .. . .  .   .  . .  . . .  . ..   . .. . ..   . ...  . ..   . . .  . ..   .   .... . .. .   . . . .. . . ...  . .   . . . .   . . . .. ..   ..",
"...   ..... ..  ... ... ... .   ..  .  .. .   .  .. .   .  .. .. .  ... .  .  .. .. .  .. ...   ..  . ...   ... .  .  .  ..    .  .  .     ..   ..  . ...   ..  . .  .. .. .  .  ..   ..  . .  .  .. .  .  ..   ..  . .. .  .. ..   ... . .  .. .. .  . .. .  .  ..   .   . .  .  . ..    .. .    ..    .  ..   .  .. .. .  . .. .  .  ..   .  ..   .   . .  .  . .  .  . .     .. .    .. .    .. .    ...   .  ..   .  ..   .  ..   .  .. .  .  . .  .  . .  .  . .  .  . .  .  . .  .  . .  .  . .  .  .. .    .. .    .. .    .. .    .. .    ..   .  . .  .  . .  .  . .  .  . .  .  . .  .  . .  .  . .  .  . . .  ..   .  ..   .  ..   .  ..     .. .    .. .    .. .    ..   .  . .  .  . .  .  .   .  ..   .  ..   . .. .  . .. .  .   .  ..   .  . .    .. .    . .  .  . .    ..   .  ..   . .. .  . . .  .. . . .. ..   . .. .  . . .  ..     .. .    . .  . ..   .  . .  . . .  .. .   .. . .  . . .  ..     ...  .  .   . .. .  . . . .. ...  . . .. . .  . . . .. . .  . .   .... . ..   . . . .... . ....   .   . . . . . . . . . .   . .. .. . ",
".....   ...    .  ..  ..  .. .   .  ... .. .  ... .. .  ..  .  .. .  .. ...   ... .. .  .. .. ..    ..  . .   . ...   .   . .     ...   .   . ..    .. .. .  .. .. .  .  ..   ..  . .     .. .  .  ..    .  . ..    .. ..    .. . .   . .. .  .  ..   .  .. .  .  . .  .  .. .    ..    .  ..   .  .. .. .  . .. .  .  ..   .  ..   ..  . .  .  . .  .  .. .    .. .    .. .  .  ..   .  ..   .  ..   .  .. .  .  . .  .  . .  .  . .  .  .. .    .. .    .. .    .. .    .. .    .. .    .. .    .. .    ...   .  ..   .  ..   .  ..   .  ..   .  ...    .. .    .. .    .. .    .. .    .. .    .. .    .. .    .. . .  . .  .  . .  .  . .  .  . . .  ..   .  ..   .  ..   .  ...    .. .    .. .    ...  .  . .  .  . . .  ..   .  ..   . .. .  . .. . ..   .  ..   .  . .    .. . .  . .  .  .   .  ..   . .. .  . ..   .. . .  . ..   .. . .  . ...  ..     .. .    . .  . ..   .  . .  . . .  .. .   .. . .  .   .  . .    . .  . ..   . ..   .. .   .. . .  .   . ..   ....   . ...  . ..   .   ....   . ..   . .   . ......   . . . . . . .. . . ..  . ",
"  .....   ... ... ... ... ... ...    .. ... .  .. ... .. .  ... .  .  .. .. .   . ...    .  .. .. .  .. .. .  .  .. .  .  .. .  .  .. .. .  .. .. .  .. .. .  .  ..   ..  . .     .. .  .  ..    .  . ...   .. .. .  .. . ..  . .. .  .  ..   .   . .  .  .  .    .. .     ..   .  .. .. .  . .. .  .  ..   .  ..    .  . .  .  . .     .. .    .. .  .  ..   .  ..   .  ..    .  . .  .  . .  .  . .  .  .. .    .. .    .. .    .. .     ..   .  ..   .  ..   .  ..   .  ..   .  ..   .  ..   .  ..   .     .. .    .. .    .. .    .. .    .. .      .  ..   .  ..   .  ..   .  ..   .  ..   .  ..   .  ..   .  ..     .. .    .. .    .. .    .. . .  . .  .  . .  .  . .  .  .   .  ..   .  ..   .  . .    .. .    ..   .  . .  .  . . .  ..   .  ..   . .. .  . .. . ..   .  ..     .. .    ...  .  . .  . ..   .  ...  . .. . .. . .  ....   .. . .  . ...  ..   . .. .    . .  . ..   .  . .  . . .  ....   .... .  .   . .. .    . . .  ...  . . .  ....   . .... ...  . . . .. . .  . .   .... . ...  . .   . ...  . . . ... ............. . .. . .. .",
".   .....  ...  ..      ..  .  .. ..  ..  .  .  ..  .  .. .  .. ...    .. .. .  ..  . ...    .. .. .  .  ..    .  .. .  .  .. .. .  .. .. .  .. .. .  .  ..   ..  . .     .. .  .  ..  . .  . ...   .. .. .  .. .. .  . ..    .  ..    .  . .  .  .. .    ...   .  ..   ..  . .. .  .  ..   .  ..   ..  . .  .  . .     .. .    .. .  .  ..   .  ..    .  . .  .  . .  .  . ..    .. .    .. .    .. .     ..   .  ..   .  ..   .  ..   .     .. .    .. .    .. .    .. .    .. .    .. .    .. .    .. .  .  ..   .  ..   .  ..   .  ..   .  ..   . .. .    .. .    .. .    .. .    .. .    .. .    .. .    .. .      .  ..   .  ..   .  ..   .  ..     .. .    .. .    .. .    . .  .  . .  .  . .  .  .   .  ..   .  ...    .. .    .. . .  . .  .  . . .  ..   .  ..   . .. .  . . .  ..   .  . .    .. .    . .  .  .   .  ..   . .. .  . . .  .. .   .. . .  . ..   ..   . .. .    . .  . ..   . .. .  . . .  . ..   . .. . ..     .. . .  .   .  . .  . . . .. . .  .   . .. . .. .   . ...  . ..   .   . ...  . . . .. .   .   . .   . . . .  . .. .  .",
"...   ..... ... ... ..  ..  ... ..     .. ...    .  ... .  .  .. .. .   .  ..  . .  .. .. .   . ...   ..  . ..     ..    .  .  ..    .. .  .  . ...   .   . .     .. .  .  ..  . .  . ...   .. .. .  .. .. .  . ...   .  .. .  .  . ..    .. .  .  ..   .  .. .. .  . ..    .  ..   ..  . .  .  . .     .. .    .. .  .  ..   .  ..    .  . .  .  . .     .. .    .. .    ..    .  ..   .  ..   .  ..   .     .. .    .. .    .. .    .. .  .  ..   .  ..   .  ..   .  ..   .  ..   .  ..   .  ..   .  ..    .  . .  .  . .  .  . .  .  . .  .  . .    ..   .  ..   .  ..   .  ..   .  ..   .  ..   .  ..   .  ..   . .. .    .. .    .. .    .. .      .  ..   .  ..   .  ..   .  . .    .. .    .. .    . .  .  . .  .  .   .  ..   .  ..     .. .    ..   .  . .  .  . . .  ..   .  . .  . .. .  .   .  ..     .. .    . .  .  . . .  ..   . .. .  . . .  .. .   .. ...  . ..   ..   . .. .    . .  . ..   . .. .  . . . .. ..   . ...  ..     . .  . ..   . .. . .. .   . .. . ..   . . . .. . .  . .   . .... . . .. .   . .   . . . . . . . . .   .. ..   ",
".....   ...   ..  ..   .     ..  .. .   .. .. ...    .. ...    .. .. .  ..  . ...    .. .. .  .   . .     ..    .   . ...   ... . .   . ...   .   . .  .  .. .  .  ..  . .  . ...   ..  . .  .. .. .  .  ..   .   . .  .  .. .    ..    .  ..    .  . .. .  .  ..   .  .. .  .  . .     .. .    .. .  .  ..   .  .. .  .  . .  .  . ..    .. .    .. .  .  ..   .  ..   .  .. .. .    .. .    .. .    .. .  .  ..   .  ..   .  ..   .  .. .  .  . .  .  . .  .  . .  .  . .  .  . .  .  . .  .  . .  .  . ..    .. .    .. .    .. .    .. .    .. . .  . .  .  . .  .  . .  .  . .  .  . .  .  . .  .  . .  .  . .  . ..   .  ..   .  ..   .  ..   . .. .    .. .    .. .    .. . ..   .  ..   .  ..   . .. .    .. .    . .  .  . .  .  .   .  ..   .  ...    .. .    ..   .  . .  . ..   .  ..   . .. .  . ...  ..   .  . .    ..   .  . .    ..   . .. .  . . .  .. .   .. ...  . ..   ..   . .. .    . .    ..   . .. . .. .   .. . .  .   .  . .    . .    ..   . . .  . ...  .   .... . .. .   . ...  . . .  .   . . . .....  . . . .   . . .... . .. .. ",
"  ..      ... ... ... ... ..  ... .. .  ..  .. .. ..  .. .. .   .  .. .. .  ..  . ..  .  .. .  .  .. .  .  .. .. .  .. .. .  .. .. .  .  .. .  .  .. .  .  ..  . .  . ...   ..  . .  .. .. .  .  ..   .   . .  .  .. .    ...   .  .. .. .  . ...   .  ..    .  . .  .  .. .    .. .  .  ..   .  ..    .  . .  .  .  .    .. .    ..    .  ..   .  .. .. .    .. .    .. .     ..   .  ..   .  ..   .  .. .  .  . .  .  . .  .  . .  .  .  .    .. .    .. .    .. .    .. .    .. .    .. .    .. .    ..    .  ..   .  ..   .  ..   .  ..   .  ..     .. .    .. .    .. .    .. .    .. .    .. .    .. .    .. .    . .  .  . .  .  . .  .  . .  . ..   .  ..   .  ..   .  ..     .. .    .. .    .. . ..   .  ..   .  . .    .. .    ...  .  . .  .  .   .  ..   .  ...    .. .    . .  .  . . .  ..   .  . .  . .. . ..   .  ...    .. . .  . .  . ..   . .. .  . . .  .. .   .. ...  . ..   ..     .. . .  . . .  ..   . ...  .. .   .... . ..   . .. . .  .   . .. . .. .   .... . ..   . . . .. . . .. .   . . ....   . . . ..... ... ..... . .. . .. .",
".   .. ..  .    ..  ..  ..     .. ... ..     .. ..     .. .. .  ..  .  .. .  .. ..    .   .  .     ..  . .  .. .. .  .. .. .  .  .. .  .  .. .     ..    .  . ...   ..  . .  .. .. .  .  ..   .   . .  .  .. .     ..   .   . .. .  .  ..   .  .. .  .  . .     .. .    ...   .  ..    .  . .  .  . ..    .. .    ...   .  ..   .  .. .. .    .. .     ..   .  ..   .  ..   ..  . .  .  . .  .  . .  .  .  .    .. .    .. .    .. .    ...   .  ..   .  ..   .  ..   .  ..   .  ..   .  ..   .  ..   .  .. .  .  . .  .  . .  .  . .  .  . .  .  . . .  ..   .  ..   .  ..   .  ..   .  ..   .  ..   .  ..   .  ..     .. .    .. .    .. .    .. .    . .  .  . .  .  . .  .  . . .  ..   .  ..   .  ..     .. .    .. . ..   .  ..   .  . .    .. .    . .  .  . .  .  .   .  ..   . .. .    .. . .  . .  .  .   .  ..   . .. .  .   .  ..     .. .    . .  . ..   .  . .  . . .  .. .   .. ...  . ...  ..     .. . .  .   .  . .  . . .  . ..   . ..   ..     ...  . ..   . . .  . ..   .   .... . .. .   . . . .. . . ...  . .   . .   .   . . . .. ..   ..",
"...   ..... ..  ..  ... ... .   ..  .  .. .   .  .. .   .  .. .. .  ... .  .  .  .. .  .  ...   ..  . ...   ... .  .  .  ..    .  .  .     ..   ..  . ...   ..  . .  .. .. .  .  ..   ..  . .  .  .. .  .  ..   ..  . .. .  .  ..   ..  . .  .  .. .    .. .  .  ..   .   . .  .  . ..    .. .    ..    .  ..   .  .  .. .    .. .     ..   .  ..   .   . .  .  . .  .  . .     .. .    .. .    .. .    ...   .  ..   .  ..   .  ..   .  .. .  .  . .  .  . .  .  . .  .  . .  .  . .  .  . .  .  . .  .  .. .    .. .    .. .    .. .    .. .    ..   .  . .  .  . .  .  . .  .  . .  .  . .  .  . .  .  . .  .  . . .  ..   .  ..   .  ..   .  ..     .. .    .. .    .. .    ..   .  . .  .  . .  .  .   .  ..   .  ..     .. .    .. .  .   .  ..   .  . .    .. .    . .  .  . .    ..   .  ..     .. .    . .  .  . . .  ..   . .. .  . . .  ..     .. .    . .  . ..   .  . .  . . .  .. .   .. . .  . . .  ..     ...  .  .   . .. .  . . . .. ...  . . .  . .    . . .  . .  . .   .... . ..   . . . .... . ....   .   . . . . . . . . . .   . .. .. . ",
".....   ...    .      ..  .. .   .  ... .. .  ... .. .  ..  .  .. .  .. ...   ..  .. .  .  .. ..    ..  . .   . ...   .   . .     ...   .   . ..    .. .. .  .. .. .  .  ..   ..  . .     .. .  .  ..    .  . ..    .  ..    .  . .     .. .     ..   .  .. .  .  . .  .  .. .    ..    .  ..   .  .. .. .    .. .  .  ..   .  ..   ..  . .  .  . .  .  .. .    .. .    .. .  .  ..   .  ..   .  ..   .  .. .  .  . .  .  . .  .  . .  .  .. .    .. .    .. .    .. .    .. .    .. .    .. .    .. .    ...   .  ..   .  ..   .  ..   .  ..   .  ...    .. .    .. .    .. .    .. .    .. .    .. .    .. .    .. . .  . .  .  . .  .  . .  .  . . .  ..   .  ..   .  ..   .  ...    .. .    .. .    ...  .  . .  .  . . .  ..   .  ..     .. .    .. . ..   .  ..   .  . .    .. . .  . .  .  .   .  ..   . .. .    ..   .  . .    ..   .  . .  . ...  ..     .. .    . .  . ..   .  . .  . . .  .. .   .. . .  .   .  . .    . .  . ..   . ..   .. .   .. . .  .     ..   . ..   . ...  . ..   .   ....   . ..   . .   . ......   . .   . . . .. . . ..  . ",
"  .....   ... ... ..  ... ... ...    .. ... .  .. ... .. .  ... .  .  .  .. .     ...    .  .. .. .  .. .. .  .  .. .  .  .. .  .  .. .. .  .. .. .  .. .. .  .  ..   ..  . .     .. .  .  ..    .  . ...   .  .. .  .  . ..    .. .  .  ..   .   . .  .  .  .    .. .     ..   .  .. .. .    .. .     ..   .  ..    .  . .  .  . .     .. .    .. .  .  ..   .  ..   .  ..    .  . .  .  . .  .  . .  .  .. .    .. .    .. .    .. .     ..   .  ..   .  ..   .  ..   .  ..   .  ..   .  ..   .  ..   .     .. .    .. .    .. .    .. .    .. .      .  ..   .  ..   .  ..   .  ..   .  ..   .  ..   .  ..   .  ..     .. .    .. .    .. .    .. . .  . .  .  . .  .  . .  .  .   .  ..   .  ..   .  . .    .. .    ..   .  . .  .  . . .  ..   .  ..     .. .    .. . ..   .  ..     .. .    ...  .  . .  . ..   .  ...    .. . .  . .  . ..   .  . .  . ...  ..   . .. .    . .  . ..   .  . .  . . .  ....   .... .  .   . .. .    . . .  ...  . . .  ....   . ...  ...    . . .  . .  . .   .... . ...  . .   . ...  . . . ... ..... ..... . . .. . .. .",
".   .....  ...  ..      ..  .  .. ..  ..  .  .  ..  .  .. .  .. ...    .  .. .  .   . ...    .. .. .  .  ..    .  .. .  .  .. .. .  .. .. .  .. .. .  .  ..   ..  . .     .. .  .  ..  . .  . ...   .  .. .  .  .. .    ..    .  ..    .  . .  .  .. .    ...   .  ..   ..    .. .     ..   .  ..   ..  . .  .  . .     .. .    .. .  .  ..   .  ..    .  . .  .  . .  .  . ..    .. .    .. .    .. .     ..   .  ..   .  ..   .  ..   .     .. .    .. .    .. .    .. .    .. .    .. .    .. .    .. .  .  ..   .  ..   .  ..   .  ..   .  ..   . .. .    .. .    .. .    .. .    .. .    .. .    .. .    .. .      .  ..   .  ..   .  ..   .  ..     .. .    .. .    .. .    . .  .  . .  .  . .  .  .   .  ..   .  ...    .. .    .. . .  . .  .  . . .  ..   .  ..     .. .    . .  ..   .  . .    .. .    . .  .  .   .  ..     .. .    . .  .  .   .  . .  . ..   ..   . .. .    . .  . ..   . .. .  . . .  . ..   . .. . ..     .. . .  .   .  . .  . . . .. . .  .   . .. . .  .   . ...  . ..   .   . ...  . . . .. .   .   . .   . .   .  . .. .  .",
"...   ....  ... ... ..  ..  ... ..     .. ...    .  ... .  .  .  .. .      ..  . .  .. .. .   . ...   ..  . ..     ..    .  .  ..    .. .  .  . ...   .   . .     .. .  .  ..  . .  . ...   .  .. .  .  .. .    ...   .  .. .  .  . ..    .. .  .  ..   .  .  .. .    ..    .  ..   ..  . .  .  . .     .. .    .. .  .  ..   .  ..    .  . .  .  . .     .. .    .. .    ..    .  ..   .  ..   .  ..   .     .. .    .. .    .. .    .. .  .  ..   .  ..   .  ..   .  ..   .  ..   .  ..   .  ..   .  ..    .  . .  .  . .  .  . .  .  . .  .  . .    ..   .  ..   .  ..   .  ..   .  ..   .  ..   .  ..   .  ..   . .. .    .. .    .. .    .. .      .  ..   .  ..   .  ..   .  . .    .. .    .. .    . .  .  . .  .  .   .  ..   .  ..     .. .    ..   .  . .  .  . . .  ..   .  . .    .. .  .   .  ..     .. .    . .  .  . . .  ..   . .. .    . .  .  .   .  ...  . ..   ..   . .. .    . .  . ..   . .. .  . . . .. ..   . ...  ..     . .  . ..   . .. . .. .   . ..   ..     . . .  . .  . .   . .... . . .. .   . .   . . . . . . . . .   .. ..   ",
".....   ..    ..  ..   .     ..  .. .   .. .. ...    .. ...    .  .. .  .   . ...    .. .. .  .   . .     ..    .   . ...   ... . .   . ...   .   . .  .  .. .  .  ..  . .  . ...   .   . .  .  .. .     ..   .   . .  .  .. .    ..    .  ..    .    .. .  .  ..   .  .. .  .  . .     .. .    .. .  .  ..   .  .. .  .  . .  .  . ..    .. .    .. .  .  ..   .  ..   .  .. .. .    .. .    .. .    .. .  .  ..   .  ..   .  ..   .  .. .  .  . .  .  . .  .  . .  .  . .  .  . .  .  . .  .  . .  .  . ..    .. .    .. .    .. .    .. .    .. . .  . .  .  . .  .  . .  .  . .  .  . .  .  . .  .  . .  .  . .  . ..   .  ..   .  ..   .  ..   . .. .    .. .    .. .    .. . ..   .  ..   .  ..   . .. .    .. .    . .  .  . .  .  .   .  ..   .  ...    .. .    ..   .  . .  . ..   .  ..     .. .    ...  ..   .  . .    ..   .  . .    ..   . .. .    . .  .  .   .  ...  . ..   ..   . .. .    . .    ..   . .. . .. .   .. . .  .   .  . .    . .    ..   . . .  . ...  .   . .. . .  .   . ...  . . .  .   . . . .....  . . . .   . .  ... . .. .. ",
"  ..      .   ... ... ... ..  ... .. .  ..  .. .. ..  .  .. .      .. .. .  ..  . ..  .  .. .  .  .. .  .  .. .. .  .. .. .  .. .. .  .  .. .  .  .. .  .  ..  . .  . ...   .   . .  .  .. .     ..   .   . .  .  .. .    ...   .  .. .. .    ...   .  ..    .  . .  .  .. .    .. .  .  ..   .  ..    .  . .  .  .  .    .. .    ..    .  ..   .  .. .. .    .. .    .. .     ..   .  ..   .  ..   .  .. .  .  . .  .  . .  .  . .  .  .  .    .. .    .. .    .. .    .. .    .. .    .. .    .. .    ..    .  ..   .  ..   .  ..   .  ..   .  ..     .. .    .. .    .. .    .. .    .. .    .. .    .. .    .. .    . .  .  . .  .  . .  .  . .  . ..   .  ..   .  ..   .  ..     .. .    .. .    .. . ..   .  ..   .  . .    .. .    ...  .  . .  .  .   .  ..   .  ...    .. .    . .  .  . . .  ..   .  . .    .. . ..   .  ...    .. . .  . .  . ..   . .. .    . .  .  .   .  ...  . ..   ..     .. . .  . . .  ..   . ...  .. .   .... . ..   . .. . .  .   . .. . .. .   .... . ..     . . .  . . .. .   . . ....   . . . ..... ... ..... . .. . .. .",
".   .. ..  .    ..  ..  ..     .. ... ..     .. ..     .  .. .  .   .  .. .  .. ..    .   .  .     ..  . .  .. .. .  .. .. .  .  .. .  .  .. .     ..    .  . ...   .   . .  .  .. .     ..   .   . .  .  .. .     ..   .     .. .     ..   .  .. .  .  . .     .. .    ...   .  ..    .  . .  .  . ..    .. .    ...   .  ..   .  .. .. .    .. .     ..   .  ..   .  ..   ..  . .  .  . .  .  . .  .  .  .    .. .    .. .    .. .    ...   .  ..   .  ..   .  ..   .  ..   .  ..   .  ..   .  ..   .  .. .  .  . .  .  . .  .  . .  .  . .  .  . . .  ..   .  ..   .  ..   .  ..   .  ..   .  ..   .  ..   .  ..     .. .    .. .    .. .    .. .    . .  .  . .  .  . .  .  . . .  ..   .  ..   .  ..     .. .    .. . ..   .  ..   .  . .    .. .    . .  .  . .  .  .   .  ..   . .. .    .. . .  . .  .  .   .  ..     .. .      .  ..     .. .    . .  . ..   .  . .    . .  .  .   .  ...  . ...  ..     .. . .  .   .  . .  . . .  . ..   . ..   ..     ...  . ..   . . .  . ..   .   . .. . .  .   . . . .. . . ...  . .   . .   .   . .   .. ..   ..",
"...   ..... ..  ..  ... ... .   ..  .  .. .   .  .. .      .. .. .  ... .  .  .  .. .  .  ...   ..  . ...   ... .  .  .  ..    .  .  .     ..   ..  . ...   .   . .  .  .. .     ..   ..  . .  .  .. .  .  ..   ..    .. .  .  ..   ..  . .  .  .. .    .. .  .  ..   .   . .  .  . ..    .. .    ..    .  ..   .  .  .. .    .. .     ..   .  ..   .   . .  .  . .  .  . .     .. .    .. .    .. .    ...   .  ..   .  ..   .  ..   .  .. .  .  . .  .  . .  .  . .  .  . .  .  . .  .  . .  .  . .  .  .. .    .. .    .. .    .. .    .. .    ..   .  . .  .  . .  .  . .  .  . .  .  . .  .  . .  .  . .  .  . . .  ..   .  ..   .  ..   .  ..     .. .    .. .    .. .    ..   .  . .  .  . .  .  .   .  ..   .  ..     .. .    .. .  .   .  ..   .  . .    .. .    . .  .  . .    ..   .  ..     .. .    . .  .  . . .  ..   . .. .    . .  ..     .. .    . .  . ..   .  . .    . .  .  .   .  . .  . . .  ..     ...  .  .   . .. .  . . . .. ...  . . .  . .    . . .  . .  . .   .... . ..     . . . .. . ....   .   . . . . . . . . . .   . .. .. . ",
".....   ...    .      ..  .. .   .  ... .. .  .   .. .  .   .  .. .  .. ...   ..  .. .  .  .. ..    ..  . .   . ...   .   . .     ...   .   . ..    .  .. .  .  .. .     ..   ..  . .     .. .  .  ..    .    ..    .  ..    .  . .     .. .     ..   .  .. .  .  . .  .  .. .    ..    .  ..   .  .. .. .    .. .  .  ..   .  ..   ..  . .  .  . .  .  .. .    .. .    .. .  .  ..   .  ..   .  ..   .  .. .  .  . .  .  . .  .  . .  .  .. .    .. .    .. .    .. .    .. .    .. .    .. .    .. .    ...   .  ..   .  ..   .  ..   .  ..   .  ...    .. .    .. .    .. .    .. .    .. .    .. .    .. .    .. . .  . .  .  . .  .  . .  .  . . .  ..   .  ..   .  ..   .  ...    .. .    .. .    ...  .  . .  .  . . .  ..   .  ..     .. .    .. . ..   .  ..   .  . .    .. . .  . .  .  .   .  ..   . .. .    ..   .  . .    ..   .  . .    ...  ..     .. .    . .  . ..   .  . .    . .  .  .   .  . .  .   .  . .    . .  . ..   . ..   .. .   .. . .  .     ..   . ..   . ...  . ..   .   . ..   . ..   . .   . ......   . .   . . . .. . .  .  . ",
"  .....   ... ... ..  ... ... ...    .. ... .  .  ... .. .  ... .  .  .  .. .     ...    .  .. .. .  .. .. .  .  .. .  .  .. .  .  .. .. .  .  .. .  .  .. .     ..   ..  . .     .. .  .  ..    .    ...   .  .. .  .  . ..    .. .  .  ..   .   . .  .  .  .    .. .     ..   .  .. .. .    .. .     ..   .  ..    .  . .  .  . .     .. .    .. .  .  ..   .  ..   .  ..    .  . .  .  . .  .  . .  .  .. .    .. .    .. .    .. .     ..   .  ..   .  ..   .  ..   .  ..   .  ..   .  ..   .  ..   .     .. .    .. .    .. .    .. .    .. .      .  ..   .  ..   .  ..   .  ..   .  ..   .  ..   .  ..   .  ..     .. .    .. .    .. .    .. . .  . .  .  . .  .  . .  .  .   .  ..   .  ..   .  . .    .. .    ..   .  . .  .  . . .  ..   .  ..     .. .    .. . ..   .  ..     .. .    ...  .  . .  . ..   .  ...    .. . .  . .  . ..   .  . .    ...  ..   . .. .    . .  . ..   .  . .    . .  . ..   . .. .  .   . .. .    . . .  ...  . . .  ....   . ...  ...    . . .  . .  . .   .... . ...    .   . ...  . . . ... ..... ..... . . ..   .. .",
".   .....  ...  ..      ..  .  .. ..  .   .  .  .   .  .. .  .. ...    .  .. .  .   . ...    .. .. .  .  ..    .  .. .  .  .. .. .  .  .. .  .  .. .     ..   ..  . .     .. .  .  ..  . .    ...   .  .. .  .  .. .    ..    .  ..    .  . .  .  .. .    ...   .  ..   ..    .. .     ..   .  ..   ..  . .  .  . .     .. .    .. .  .  ..   .  ..    .  . .  .  . .  .  . ..    .. .    .. .    .. .     ..   .  ..   .  ..   .  ..   .     .. .    .. .    .. .    .. .    .. .    .. .    .. .    .. .  .  ..   .  ..   .  ..   .  ..   .  ..   . .. .    .. .    .. .    .. .    .. .    .. .    .. .    .. .      .  ..   .  ..   .  ..   .  ..     .. .    .. .    .. .    . .  .  . .  .  . .  .  .   .  ..   .  ...    .. .    .. . .  . .  .  . . .  ..   .  ..     .. .    . .  ..   .  . .    .. .    . .  .  .   .  ..     .. .    . .  .  .   .  . .    ..   ..   . .. .    . .  . ..   . .. .    . .  . ..   . .. . ..     .. . .  .   .  . .  . . . .. . .  .   . .. . .  .   . ...  . ..   .     ...    . . .. .   .   . .   . .   .  . .. .  .",
"..    ....  ... ... ..  ..  ... ..     .  ...    .  ... .  .  .  .. .      ..  . .  .. .. .   . ...   ..  . ..     ..    .  .  ..    .  .  .    ...   .   . .     .. .  .  ..  . .    ...   .  .. .  .  .. .    ...   .  .. .  .  . ..    .. .  .  ..   .  .  .. .    ..    .  ..   ..  . .  .  . .     .. .    .. .  .  ..   .  ..    .  . .  .  . .     .. .    .. .    ..    .  ..   .  ..   .  ..   .     .. .    .. .    .. .    .. .  .  ..   .  ..   .  ..   .  ..   .  ..   .  ..   .  ..   .  ..    .  . .  .  . .  .  . .  .  . .  .  . .    ..   .  ..   .  ..   .  ..   .  ..   .  ..   .  ..   .  ..   . .. .    .. .    .. .    .. .      .  ..   .  ..   .  ..   .  . .    .. .    .. .    . .  .  . .  .  .   .  ..   .  ..     .. .    ..   .  . .  .  . . .  ..   .  . .    .. .  .   .  ..     .. .    . .  .  . . .  ..   . .. .    . .  .  .   .  ...    ..   ..   . .. .    . .  . ..   . .. .    . . .  ..   . ...  ..     . .  . ..   . .. . .. .   . ..   ..     . . .  . .  . .   . ...  . . .  .   . .   . . . . . . . . .   ..  .   ",
"..      ..    ..  ..   .     ..  .. .      .. ...    .. ...    .  .. .  .   . ...    .. .. .  .   . .     ..    .   . ...   .   . .     ...   .   . .  .  .. .  .  ..  . .    ...   .   . .  .  .. .     ..   .   . .  .  .. .    ..    .  ..    .    .. .  .  ..   .  .. .  .  . .     .. .    .. .  .  ..   .  .. .  .  . .  .  . ..    .. .    .. .  .  ..   .  ..   .  .. .. .    .. .    .. .    .. .  .  ..   .  ..   .  ..   .  .. .  .  . .  .  . .  .  . .  .  . .  .  . .  .  . .  .  . .  .  . ..    .. .    .. .    .. .    .. .    .. . .  . .  .  . .  .  . .  .  . .  .  . .  .  . .  .  . .  .  . .  . ..   .  ..   .  ..   .  ..   . .. .    .. .    .. .    .. . ..   .  ..   .  ..   . .. .    .. .    . .  .  . .  .  .   .  ..   .  ...    .. .    ..   .  . .  . ..   .  ..     .. .    ...  ..   .  . .    ..   .  . .    ..   . .. .    . .  .  .   .  ...    ..   ..   . .. .    . .    ..     .. . .  .   .  . .  .   .  . .    . .    ..   . . .  . ...  .   . .. . .  .   . ...  . . .  .     . . . ...  . . . .   . .  ... . .. .. ",
"  ..      .   ... ... ... ..  .   .. .  ..  .. .. ..  .  .. .      .. .. .  ..  . ..  .  .. .  .  .. .  .  .. .. .  .  .. .  .  .. .  .  .. .  .  .. .  .  ..  . .    ...   .   . .  .  .. .     ..   .   . .  .  .. .    ...   .  .. .. .    ...   .  ..    .  . .  .  .. .    .. .  .  ..   .  ..    .  . .  .  .  .    .. .    ..    .  ..   .  .. .. .    .. .    .. .     ..   .  ..   .  ..   .  .. .  .  . .  .  . .  .  . .  .  .  .    .. .    .. .    .. .    .. .    .. .    .. .    .. .    ..    .  .    .  .    .  .    .  .    .  .      .. .    .. .    .. .    .. .    .. .    .. .    .. .    .. .    . .  .  . .  .  . .  .  . .  . ..   .  ..   .  ..   .  ..     .. .    .. .    .. . ..   .  ..   .  . .    .. .    ...  .  . .  .  .   .  ..   .  ...    .. .    . .  .  . . .  ..   .  . .    .. . ..   .  ...    .. . .  . .  . ..   . .. .    . .  .  .   .  ...    ..   ..     .. . .  . . .  ..     ...  .  .   . .. . ..   . .. . .  .   . .. . .. .   .... . ..     . . .  . . .. .   . . . ..   . . . ..... ... ..... . .. .  . .",
".   .. ..  .    ..  ..  ..     .  ... ..     .. ..     .  .. .  .   .  .. .  .. ..    .   .  .     ..  . .  .  .. .  .  .. .  .  .. .  .  .. .     ..    .    ...   .   . .  .  .. .     ..   .   . .  .  .. .     ..   .     .. .     ..   .  .. .  .  . .     .. .    ...   .  ..    .  . .  .  . ..    .. .    ...   .  ..   .  .. .. .    .. .     ..   .  ..   .  ..   ..  . .  .  . .  .  . .  .  .  .    .. .    .. .    .. .    ..    .  .    .  .    .  .    .  .    .  .    .  .    .  .    .  .  .  .    .  .    .  .    .  .    .  .    . .  .    .  .    .  .    .  .    .  .    .  .    .  .    .  .      .. .    .. .    .. .    .. .    . .  .  . .  .  . .  .  . . .  ..   .  ..   .  ..     .. .    .. . ..   .  ..   .  . .    .. .    . .  .  . .  .  .   .  ..   . .. .    .. . .  . .  .  .   .  ..     .. .      .  ..     .. .    . .  . ..   .  . .    . .  .  .   .  ...    ...  ..     .. . .  .   .  . .    . .  . ..   . ..   ..     ...  . ..   . . .  . ..   .   . .. . .  .   . . . .. . . ...    .   . .   .   . .   .. ..   ..",
"...   ..... ..  ..  ... ... .   .   .  .. .   .  .. .      .. .. .  ... .  .  .  .. .  .  ...   ..  . ...   ..  .  .     ..    .  .  .     ..   ..    ...   .   . .  .  .. .     ..   ..  . .  .  .. .  .  ..   ..    .. .  .  ..   ..  . .  .  .. .    .. .  .  ..   .   . .  .  . ..    .. .    ..    .  ..   .  .  .. .    .. .     ..   .  ..   .   . .  .  . .  .  . .     .. .    .. .    .. .    ..    .  .    .  .    .  .    .  .  .  .    .  .    .  .    .  .    .  .    .  .    .  .    .  .     .    .  .    .  .    .  .    .  .    .    .    .  .    .  .    .  .    .  .    .  .    .  .    .  .    . .  .    .  .    .  .    .  .      .. .    .. .    .. .    ..   .  . .  .  . .  .  .   .  ..   .  ..     .. .    .. .  .   .  ..   .  . .    .. .    . .  .  . .    ..   .  ..     .. .    . .  .  . . .  ..   . .. .    . .  ..     .. .    . .  . ..   .  . .    . .  .  .   .  . .    . .  ..     ...  .  .   . .. .    . . .  ...  . . .  . .    . . .  . .  . .   .... . ..     . . . .. . ....   .     . . . . . . . . .   . .. .. . ",
".....   ...    .      .   .. .   .  ... .. .  .   .. .  .   .  .. .  .. ...   ..  .. .  .  .. ..    .   . .     ...   .   . .     ...   .     ..    .  .. .  .  .. .     ..   ..  . .     .. .  .  ..    .    ..    .  ..    .  . .     .. .     ..   .  .. .  .  . .  .  .. .    ..    .  ..   .  .. .. .    .. .  .  ..   .  ..   ..  . .  .  . .  .  .. .    .. .    .. .  .  .    .  .    .  .    .  .  .  .    .  .    .  .    .  .  .  .    .  .    .  .    .  .    .  .    .  .    .  .    .  .    ..    .  .    .  .    .  .    .  .    .  . .    .  .    .  .    .  .    .  .    .  .    .  .    .  .    .  . .    .  .    .  .    .  .    . .  .    .  .    .  .    .  . .    .. .    .. .    ...  .  . .  .  . . .  ..   .  ..     .. .    .. . ..   .  ..   .  . .    .. . .  . .  .  .   .  ..   . .. .    ..   .  . .    ..   .  . .    ...  ..     .. .    . .  . ..   .  . .    . .  .  .   .  . .      .  . .    . .  . ..     ..   .  .   .  . .  .     ..   . ..   . ...  . ..   .   . ..   . ..   . .   . ... ..     .   . . . .. . .  .  . ",
"  .....   ... ... ..  ..  ... ...    .. ... .  .  ... .. .  ... .  .  .  .. .     ...    .  .  .. .  .  .. .  .  .. .  .  .. .  .  .  .. .  .  .. .  .  .. .     ..   ..  . .     .. .  .  ..    .    ...   .  .. .  .  . ..    .. .  .  ..   .   . .  .  .  .    .. .     ..   .  .. .. .    .. .     ..   .  ..    .  . .  .  . .     .. .    .. .  .  .    .  .    .  .     .    .  .    .  .    .  .  .  .    .  .    .  .    .  .     .    .  .    .  .    .  .    .  .    .  .    .  .    .  .    .     .. .    .. .    .. .    .. .    .. .      .  .    .  .    .  .    .  .    .  .    .  .    .  .    .  .      .  .    .  .    .  .    .  . .    .  .    .  .    .  .      .  .    .  .    .  . .    .. .    ..   .  . .  .  . . .  ..   .  ..     .. .    .. . ..   .  ..     .. .    ...  .  . .  . ..   .  ...    .. . .  . .  . ..   .  . .    ...  ..   . .. .    . .  . ..   .  . .    . .  . ..   . .. .  .   . .. .    . . .  ...    . .  . ..   . ...  ...    . . .  . .  . .   .... . ...    .   . ...  . . . ... . ... ..... . . ..   .. .",
".   .....  ...  ..          .  .. ..  .   .  .  .   .  .. .  .. ...    .  .. .  .   . ...    .  .. .     ..    .  .. .  .  .. .. .  .  .. .  .  .. .     ..   ..  . .     .. .  .  ..  . .    ...   .  .. .  .  .. .    ..    .  ..    .  . .  .  .. .    ...   .  ..   ..    .. .     ..   .  ..   ..  . .  .  . .     .. .    .. .  .  .    .  .     .    .  .    .  .    ..    .  .    .  .    .  .     .    .  .    .  .    .  .    .     .. .    .. .    .. .    .. .    .. .    .. .    .. .    .. .  .  ..   .  ..   .  ..   .  ..   .  ..   . .. .    .. .    .. .    .. .    .. .    .. .    .. .    .. .      .  .    .  .    .  .    .  .      .  .    .  .    .  .    . .  .    .  .    .  .      .  .    .  . .    .. .    .. . .  . .  .  . . .  ..   .  ..     .. .    . .  ..   .  . .    .. .    . .  .  .   .  ..     .. .    . .  .  .   .  . .    ..   ..   . .. .    . .  . ..   . .. .    . .  . ..     .. . ..     .. . .  .   .  . .    . . .  . .  .   . .. . .  .   . ...  . ..   .     ...    . . .. .   .     .   . .   .  . .. .  .",
"..    ....  ... ... ..  ..  ... ..     .  ...    .  ... .  .  .  .. .      ..  . .  .  .. .     ...   ..  . ..     ..    .     ..    .  .  .    ...   .   . .     .. .  .  ..  . .    ...   .  .. .  .  .. .    ...   .  .. .  .  . ..    .. .  .  ..   .  .  .. .    ..    .  ..   ..  . .  .  . .     .. .    .. .  .  .    .  .     .    .  .    .     .  .    .  .    .     .  .    .  .    .  .    .     .. .    .. .    .. .    .. .  .  ..   .  ..   .  ..   .  ..   .  ..   .  ..   .  ..   .  ..    .  . .  .  . .  .  . .  .  . .  .  . .    ..   .  ..   .  ..   .  ..   .  ..   .  ..   .  ..   .  ..   . .. .    .. .    .. .    .. .      .  .    .  .    .  .    .    .    .  .    .  .      .  .    .  .      .  .    .  .      .. .    ..   .  . .  .  . . .  ..   .  . .    .. .  .   .  ..     .. .    . .  .  . . .  ..   . .. .    . .  .  .   .  ...    ..   ..   . .. .    . .  . ..   . .. .    . . .  ..     ...  ..     . .  . ..   . .. . .  .   . ..   ..     . . .  . .  . .   . ...  . . .  .   . .   . . . . . . . . .   ..  .   ",
"..      ..    .   ..   .     ..  .. .      .. ...    .. ...    .  .. .  .   . ...    .  .. .  .   . .     ..    .     ...   .   . .     ...   .   . .  .  .. .  .  ..  . .    ...   .   . .  .  .. .     ..   .   . .  .  .. .    ..    .  ..    .    .. .  .  ..   .  .. .  .  . .     .. .    .. .  .  .    .  .  .  .    .  .    ..    .  .    .  .  .  .    .  .    .  .  .. .    .. .    .. .    .. .  .  ..   .  ..   .  ..   .  .. .  .  . .  .  . .  .  . .  .  . .  .  . .  .  . .  .  . .  .  . ..    .. .    .. .    .. .    .. .    .. . .  . .  .  . .  .  . .  .  . .  .  . .  .  . .  .  . .  .  . .  . ..   .  ..   .  ..   .  ..   . .. .    .. .    .. .    .. . .    .  .    .  .    . .  .    .  .    . .  .    .  .      .  .    .  . .    .. .    ..   .  . .  . ..   .  ..     .. .    ...  ..   .  . .    ..   .  . .    ..   . .. .    . .  .  .   .  ...    ..   ..   . .. .    . .    ..     .. . .  .   .  . .      .  . .    . .    ..     . .    ...  .   . .. . .  .   . ...  . . .  .     . . . ...  . .   .     .  ... . .. .. ",
"  ..      .   ..  ... ... ..  .   .. .  ..  .. .. ..  .  .. .      .. .. .  .   . ..     .. .  .  .. .  .  .. .. .  .  .. .  .  .. .  .  .. .  .  .. .  .  ..  . .    ...   .   . .  .  .. .     ..   .   . .  .  .. .    ...   .  .. .. .    ...   .  ..    .  . .  .  .. .    .. .  .  .    .  .     .    .  .     .    .  .    .     .  .    .  .  .. .    .. .    .. .     ..   .  ..   .  ..   .  .. .  .  . .  .  . .  .  . .  .  .  .    .. .    .. .    .. .    .. .    .. .    .. .    .. .    ..    .  .    .  .    .  .    .  .    .  .      .. .    .. .    .. .    .. .    .. .    .. .    .. .    .. .    . .  .  . .  .  . .  .  . .  . ..   .  ..   .  ..   .  ..     .. .    .. .    .. . .    .  .    .    .    .  .    . .  .    .  .      .  .    .  . .    .. .    . .  .  . . .  ..   .  . .    .. . ..   .  ...    .. . .  . .  . ..   . .. .    . .  .  .   .  ...    ..   ..     .. . .  . . .  ..     ...  .  .   . .. . ..   . .. . .  .   . .. . .  .   . .. . ..     . . .  . . .. .   . . . ..   . . . ..... ... . ... . .. .  . .",
".   .. ..  .        ..  ..     .  ... ..     .. ..     .  .. .  .   .  .. .  .  ..    .   .  .     ..  . .     .. .  .  .. .  .  .. .  .  .. .     ..    .    ...   .   . .  .  .. .     ..   .   . .  .  .. .     ..   .     .. .     ..   .  .. .  .  . .     .. .    ..    .  .     .    .  .    ..    .  .    .     .  .    .  .  .. .    .. .     ..   .  ..   .  ..   ..  . .  .  . .  .  . .  .  .  .    .. .    .. .    .. .    ..    .  .    .  .    .  .    .  .    .  .    .  .    .  .    .  .  .  .    .  .    .  .    .  .    .  .    . .  .    .  .    .  .    .  .    .  .    .  .    .  .    .  .      .. .    .. .    .. .    .. .    . .  .  . .  .  . .  .  . . .  ..   .  ..   .  ..     .. .    .. . .    .  .    .  . .    .  .    . .  .    .  .      .  .    . .. .    .. . .  . .  .  .   .  ..     .. .      .  ..     .. .    . .  . ..   .  . .    . .  .  .   .  ...    ...  ..     .. . .  .   .  . .    . .  . ..     ..   ..     ...  . ..     . .  . ..   .   . .. . .  .   . . . .. . . ...    .   . .   .     .   .. ..   ..",
"...   ..... ..  ..  ... ... .   .   .  .. .   .  .. .      .. .. .  .   .  .     .. .  .  ...   ..    ...   ..  .  .     ..    .  .  .     ..   ..    ...   .   . .  .  .. .     ..   ..  . .  .  .. .  .  ..   ..    .. .  .  ..   ..  . .  .  .. .    .. .  .  .    .     .  .    ..    .  .    .     .  .    .  .  .. .    .. .     ..   .  ..   .   . .  .  . .  .  . .     .. .    .. .    .. .    ..    .  .    .  .    .  .    .  .  .  .    .  .    .  .    .  .    .  .    .  .    .  .    .  .     .    .  .    .  .    .  .    .  .    .    .    .  .    .  .    .  .    .  .    .  .    .  .    .  .    . .  .    .  .    .  .    .  .      .. .    .. .    .. .    ..   .  . .  .  . .  .  .   .  ..   .  ..     .. .    .. .      .  .    .    .    .  .    . .  .    .    .    .  .      .. .    . .  .  . . .  ..   . .. .    . .  ..     .. .    . .  . ..   .  . .    . .  .  .   .  . .    . .  ..     ...  .  .   . .. .    . . .  ...    . .  . .    . . .  . .    .   . .. . ..     . . . .. . ....   .     . . . . . . . . .   . .. .. . ",
".....   ...    .      .   .. .   .  ... .. .  .   .. .  .   .  .. .  .  ...   ..  .. .  .  .  ..    .   . .     ...   .   . .     ...   .     ..    .  .. .  .  .. .     ..   ..  . .     .. .  .  ..    .    ..    .  ..    .  . .     .. .     .    .  .  .  .    .  .  .  .    .     .  .    .  .  .. .    .. .  .  ..   .  ..   ..  . .  .  . .  .  .. .    .. .    .. .  .  .    .  .    .  .    .  .  .  .    .  .    .  .    .  .  .  .    .  .    .  .    .  .    .  .    .  .    .  .    .  .    ..    .  .    .  .    .  .    .  .    .  . .    .  .    .  .    .  .    .  .    .  .    .  .    .  .    .  . .    .  .    .  .    .  .    . .  .    .  .    .  .    .  . .    .. .    .. .    ...  .  . .  .  . . .  ..   .  ..     .. .    .. . .    .  .    .    .    .  . .    .  .      .  .    . .. .    ..   .  . .    ..   .  . .    ...  ..     .. .    . .  . ..   .  . .    . .  .  .   .  . .      .  . .    . .  . ..     ..   .  .   .  . .  .     ..   . ..     ...  . ..   .   . ..   . ..   . .   . ... ..     .   . .   .. . .  .  . ",
"  .....   ... ... ..  ..  ... ...    .. ... .  .  ... .. .  .   .  .  .  .. .     ...    .  .  .. .  .  .. .  .  .. .  .  .. .  .  .  .. .  .  .. .  .  .. .     ..   ..  . .     .. .  .  ..    .    ...   .  .. .  .  . ..    .. .  .  .    .     .  .     .    .  .     .    .  .  .. .    .. .     ..   .  ..    .  . .  .  . .     .. .    .. .  .  .    .  .    .  .     .    .  .    .  .    .  .  .  .    .  .    .  .    .  .     .    .  .    .  .    .  .    .  .    .  .    .  .    .  .    .     .. .    .. .    .. .    .. .    .. .      .  .    .  .    .  .    .  .    .  .    .  .    .  .    .  .      .  .    .  .    .  .    .  . .    .  .    .  .    .  .      .  .    .  .    .  . .    .. .    ..   .  . .  .  . . .  ..   .  ..     .. .    .. . .    .  .      .  .    . .  .    .  . .    .  . .    .. . .  . .  . ..   .  . .    ...  ..   . .. .    . .  . ..   .  . .    . .  . ..   . .. .  .   . .. .    . . .  ...    . .  . ..     ...  ...    . . .  . .    .   . .. . ...    .   . ...  . . . ... . ... ..... . .  .   .. .",
".   ...    ...  ..          .  .. ..  .   .  .  .   .  .. .  .  ...    .  .. .  .     ...    .  .. .     ..    .  .. .  .  .. .. .  .  .. .  .  .. .     ..   ..  . .     .. .  .  ..  . .    ...   .  .. .  .  .. .    ..    .  .     .    .  .  .  .    .     .  .    ..    .. .     ..   .  ..   ..  . .  .  . .     .. .    .. .  .  .    .  .     .    .  .    .  .    ..    .  .    .  .    .  .     .    .  .    .  .    .  .    .     .. .    .. .    .. .    .. .    .. .    .. .    .. .    .. .  .  ..   .  ..   .  ..   .  ..   .  ..   . .. .    .. .    .. .    .. .    .. .    .. .    .. .    .. .      .  .    .  .    .  .    .  .      .  .    .  .    .  .    . .  .    .  .    .  .      .  .    .  . .    .. .    .. . .  . .  .  . . .  ..   .  ..     .. .    . .  .    .  . .    .  .      .  .      .  .      .. .    . .  .  .   .  . .    ..   ..   . .. .    . .  . ..   . .. .    . .  . ..     .. . ..     .. . .  .   .  . .    . . .  . .      . .. . .  .     ...  . ..   .     ...    . . .. .   .     .   . .   .  . .. .  .",
"..    ..    ... ... ..  ..  ... ..     .  ...    .  .   .  .  .  .. .      ..  . .  .  .. .     ...   ..  . ..     ..    .     ..    .  .  .    ...   .   . .     .. .  .  ..  . .    ...   .  .. .  .  .. .    ..    .  .  .  .    ..    .  .  .  .    .  .  .. .    ..    .  ..   ..  . .  .  . .     .. .    .. .  .  .    .  .     .    .  .    .     .  .    .  .    .     .  .    .  .    .  .    .     .. .    .. .    .. .    .. .  .  ..   .  ..   .  ..   .  ..   .  ..   .  ..   .  ..   .  ..    .  . .  .  . .  .  . .  .  . .  .  . .    ..   .  ..   .  ..   .  ..   .  ..   .  ..   .  ..   .  ..   . .. .    .. .    .. .    .. .      .  .    .  .    .  .    .    .    .  .    .  .      .  .    .  .      .  .    .  .      .. .    ..   .  . .  .  . . .  ..   .  . .    .. .      .  .      .  .    . .  .    . .  .    . .. .    . .  .  .   .  ...    ..   ..   . .. .    . .  . ..   . .. .    . . .  ..     ...  ..     . .  . ..   . .. . .  .   . ..   ..     . . .  . .    .   . ...  . . .  .   . .   . . . . . . . . .    .  .   ",
"..      ..    .   ..   .     ..  .. .      .. ...    .  ...    .  .. .  .     ...    .  .. .  .   . .     ..    .     ...   .   . .     ...   .   . .  .  .. .  .  ..  . .    ...   .   . .  .  .. .     .    .     .  .     .    .     .  .     .    .. .  .  ..   .  .. .  .  . .     .. .    .. .  .  .    .  .  .  .    .  .    ..    .  .    .  .  .  .    .  .    .  .  .. .    .. .    .. .    .. .  .  ..   .  ..   .  ..   .  .. .  .  . .  .  . .  .  . .  .  . .  .  . .  .  . .  .  . .  .  . ..    .. .    .. .    .. .    .. .    .. . .  . .  .  . .  .  . .  .  . .  .  . .  .  . .  .  . .  .  . .  . ..   .  ..   .  ..   .  ..   . .. .    .. .    .. .    .. . .    .  .    .  .    . .  .    .  .    . .  .    .  .      .  .    .  . .    .. .    ..   .  . .  . ..   .  ..     .. .    ...  .    .    .    .    .    .    .    . .. .    . .  .  .   .  ...    ..   ..   . .. .    . .    ..     .. . .  .   .  . .      .  . .    . .    ..     . .    ...      . .. . .  .     ...    . .  .     . . . ...  . .   .     .  ...   .. .. ",
"  ..      .   ..  ... ... ..  .   .. .  ..  .  .. ..  .  .. .      .. .. .  .   . ..     .. .  .  .. .  .  .. .. .  .  .. .  .  .. .  .  .. .  .  .. .  .  ..  . .    ...   .   . .  .  .. .     .    .     .  .  .  .    ..    .  .  .. .    ...   .  ..    .  . .  .  .. .    .. .  .  .    .  .     .    .  .     .    .  .    .     .  .    .  .  .. .    .. .    .. .     ..   .  ..   .  ..   .  .. .  .  . .  .  . .  .  . .  .  .  .    .. .    .. .    .. .    .. .    .. .    .. .    .. .    ..    .  .    .  .    .  .    .  .    .  .      .. .    .. .    .. .    .. .    .. .    .. .    .. .    .. .    . .  .  . .  .  . .  .  . .  . ..   .  ..   .  ..   .  ..     .. .    .. .    .. . .    .  .    .    .    .  .    . .  .    .  .      .  .    .  . .    .. .    . .  .  . . .  ..   .  . .    .. . .    .  . .    .  . .    .  . .    . .. .    . .  .  .   .  ...    ..   ..     .. . .  . . .  ..     ...  .  .   . .. . ..   . .. . .  .   . .. . .  .   . .. . ..     . . .  . . .  .   . . . ..   . . . ..... ... . ... . .. .  . .",
".   .. ..  .        ..  ..     .  ... ..     .  ..     .  .. .  .      .. .  .  ..    .   .  .     ..  . .     .. .  .  .. .  .  .. .  .  .. .     ..    .    ...   .   . .  .  .. .     .    .     .  .  .  .     .    .     .. .     ..   .  .. .  .  . .     .. .    ..    .  .     .    .  .    ..    .  .    .     .  .    .  .  .. .    .. .     ..   .  ..   .  ..   ..  . .  .  . .  .  . .  .  .  .    .. .    .. .    .. .    ..    .  .    .  .    .  .    .  .    .  .    .  .    .  .    .  .  .  .    .  .    .  .    .  .    .  .    . .  .    .  .    .  .    .  .    .  .    .  .    .  .    .  .      .. .    .. .    .. .    .. .    . .  .  . .  .  . .  .  . . .  ..   .  ..   .  ..     .. .    .. . .    .  .    .  . .    .  .    . .  .    .  .      .  .    . .. .    .. . .  . .  .  .   .  ..     .. .      .  .      .  .      .  . .    .  . .    . .  .  .   .  ...    ...  ..     .. . .  .   .  . .    . .  . ..     ..   ..     ...  . ..     . .  . ..       . .. . .  .     . . .  . . ...    .   . .   .     .   ..  .   ..",
"...   ..... ..  ..  ... ... .   .   .  .. .      .. .      .. .. .  .   .  .     .. .  .  ...   ..    ...   ..  .  .     ..    .  .  .     ..   ..    ...   .   . .  .  .. .     .    ..    .  .  .  .  .  .    ..    .. .  .  ..   ..  . .  .  .. .    .. .  .  .    .     .  .    ..    .  .    .     .  .    .  .  .. .    .. .     ..   .  ..   .   . .  .  . .  .  . .     .. .    .. .    .. .    ..    .  .    .  .    .  .    .  .  .  .    .  .    .  .    .  .    .  .    .  .    .  .    .  .     .    .  .    .  .    .  .    .  .    .    .    .  .    .  .    .  .    .  .    .  .    .  .    .  .    . .  .    .  .    .  .    .  .      .. .    .. .    .. .    ..   .  . .  .  . .  .  .   .  ..   .  ..     .. .    .. .      .  .    .    .    .  .    . .  .    .    .    .  .      .. .    . .  .  . . .  ..   . .. .    . .  .      .  .      .  . .    .  . .    . .  .  .   .  . .    . .  ..     ...  .  .   . .. .    . . .  ...    . .  . .    . . .  . .    .   . .. . ..     . . . .. . . ..   .     . . . . . . . . .   . .. .. . ",
".....   ...    .      .   .. .   .  .   .. .  .   .. .  .      .. .  .  ...   ..  .. .  .  .  ..    .   . .     ...   .   . .     ...   .     ..    .  .. .  .  .. .     .    ..    .     .  .  .  .     .    ..    .  ..    .  . .     .. .     .    .  .  .  .    .  .  .  .    .     .  .    .  .  .. .    .. .  .  ..   .  ..   ..  . .  .  . .  .  .. .    .. .    .. .  .  .    .  .    .  .    .  .  .  .    .  .    .  .    .  .  .  .    .  .    .  .    .  .    .  .    .  .    .  .    .  .    ..    .  .    .  .    .  .    .  .    .  . .    .  .    .  .    .  .    .  .    .  .    .  .    .  .    .  . .    .  .    .  .    .  .    . .  .    .  .    .  .    .  . .    .. .    .. .    ...  .  . .  .  . . .  ..   .  ..     .. .    .. . .    .  .    .    .    .  . .    .  .      .  .    . .. .    ..   .  . .    ..   .  . .    ...  .      .  .      .  . .    .  . .    . .  .  .   .  . .      .  . .    . .  . ..     ..   .  .   .  . .  .     ..   . ..     ...  . ..       . ..   . ..     .   . ... ..     .   . .   .. . .  .  . ",
"  .....   ... ... ..  ..  ... ...    .  ... .  .  ... .. .  .   .  .  .  .. .     ...    .  .  .. .  .  .. .  .  .. .  .  .. .  .  .  .. .  .  .. .  .  .. .     .    ..    .     .  .  .  .     .    ...   .  .. .  .  . ..    .. .  .  .    .     .  .     .    .  .     .    .  .  .. .    .. .     ..   .  ..    .  . .  .  . .     .. .    .. .  .  .    .  .    .  .     .    .  .    .  .    .  .  .  .    .  .    .  .    .  .     .    .  .    .  .    .  .    .  .    .  .    .  .    .  .    .     .  .    .  .    .  .    .  .    .  .      .  .    .  .    .  .    .  .    .  .    .  .    .  .    .  .      .  .    .  .    .  .    .  . .    .  .    .  .    .  .      .  .    .  .    .  . .    .. .    ..   .  . .  .  . . .  ..   .  ..     .. .    .. . .    .  .      .  .    . .  .    .  . .    .  . .    .. . .  . .  . ..   .  . .    ...  .    . .  .      .  . .    .  . .    . .  . ..   . .. .  .   . .. .    . . .  ...    . .  . ..     ...  ...    . . .  . .    .   . .. . ...    .   . ...    . . ... . ... ..... . .  .   ..  ",
"    ...    ...  ..          .  .. ..  .   .  .  .      .. .  .  ...    .  .. .  .     ...    .  .. .     ..    .  .. .  .  .. .. .  .  .. .  .  .. .     .    ..    .     .  .  .  .   . .    ...   .  .. .  .  .. .    ..    .  .     .    .  .  .  .    .     .  .    ..    .. .     ..   .  ..   ..  . .  .  . .     .. .    .. .  .  .    .  .     .    .  .    .  .    ..    .  .    .  .    .  .     .    .  .    .  .    .  .    .     .  .    .  .    .  .    .  .    .  .    .  .    .  .    .  .  .  .    .  .    .  .    .  .    .  .    . .  .    .  .    .  .    .  .    .  .    .  .    .  .    .  .      .  .    .  .    .  .    .  .      .  .    .  .    .  .    . .  .    .  .    .  .      .  .    .  . .    .. .    .. . .  . .  .  . . .  ..   .  ..     .. .    . .  .    .  . .    .  .      .  .      .  .      .. .    . .  .  .   .  . .    ..   .    . .  .      .  . .    . .. .    . .  . ..     .. . ..     .. . .  .   .  . .    . . .  . .      . .. . .  .     ...  . ..         ...    . . .  .   .     .   . .   .  . .. .  .",
"      ..    ... ... ..  ..  .   ..     .  ...    .  .   .  .  .  .. .      ..  . .  .  .. .     ...   ..  . ..     ..    .     ..    .  .  .    ..    .     .     .  .  .  .   . .    ...   .  .. .  .  .. .    ..    .  .  .  .    ..    .  .  .  .    .  .  .. .    ..    .  ..   ..  . .  .  . .     .. .    .. .  .  .    .  .     .    .  .    .     .  .    .  .    .     .  .    .  .    .  .    .     .  .    .  .    .  .    .  .  .  .    .  .    .  .    .  .    .  .    .  .    .  .    .  .     .    .  .    .  .    .  .    .  .    .    .    .  .    .  .    .  .    .  .    .  .    .  .    .  .    . .  .    .  .    .  .    .  .      .  .    .  .    .  .    .    .    .  .    .  .      .  .    .  .      .  .    .  .      .. .    ..   .  . .  .  . . .  ..   .  . .    .. .      .  .      .  .    . .  .    . .  .    . .. .    . .  .  .   .  ...    ..   .    . .  .      .  . .    . .. .    . . .  ..     ...  ..     . .  . ..   . .. . .  .   . ..   ..     . . .  . .    .   . ...  . . .  .     .   . . . . . . . . .    .  .   ",
"..      ..    .   ..   .     .   .. .      .  ...    .  ...    .  .. .  .     ...    .  .. .  .   . .     ..    .     ...   .   . .     ..    .     .  .  .  .  .  .   . .    ...   .   . .  .  .. .     .    .     .  .     .    .     .  .     .    .. .  .  ..   .  .. .  .  . .     .. .    .. .  .  .    .  .  .  .    .  .    ..    .  .    .  .  .  .    .  .    .  .  .  .    .  .    .  .    .  .  .  .    .  .    .  .    .  .  .  .    .  .    .  .    .  .    .  .    .  .    .  .    .  .    ..    .  .    .  .    .  .    .  .    .  . .    .  .    .  .    .  .    .  .    .  .    .  .    .  .    .  . .    .  .    .  .    .  .    . .  .    .  .    .  .    .  . .    .  .    .  .    . .  .    .  .    . .  .    .  .      .  .    .  . .    .. .    ..   .  . .  . ..   .  ..     .. .    ...  .    .    .    .    .    .    .    . .. .    . .  .  .   .  ...    ..   .    . .  .      .    .      .. . .  .   .  . .      .  . .    . .    ..     . .    ...      . .. . .  .     ...    . .  .     . . . ...    .   .     .  ...   .. .. ",
"  ..      .   ..  ... ... ..  .   .. .  ..  .  .. ..  .  .. .      .. .. .  .   . ..     .. .  .  .. .  .  .. .. .  .  .. .  .  .. .  .  .  .  .  .  .  .  .   . .    ...   .   . .  .  .. .     .    .     .  .  .  .    ..    .  .  .. .    ...   .  ..    .  . .  .  .. .    .. .  .  .    .  .     .    .  .     .    .  .    .     .  .    .  .  .  .    .  .    .  .     .    .  .    .  .    .  .  .  .    .  .    .  .    .  .     .    .  .    .  .    .  .    .  .    .  .    .  .    .  .    .     .  .    .  .    .  .    .  .    .  .      .  .    .  .    .  .    .  .    .  .    .  .    .  .    .  .      .  .    .  .    .  .    .  . .    .  .    .  .    .  .      .  .    .  .    .  . .    .  .    .    .    .  .    . .  .    .  .      .  .    .  . .    .. .    . .  .  . . .  ..   .  . .    .. . .    .  . .    .  . .    .  . .    . .. .    . .  .  .   .  ...    ..   .      .  . .    . .  .      ...  .  .   . .. . ..   . .. . .  .   . .. . .  .   . .. . ..     . . .  . . .  .     . . ..   . . . . ... ... . ... . .. .  . .",
".   .. ..  .        .   ..     .  ... ..     .  ..     .  .. .  .      .. .  .  ..    .   .  .     ..  . .     .. .  .  .. .  .  .  .  .  .  .     .     .    ...   .   . .  .  .. .     .    .     .  .  .  .     .    .     .. .     ..   .  .. .  .  . .     .. .    ..    .  .     .    .  .    ..    .  .    .     .  .    .  .  .  .    .  .     .    .  .    .  .    ..    .  .    .  .    .  .     .    .  .    .  .    .  .    .     .  .    .  .    .  .    .  .    .  .    .  .    .  .    .  .  .  .    .  .    .  .    .  .    .  .    . .  .    .  .    .  .    .  .    .  .    .  .    .  .    .  .      .  .    .  .    .  .    .  .      .  .    .  .    .  .    . .  .    .  .    .  .      .  .    .  . .    .  .    .  . .    .  .    . .  .    .  .      .  .    . .. .    .. . .  . .  .  .   .  ..     .. .      .  .      .  .      .  . .    .  . .    . .  .  .   .  ...    ...  .      .  . .      .  . .    . .  . ..     ..   ..     ...  . ..     . .  . ..       . .. . .  .     . . .  . . ...    .     .   .     .   ..  .   ..",
"...   ..... ..  ..  ..  ... .   .      .. .      .. .      .. .. .  .   .  .     .. .  .  ...   ..    ...   ..  .  .     .     .     .     .    ..    ...   .   . .  .  .. .     .    ..    .  .  .  .  .  .    ..    .. .  .  ..   ..  . .  .  .. .    .. .  .  .    .     .  .    ..    .  .    .     .  .    .  .  .  .    .  .     .    .  .    .     .  .    .  .    .     .  .    .  .    .  .    .     .  .    .  .    .  .    .  .  .  .    .  .    .  .    .  .    .  .    .  .    .  .    .  .     .    .  .    .  .    .  .    .  .    .    .    .  .    .  .    .  .    .  .    .  .    .  .    .  .    . .  .    .  .    .  .    .  .      .  .    .  .    .  .    .    .    .  .    .  .      .  .    .  .      .  .    .  .      .  .    .    .    .  .    . .  .    .    .    .  .      .. .    . .  .  . . .  ..   . .. .    . .  .      .  .      .  . .    .  . .    . .  .  .   .  . .    . .  .      . .  .      . .. .    . . .  ...    . .  . .    . . .  . .    .   . .. . ..     . . . .. . . ..         . . . . . . . . .   . .. .. . ",
".....   ...    .          .. .   .  .   .. .  .   .. .  .      .. .  .  ...   ..  .. .  .  .  ..    .   . .     ..    .     .     .     .     ..    .  .. .  .  .. .     .    ..    .     .  .  .  .     .    ..    .  ..    .  . .     .. .     .    .  .  .  .    .  .  .  .    .     .  .    .  .  .  .    .  .  .  .    .  .    ..    .  .    .  .  .  .    .  .    .  .  .  .    .  .    .  .    .  .  .  .    .  .    .  .    .  .  .  .    .  .    .  .    .  .    .  .    .  .    .  .    .  .    ..    .  .    .  .    .  .    .  .    .  . .    .  .    .  .    .  .    .  .    .  .    .  .    .  .    .  . .    .  .    .  .    .  .    . .  .    .  .    .  .    .  . .    .  .    .  .    . .  .    .  .    . .  .    .  .      .  .    .  . .    .  .    .    .    .  . .    .  .      .  .    . .. .    ..   .  . .    ..   .  . .    ...  .      .  .      .  . .    .  . .    . .  .  .   .  . .      .  . .      .  . .      ..   .  .   .  . .  .     ..   . ..     ...  . ..       . ..   . ..     .   . ... ..     .     .   .. . .  .  . ",
"  .....   ... ... ..  ..  ... ...    .  ... .  .  ... .. .  .   .  .  .  .. .     ...    .  .  .. .  .  .. .  .  .  .  .  .  .  .  .  .. .  .  .. .  .  .. .     .    ..    .     .  .  .  .     .    ...   .  .. .  .  . ..    .. .  .  .    .     .  .     .    .  .     .    .  .  .  .    .  .     .    .  .     .    .  .    .     .  .    .  .  .  .    .  .    .  .     .    .  .    .  .    .  .  .  .    .  .    .  .    .  .     .    .  .    .  .    .  .    .  .    .  .    .  .    .  .    .     .  .    .  .    .  .    .  .    .  .      .  .    .  .    .  .    .  .    .  .    .  .    .  .    .  .      .  .    .  .    .  .    .  . .    .  .    .  .    .  .      .  .    .  .    .  . .    .  .    .    .    .  .    . .  .    .  .      .  .    .  . .    .  .      .  .    . .  .    .  . .    .  . .    .. . .  . .  . ..   .  . .    ...  .    . .  .      .  . .    .  . .    . .  . ..   . .. .      . .  .      . .  . .    . .  . ..     ...  ...    . . .  . .    .   . .. . ...    .   . ...    . . ... . ... . ... . .  .   ..  ",
"    ...    ..   ..             .. ..  .   .  .  .      .. .  .  ...    .  .. .  .     ...    .  .. .     .     .  .  .  .  .  .. .  .  .. .  .  .. .     .    ..    .     .  .  .  .   . .    ...   .  .. .  .  .. .    ..    .  .     .    .  .  .  .    .     .  .    ..    .  .     .    .  .    ..    .  .    .     .  .    .  .  .  .    .  .     .    .  .    .  .    ..    .  .    .  .    .  .     .    .  .    .  .    .  .    .     .  .    .  .    .  .    .  .    .  .    .  .    .  .    .  .  .  .    .  .    .  .    .  .    .  .    . .  .    .  .    .  .    .  .    .  .    .  .    .  .    .  .      .  .    .  .    .  .    .  .      .  .    .  .    .  .    . .  .    .  .    .  .      .  .    .  . .    .  .    .  . .    .  .    . .  .    .  .      .  .    . .  .    .  . .    .  .      .  .      .  .      .. .    . .  .  .   .  . .    ..   .    . .  .      .  . .    . .. .    . .  . ..     .. . .      .  . .      .  . .    . . .  . .      . .. . .  .     ...  . ..         ...    . . .  .         .     .   .  . .. .  .",
"      ..    ..  ... ..  ..  .   ..     .  ...    .  .   .  .  .  .. .      ..  . .  .  .. .     ..    ..    ..     .     .     ..    .  .  .    ..    .     .     .  .  .  .   . .    ...   .  .. .  .  .. .    ..    .  .  .  .    ..    .  .  .  .    .  .  .  .    .     .  .    ..    .  .    .     .  .    .  .  .  .    .  .     .    .  .    .     .  .    .  .    .     .  .    .  .    .  .    .     .  .    .  .    .  .    .  .  .  .    .  .    .  .    .  .    .  .    .  .    .  .    .  .     .    .  .    .  .    .  .    .  .    .    .    .  .    .  .    .  .    .  .    .  .    .  .    .  .    . .  .    .  .    .  .    .  .      .  .    .  .    .  .    .    .    .  .    .  .      .  .    .  .      .  .    .  .      .  .    .    .    .  .    . .  .    .    .    .  .      .  .      .  .    . .  .    . .  .    . .. .    . .  .  .   .  ...    ..   .    . .  .      .  . .    . .. .    . . .  ..     ...  .      . .  . .    . .. . .  .   . ..   ..     . . .  . .    .   . ...  . . .  .     .   . . . . . . . . .    .  .   ",
"..      ..        ..   .     .   .. .      .  ...    .  ...    .  .. .  .     ...    .  .. .  .     .     .     .     ...   .   . .     ..    .     .  .  .  .  .  .   . .    ...   .   . .  .  .. .     .    .     .  .     .    .     .  .     .    .  .  .  .    .  .  .  .    .     .  .    .  .  .  .    .  .  .  .    .  .    ..    .  .    .  .  .  .    .  .    .  .  .  .    .  .    .  .    .  .  .  .    .  .    .  .    .  .  .  .    .  .    .  .    .  .    .  .    .  .    .  .    .  .    ..    .  .    .  .    .  .    .  .    .  . .    .  .    .  .    .  .    .  .    .  .    .  .    .  .    .  . .    .  .    .  .    .  .    . .  .    .  .    .  .    .  . .    .  .    .  .    . .  .    .  .    . .  .    .  .      .  .    .  . .    .  .    .    .    .  . .    .  .      .  .    . .  .    .    .    .    .    .    .    . .. .    . .  .  .   .  ...    ..   .    . .  .      .    .      .. . .  .   .  . .      .    .      .    .      . .    ...      . .. . .  .     ...    . .  .     . . . ...    .   .     .  . .   .. .. ",
"  ..      .   ..  ... ... ..  .   .. .  ..  .  .. ..  .  .. .      .. .. .  .   . ..     .  .  .  .  .  .  .  .. .  .  .. .  .  .. .  .  .  .  .  .  .  .  .   . .    ...   .   . .  .  .. .     .    .     .  .  .  .    ..    .  .  .  .    .     .  .     .    .  .     .    .  .  .  .    .  .     .    .  .     .    .  .    .     .  .    .  .  .  .    .  .    .  .     .    .  .    .  .    .  .  .  .    .  .    .  .    .  .     .    .  .    .  .    .  .    .  .    .  .    .  .    .  .    .     .  .    .  .    .  .    .  .    .  .      .  .    .  .    .  .    .  .    .  .    .  .    .  .    .  .      .  .    .  .    .  .    .  . .    .  .    .  .    .  .      .  .    .  .    .  . .    .  .    .    .    .  .    . .  .    .  .      .  .    .  . .    .  .      .  .    . .  .    .  . .    .  . .    .  . .    .  . .    .  . .    . .. .    . .  .  .   .  ...    ..   .      .  . .    . .  .      ...  .  .   . .. . .    . .  . .      . .. . .  .   . .. . ..     . . .  . . .  .     . . ..   . . . . ... ... . ... . .. .  . .",
".   .. ..  .            ..     .  ... ..     .  ..     .  .. .  .      .. .  .  ..    .      .     .   . .     .. .  .  .. .  .  .  .  .  .  .     .     .    ...   .   . .  .  .. .     .    .     .  .  .  .     .    .     .  .     .    .  .  .  .    .     .  .    ..    .  .     .    .  .    ..    .  .    .     .  .    .  .  .  .    .  .     .    .  .    .  .    ..    .  .    .  .    .  .     .    .  .    .  .    .  .    .     .  .    .  .    .  .    .  .    .  .    .  .    .  .    .  .  .  .    .  .    .  .    .  .    .  .    . .  .    .  .    .  .    .  .    .  .    .  .    .  .    .  .      .  .    .  .    .  .    .  .      .  .    .  .    .  .    . .  .    .  .    .  .      .  .    .  . .    .  .    .  . .    .  .    . .  .    .  .      .  .    . .  .    .  . .    .  .      .  .      .  .      .  .      .  .      .  . .    .  . .    . .  .  .   .  ...    ...  .      .  . .      .  . .    . .  . ..     ..   .      . .  . .      . .  . ..       . .. . .  .     . . .  . . ...    .     .         .    .  .   ..",
"...   ..... ..  ..  ..  ... .   .      .. .      .. .      .. .. .  .   .  .     .  .  .  .     ..    ...   ..  .  .     .     .     .     .    ..    ...   .   . .  .  .. .     .    ..    .  .  .  .  .  .    ..    .  .  .  .    ..    .  .  .  .    .  .  .  .    .     .  .    ..    .  .    .     .  .    .  .  .  .    .  .     .    .  .    .     .  .    .  .    .     .  .    .  .    .  .    .     .  .    .  .    .  .    .  .  .  .    .  .    .  .    .  .    .  .    .  .    .  .    .  .     .    .  .    .  .    .  .    .  .    .    .    .  .    .  .    .  .    .  .    .  .    .  .    .  .    . .  .    .  .    .  .    .  .      .  .    .  .    .  .    .    .    .  .    .  .      .  .    .  .      .  .    .  .      .  .    .    .    .  .    . .  .    .    .    .  .      .  .      .  .    . .  .    . .  .    . .  .      .  .      .  . .    .  . .    . .  .  .   .  . .    . .  .      . .  .      . .. .    . . .  ...    . .  . .      . .  . .    .   . .. . ..     . . . .. . . ..         . . . . . . . . .     .. .. . ",
".....   ...    .          .. .   .  .   .. .  .   .. .  .      .. .  .  ..    ..     .  .  .  ..    .   . .     ..    .     .     .     .     ..    .  .. .  .  .. .     .    ..    .     .  .  .  .     .    .     .  .     .    .     .  .     .    .  .  .  .    .  .  .  .    .     .  .    .  .  .  .    .  .  .  .    .  .    ..    .  .    .  .  .  .    .  .    .  .  .  .    .  .    .  .    .  .  .  .    .  .    .  .    .  .  .  .    .  .    .  .    .  .    .  .    .  .    .  .    .  .    ..    .  .    .  .    .  .    .  .    .  . .    .  .    .  .    .  .    .  .    .  .    .  .    .  .    .  . .    .  .    .  .    .  .    . .  .    .  .    .  .    .  . .    .  .    .  .    . .  .    .  .    . .  .    .  .      .  .    .  . .    .  .    .    .    .  . .    .  .      .  .    . .  .    .    .    .    .    .    .    . .  .      .  .      .  . .    .  . .    . .  .  .   .  . .      .  . .      .  . .      ..   .  .   .  . .        .    . .      ...  . ..       . ..   . ..     .   . ... ..     .     .   .. . .  .  . ",
"  ...     ... ... ..  ..  ... ...    .  ... .  .  ... .. .  .   .  .  .  .  .     ..     .  .  .. .  .  .. .  .  .  .  .  .  .  .  .  .. .  .  .. .  .  .. .     .    ..    .     .  .  .  .     .    .     .  .  .  .    ..    .  .  .  .    .     .  .     .    .  .     .    .  .  .  .    .  .     .    .  .     .    .  .    .     .  .    .  .  .  .    .  .    .  .     .    .  .    .  .    .  .  .  .    .  .    .  .    .  .     .    .  .    .  .    .  .    .  .    .  .    .  .    .  .    .     .  .    .  .    .  .    .  .    .  .      .  .    .  .    .  .    .  .    .  .    .  .    .  .    .  .      .  .    .  .    .  .    .  . .    .  .    .  .    .  .      .  .    .  .    .  . .    .  .    .    .    .  .    . .  .    .  .      .  .    .  . .    .  .      .  .    . .  .    .  . .    .  . .    .  . .    .  . .    .  . .    . .  .    . .  .      .  . .    .  . .    . .  . ..   . .. .      . .  .      . .  . .    . .  . ..     ...  . .      . .  . .    .   . .. . ...    .   . ...    . . ... . ... . ... . .  .   ..  ",
"    ..     .    ..             .. ..  .   .  .  .      .. .  .  ..     .  .  .  .     ...    .  .. .     .     .  .  .  .  .  .. .  .  .. .  .  .. .     .    ..    .     .  .  .  .     .    .     .  .  .  .     .    .     .  .     .    .  .  .  .    .     .  .    ..    .  .     .    .  .    ..    .  .    .     .  .    .  .  .  .    .  .     .    .  .    .  .    ..    .  .    .  .    .  .     .    .  .    .  .    .  .    .     .  .    .  .    .  .    .  .    .  .    .  .    .  .    .  .  .  .    .  .    .  .    .  .    .  .    . .  .    .  .    .  .    .  .    .  .    .  .    .  .    .  .      .  .    .  .    .  .    .  .      .  .    .  .    .  .    . .  .    .  .    .  .      .  .    .  . .    .  .    .  . .    .  .    . .  .    .  .      .  .    . .  .    .  . .    .  .      .  .      .  .      .  .      .  .      .  . .    .    .    . .  .      .  . .    . .. .    . .  . ..     .. . .      .  . .      .  . .    . . .  . .      . .  . .        ...  . ..         ...    . . .  .         .     .   .  . .. .  .",
"      ..    ..  ... ..  ..  .   ..     .  ...    .  .   .  .  .  .  .      .   . .  .  .. .     ..    ..    ..     .     .     ..    .  .  .    ..    .     .     .  .  .  .     .    ..    .  .  .  .  .  .    ..    .  .  .  .    ..    .  .  .  .    .  .  .  .    .     .  .    ..    .  .    .     .  .    .  .  .  .    .  .     .    .  .    .     .  .    .  .    .     .  .    .  .    .  .    .     .  .    .  .    .  .    .  .  .  .    .  .    .  .    .  .    .  .    .  .    .  .    .  .     .    .  .    .  .    .  .    .  .    .    .    .  .    .  .    .  .    .  .    .  .    .  .    .  .    . .  .    .  .    .  .    .  .      .  .    .  .    .  .    .    .    .  .    .  .      .  .    .  .      .  .    .  .      .  .    .    .    .  .    . .  .    .    .    .  .      .  .      .  .    . .  .    . .  .    . .  .      .  .      .  . .    .    .    . .  .      .  . .    . .. .    . . .  ..     ...  .      . .  . .    . .. . .  .   . ..   .        . .  . .    .   . ...  . . .  .     .   . . . . . . . .      .  .   ",
"..      ..        ..   .     .   .. .      .  ...    .  ..     .  .  .  .     ...    .  .. .  .     .     .     .     ...   .   . .     ..    .     .  .  .  .  .  .     .    ..    .     .  .  .  .     .    .     .  .     .    .     .  .     .    .  .  .  .    .  .  .  .    .     .  .    .  .  .  .    .  .  .  .    .  .    ..    .  .    .  .  .  .    .  .    .  .  .  .    .  .    .  .    .  .  .  .    .  .    .  .    .  .  .  .    .  .    .  .    .  .    .  .    .  .    .  .    .  .    ..    .  .    .  .    .  .    .  .    .  . .    .  .    .  .    .  .    .  .    .  .    .  .    .  .    .  . .    .  .    .  .    .  .    . .  .    .  .    .  .    .  . .    .  .    .  .    . .  .    .  .    . .  .    .  .      .  .    .  . .    .  .    .    .    .  . .    .  .      .  .    . .  .    .    .    .    .    .    .    . .  .      .  .      .  . .    .    .    . .  .      .    .      .. . .  .   .  . .      .    .      .    .      . .    ...      . .  . .        ...    . .  .     . . . ...    .   .     .  . .   ..  . ",
"  ..      .   ..  ... ... ..  .   .. .  ..  .  .. ..  .  .  .      .  .. .  .   . ..     .  .  .  .  .  .  .  .. .  .  .. .  .  .. .  .  .  .  .  .  .  .  .     .    ..    .     .  .  .  .     .    .     .  .  .  .    ..    .  .  .  .    .     .  .     .    .  .     .    .  .  .  .    .  .     .    .  .     .    .  .    .     .  .    .  .  .  .    .  .    .  .     .    .  .    .  .    .  .  .  .    .  .    .  .    .  .     .    .  .    .  .    .  .    .  .    .  .    .  .    .  .    .     .  .    .  .    .  .    .  .    .  .      .  .    .  .    .  .    .  .    .  .    .  .    .  .    .  .      .  .    .  .    .  .    .  . .    .  .    .  .    .  .      .  .    .  .    .  . .    .  .    .    .    .  .    . .  .    .  .      .  .    .  . .    .  .      .  .    . .  .    .  . .    .  . .    .  . .    .  . .    .  . .    . .  .    . .  .      .  . .    .    .      .  . .    . .  .      ...  .  .   . .. . .    . .  . .      . .. . .  .   . .. . .        . .  . . .  .     . . ..   . . . . ... ... . ... . .. .  . .",
".   .. ..  .            ..     .  ... ..     .  ..     .  .  .  .      .. .  .  ..    .      .     .   . .     .. .  .  .. .  .  .  .  .  .  .     .     .    ..    .     .  .  .  .     .    .     .  .  .  .     .    .     .  .     .    .  .  .  .    .     .  .    ..    .  .     .    .  .    ..    .  .    .     .  .    .  .  .  .    .  .     .    .  .    .  .    ..    .  .    .  .    .  .     .    .  .    .  .    .  .    .     .  .    .  .    .  .    .  .    .  .    .  .    .  .    .  .     .       .       .       .       .      .  .    .  .    .  .    .  .    .  .    .  .    .  .    .  .      .  .    .  .    .  .    .  .      .  .    .  .    .  .    . .  .    .  .    .  .      .  .    .  . .    .  .    .  . .    .  .    . .  .    .  .      .  .    . .  .    .  . .    .  .      .  .      .  .      .  .      .  .      .  . .    .    .    . .  .      .  . .    . .  .      .  . .      .  . .    . .  . ..     ..   .      . .  . .      . .  . ..       . .  . .        . . .  . . ...    .     .         .    .  .    .",
"...   ..... ..  ..  ..  ... .   .      .. .      .  .      .  .. .  .   .  .     .  .  .  .     ..    ...   ..  .  .     .     .     .     .    ..    .     .     .  .  .  .     .    ..    .  .  .  .  .  .    ..    .  .  .  .    ..    .  .  .  .    .  .  .  .    .     .  .    ..    .  .    .     .  .    .  .  .  .    .  .     .    .  .    .     .  .    .  .    .     .  .    .  .    .  .    .     .  .    .  .    .  .    .  .     .       .       .       .       .       .       .       .          .       .       .       .       .    .       .       .       .       .       .       .       .      .  .    .  .    .  .    .  .      .  .    .  .    .  .    .    .    .  .    .  .      .  .    .  .      .  .    .  .      .  .    .    .    .  .    . .  .    .    .    .  .      .  .      .  .    . .  .    . .  .    . .  .      .  .      .  . .    .    .    . .  .      .  . .    . .  .      . .  .      . .. .    . . .  ...    . .  . .      . .  . .    .   . .. . .        . . .. . . ..         . . . . . . . . .     .. ..   ",
".....   ...    .          .. .   .  .   .. .  .      .  .      .. .  .  ..    ..     .  .  .  ..    .   . .     ..    .     .     .     .     .     .  .  .  .  .  .     .    ..    .     .  .  .  .     .    .     .  .     .    .     .  .     .    .  .  .  .    .  .  .  .    .     .  .    .  .  .  .    .  .  .  .    .  .    ..    .  .    .  .  .  .    .  .    .  .  .  .    .  .    .  .    .  .     .       .       .       .  .       .       .       .       .       .       .       .       ..    .  .    .  .    .  .    .  .    .  .      .       .       .       .       .       .       .       .    .       .       .       .      .  .    .  .    .  .    .  . .    .  .    .  .    . .  .    .  .    . .  .    .  .      .  .    .  . .    .  .    .    .    .  . .    .  .      .  .    . .  .    .    .    .    .    .    .    . .  .      .  .      .  . .    .    .    . .  .      .    .      .  . .      .  . .      ..   .  .   .  . .        .    . .      ...  . ..       . .    . .      .   . ... ..     .     .   .. . .  .  . ",
"  ..      ... ... ..  ..  ... ...    .  ..  .  .  ..  .. .  .   .  .  .  .  .     ..     .  .  .. .  .  .. .  .  .  .  .  .  .  .  .  .  .  .  .  .  .  .  .     .    ..    .     .  .  .  .     .    .     .  .  .  .    ..    .  .  .  .    .     .  .     .    .  .     .    .  .  .  .    .  .     .    .  .     .    .  .    .     .  .    .  .  .  .    .  .    .  .     .       .       .       .  .       .       .       .        .    .  .    .  .    .  .    .  .    .  .    .  .    .  .    .     .  .    .  .    .  .    .  .    .  .      .  .    .  .    .  .    .  .    .  .    .  .    .  .    .  .      .       .       .       .    .       .       .       .      .  .    .  .    .  . .    .  .    .    .    .  .    . .  .    .  .      .  .    .  . .    .  .      .  .    . .  .    .  . .    .  . .    .  . .    .  . .    .  . .    . .  .    . .  .      .  . .    .    .      .  . .    . .  .      . .  .      . .  . .    . .  . ..     ...  . .      . .  . .    .   . .. . . .        . ...    . . ... . ... . ... . .  .   ..  ",
"    ..     .    ..             .. ..  .      .  .      .. .  .  ..     .  .  .  .     ...    .  .. .     .     .  .  .  .  .  .  .  .  .  .  .     .     .    ..    .     .  .  .  .     .    .     .  .  .  .     .    .     .  .     .    .  .  .  .    .     .  .    ..    .  .     .    .  .    ..    .  .    .     .  .    .  .  .  .    .  .     .       .       .          .       .       .        .    .  .    .  .    .  .    .     .  .    .  .    .  .    .  .    .  .    .  .    .  .    .  .  .  .    .  .    .  .    .  .    .  .    . .  .    .  .    .  .    .  .    .  .    .  .    .  .    .  .      .  .    .  .    .  .    .  .      .       .       .       .    .       .       .      .  .    .  . .    .  .    .  . .    .  .    . .  .    .  .      .  .    . .  .    .  . .    .  .      .  .      .  .      .  .      .  .      .  . .    .    .    . .  .      .  . .    . .  .      .  . .      .  . .      .  . .      .  . .    . . .  . .      . .  . .        ...  . ..         . .    . . .  .         .     .   .  . ..    .",
"      ..    ..  ... ..  ..  .   ..     .  .      .  .   .  .  .  .  .      .   . .  .  .. .     ..    ..    ..     .     .     .     .     .    ..    .     .     .  .  .  .     .    ..    .  .  .  .  .  .    ..    .  .  .  .    ..    .  .  .  .    .  .  .  .    .     .  .    ..    .  .    .     .  .    .  .  .  .    .  .     .       .          .       .       .     .  .    .  .    .  .    .     .  .    .  .    .  .    .  .  .  .    .  .    .  .    .  .    .  .    .  .    .  .    .  .     .       .       .       .       .         .    .  .    .  .    .  .    .  .    .  .    .  .    .  .    . .  .    .  .    .  .    .  .      .  .    .  .    .  .    .         .       .            .       .      .  .    .  .      .  .    .    .    .  .    . .  .    .    .    .  .      .  .      .  .    . .  .    . .  .    . .  .      .  .      .  . .    .    .    . .  .      .  . .    . .  .      . .  .      . .  .      . .  . .    . .. . .  .   . ..   .        . .  . .    .   . ...  . . .        .   . . . . . . . .      .  .   ",
"..      ..        ..   .     .   .  .      .  ...    .  ..     .  .  .  .     ...    .  .. .  .     .     .     .     .     .     .     .     .     .  .  .  .  .  .     .    ..    .     .  .  .  .     .    .     .  .     .    .     .  .     .    .  .  .  .    .  .  .  .    .     .  .    .  .  .  .    .  .     .       .          .       .     .  .    .  .    .  .  .  .    .  .    .  .    .  .  .  .    .  .    .  .    .  .     .       .       .       .       .       .       .       .          .       .       .       .       .    .       .       .       .       .       .       .       .       . .    .  .    .  .    .  .    . .  .    .  .    .  .    .  . .    .  .    .  .    . .       .       .    .       .      .  .    .  . .    .  .    .    .    .  . .    .  .      .  .    . .  .    .    .    .    .    .    .    . .  .      .  .      .  . .    .    .    . .  .      .    .      .  . .      .  . .      .    .      .    .      . .    ...      . .  . .        ...    . .          . . ...    .   .     .  . .   ..  . ",
"  ..      .   ..  ... ... ..  .      .  ..  .  .. ..  .  .  .      .  .. .  .   . ..     .  .  .  .  .  .  .  .  .  .  .  .  .  .  .  .  .  .  .  .  .  .  .     .    ..    .     .  .  .  .     .    .     .  .  .  .    ..    .  .  .  .    .     .  .     .    .  .     .    .  .  .  .    .  .     .       .          .       .     .  .    .  .  .  .    .  .    .  .     .    .  .    .  .    .  .     .       .       .       .          .       .       .       .       .       .       .       .     .  .    .  .    .  .    .  .    .  .      .       .       .       .       .       .       .       .            .       .       .       . .    .  .    .  .    .  .      .  .    .  .    .  . .    .  .    .         .       .    .       .      .  .    .  . .    .  .      .  .    . .  .    .  . .    .  . .    .  . .    .  . .    .  . .    . .  .    . .  .      .  . .    .    .      .  . .    . .  .      . .  .      . .  . .    . .  . .      . .. . .  .   . .. . .        . .  . . .  .     . . .    . . . . ... ... . ... . .. .  . .",
".   .. ..  .            ..     .  ..  ..     .  ..     .  .  .  .      .. .  .  ..    .      .     .     .     .  .  .  .  .  .  .  .  .  .  .     .     .    ..    .     .  .  .  .     .    .     .  .  .  .     .    .     .  .     .    .  .  .  .    .     .  .    ..    .  .     .       .          .       .     .  .    .  .  .  .    .  .     .    .  .    .  .    ..       .       .       .          .       .       .       .     .  .    .  .    .  .    .  .    .  .    .  .    .  .    .  .     .       .       .       .       .      .  .    .  .    .  .    .  .    .  .    .  .    .  .    .  .      .       .       .       .            .       .       .      .  .    .  .    .  .      .  .    .  . .    .  .    .  .      .       .    .       .      .  .    . .  .    .  . .    .  .      .  .      .  .      .  .      .  .      .  . .    .    .    . .  .      .  . .    . .  .      .  . .      .  . .      .  . .      .    .      . .  . .      . .  . ..       . .  . .        . . .  . . . .          .         .    .  .    .",
"...   ..... ..  ..  ..  ..  .   .      .. .      .  .      .  .. .  .   .  .     .  .  .  .     ..    ..    ..     .     .     .     .     .    ..    .     .     .  .  .  .     .    ..    .  .  .  .  .  .    ..    .  .  .  .    ..    .  .  .  .    .  .  .  .    .        .          .       .     .  .    .  .  .  .    .  .     .    .  .    .        .       .          .       .       .       .     .  .    .  .    .  .    .  .     .       .       .       .       .       .       .       .          .       .       .       .       .    .       .       .       .       .       .       .       .      .  .    .  .    .  .    .  .      .       .       .       .    .       .       .      .  .    .  .      .  .    .  .      .  .    .         .       .    .         .    .  .      .  .      .  .    . .  .    . .  .    . .  .      .  .      .  . .    .    .    . .  .      .  . .    . .  .      . .  .      . .  .      . .  . .    . .  . .      . .  . .    .   . .. . .        . . .. . . ..           . . . . . . . .     .. ..   ",
".....   ...    .             .   .  .   .. .  .      .  .      .. .  .  ..    ..     .  .  .  .     .     .     .     .     .     .     .     .     .  .  .  .  .  .     .    ..    .     .  .  .  .     .    .     .  .     .    .     .  .     .    .  .     .       .  .       .     .  .    .  .  .  .    .  .  .  .    .  .    ..       .       .  .       .       .     .  .    .  .    .  .    .  .     .       .       .       .  .       .       .       .       .       .       .       .       ..    .  .    .  .    .  .    .  .    .  .      .       .       .       .       .       .       .       .    .       .       .       .      .  .    .  .    .  .    .  .      .       .       .    .       .      .  .    .  .      .  .    .  . .    .  .    .         .    .       .      .  .    . .  .    .    .    .    .    .    .    . .  .      .  .      .  . .    .    .    . .  .      .    .      .  . .      .  . .      .    .      .    .        .    . .      ...  . ..       . .    . .      .   . ... .      .     .   .. . .  .  . ",
"  ..      ... ... ..  ..  ..  ...    .  ..  .  .  ..  .. .  .   .  .  .  .  .     ..     .  .  .  .  .  .  .  .  .  .  .  .  .  .  .  .  .  .  .  .  .  .  .     .    ..    .     .  .  .  .     .    .     .  .  .  .    ..    .  .  .  .    .        .          .        .    .  .  .  .    .  .     .    .  .     .       .          .       .     .  .    .  .    .  .     .       .       .       .  .       .       .       .        .    .  .    .  .    .  .    .  .    .  .    .  .    .  .    .     .  .    .  .    .  .    .  .    .  .      .  .    .  .    .  .    .  .    .  .    .  .    .  .    .  .      .       .       .       .    .       .       .       .      .  .    .  .    .  .      .       .    .       .      .  .    .  .      .  .    .  . .    .  .      .       .    .       . .    .  . .    .  . .    .  . .    .  . .    . .  .    . .  .      .  . .    .    .      .  . .    . .  .      . .  .      . .  . .    . .  . .      . .  . .      . .  . .    .   . .. . . .        . ...    . . . . . . . . ... . .  .   ..  ",
"    ..     .    ..             .. ..  .      .  .      .. .  .  ..     .  .  .  .     .      .     .     .     .  .  .  .  .  .  .  .  .  .  .     .     .    ..    .     .  .  .  .     .    .     .  .  .  .     .    .     .  .     .       .  .       .     .  .    ..    .  .     .    .  .    ..       .          .       .     .  .    .  .     .       .       .          .       .       .        .    .  .    .  .    .  .    .     .  .    .  .    .  .    .  .    .  .    .  .    .  .    .  .  .  .    .  .    .  .    .  .    .  .    . .  .    .  .    .  .    .  .    .  .    .  .    .  .    .  .      .  .    .  .    .  .    .  .      .       .       .       .    .       .       .      .  .    .  .      .       .    .       .      .  .    .  .      .  .    . .  .    .  .      .            .      .  .      .  .      .  .      .  . .    .    .    . .  .      .  . .    . .  .      .  . .      .  . .      .  . .      .    .      . .  . .      . .  . .        ...  . ..         . .    . . .  .               .   .  . ..    .",
"      ..    ..  ..  ..  ..  .   ..     .  .      .  .   .  .  .  .  .      .     .  .  .  .     ..    ..    ..     .     .     .     .     .    ..    .     .     .  .  .  .     .    ..    .  .  .  .  .  .    ..    .  .     .          .     .  .    .  .  .  .    .     .  .    ..       .          .       .     .  .    .  .     .       .          .       .       .     .  .    .  .    .  .    .     .  .    .  .    .  .    .  .  .  .    .  .    .  .    .  .    .  .    .  .    .  .    .  .     .       .       .       .       .         .    .  .    .  .    .  .    .  .    .  .    .  .    .  .    . .  .    .  .    .  .    .  .      .  .    .  .    .  .    .         .       .            .       .      .  .    .  .      .       .    .       .      .  .    .    .    .  .      .  .      .       .    .      .  .    . .  .      .  .      .  . .    .    .    . .  .      .  . .    . .  .      . .  .      . .  .      . .  . .    . .  . .      . .    .        . .  . .    .   . ...  . . .        .   . . . . . . . .      .  .   ",
"..      ..             .     .   .  .      .  ...    .  ..     .  .  .  .     ..     .  .  .  .     .     .     .     .     .     .     .     .     .  .  .  .  .  .     .    ..    .     .  .  .  .     .    .        .          .     .  .     .    .  .  .  .    .  .     .          .       .     .  .    .  .     .       .          .       .     .  .    .  .    .  .  .  .    .  .    .  .    .  .  .  .    .  .    .  .    .  .     .       .       .       .       .       .       .       .          .       .       .       .       .    .       .       .       .       .       .       .       .       . .    .  .    .  .    .  .    . .  .    .  .    .  .    .  . .    .  .    .  .    . .       .       .    .       .      .  .    .  .      .       .    .       . .    .  .      .  .    . .  .    .         .    .         .    . .  .      .  .      .  . .    .    .    . .  .      .    .      .  . .      .  . .      .    .      .    .        .    . .      . .  . .        ...    . .          . . ...    .         .  . .   ..  . ",
"  ..      .   ..  ..  ... ..  .      .  ..  .  .. ..  .  .  .      .  .  .  .     ..     .  .  .  .  .  .  .  .  .  .  .  .  .  .  .  .  .  .  .  .  .  .  .     .    ..    .     .  .  .  .     .    .        .  .       ..    .  .  .  .    .     .  .     .       .          .     .  .    .  .     .       .          .       .     .  .    .  .  .  .    .  .    .  .     .    .  .    .  .    .  .     .       .       .       .          .       .       .       .       .       .       .       .     .  .    .  .    .  .    .  .    .  .      .       .       .       .       .       .       .       .            .       .       .       . .    .  .    .  .    .  .      .  .    .  .    .  . .    .  .    .         .       .    .       .      .  .    .  .      .            .      .  .    .  . .    .  . .    .  .      .    .       . .    . .  .    . .  .      .  . .    .    .      .  . .    . .  .      . .  .      . .  . .    . .  . .      . .  . .      . .  . .        . .  . . .  .     . . .    . . . . ... . . . . . . .. .  . .",
".   .. ..  .            ..     .  ..  ..     .  ..     .  .  .  .      .  .  .  .     .      .     .     .     .  .  .  .  .  .  .  .  .  .  .     .     .    ..    .     .  .  .  .     .    .        .  .        .    .     .  .     .    .  .     .          .       ..    .  .     .       .          .       .     .  .    .  .  .  .    .  .     .    .  .    .  .    ..       .       .       .          .       .       .       .     .  .    .  .    .  .    .  .    .  .    .  .    .  .    .  .     .       .       .       .       .      .  .    .  .    .  .    .  .    .  .    .  .    .  .    .  .      .       .       .       .            .       .       .      .  .    .  .    .  .      .  .    .  . .    .  .    .  .      .       .    .       .      .  .    . .       .    .       .      .  .      .  .      .  .      .            . .    .    .    . .  .      .  . .    . .  .      .  . .      .  . .      .  . .      .    .      . .  . .      . .  . .        . .  . .        . . .  . . . .          .              .  .    .",
"...   ....  ..  ..  ..  ..  .   .      .. .      .  .      .  .  .  .      .     .  .  .  .     ..    ..    ..     .     .     .     .     .    ..    .     .     .  .  .  .     .    ..       .  .     .  .    ..    .  .  .  .    ..       .  .       .     .  .    .        .          .       .     .  .    .  .  .  .    .  .     .    .  .    .        .       .          .       .       .       .     .  .    .  .    .  .    .  .     .       .       .       .       .       .       .       .          .       .       .       .       .    .       .       .       .       .       .       .       .      .  .    .  .    .  .    .  .      .       .       .       .    .       .       .      .  .    .  .      .  .    .  .      .  .    .         .       .    .         .    .  .      .            .      .  .    . .  .    . .  .      .            . .    .    .    . .  .      .  . .    . .  .      . .  .      . .  .      . .  . .    . .  . .      . .    .        . .  . .        . . .. . . ..           . . . . . . . .     .. ..   ",
".....   ..     .             .   .  .   .. .  .      .  .      .  .  .  .     ..     .  .  .  .     .     .     .     .     .     .     .     .     .  .  .  .  .  .     .    ..          .     .  .     .    .     .  .     .          .        .    .  .     .       .  .       .     .  .    .  .  .  .    .  .  .  .    .  .    ..       .       .  .       .       .     .  .    .  .    .  .    .  .     .       .       .       .  .       .       .       .       .       .       .       .       ..    .  .    .  .    .  .    .  .    .  .      .       .       .       .       .       .       .       .    .       .       .       .      .  .    .  .    .  .    .  .      .       .       .    .       .      .  .    .  .      .  .    .  . .    .  .    .         .    .       .      .  .    . .       .    .         .    .    .    . .  .      .            . .    .    .    . .  .      .    .      .  . .      .  . .      .    .      .    .        .    . .      . .  . .        . .    . .      .   . ... .      .     .    . . .  .  . ",
"  ..      .   ... ..  ..  ..  ...    .  ..  .  .  ..  .  .  .      .  .  .  .     ..     .  .  .  .  .  .  .  .  .  .  .  .  .  .  .  .  .  .  .  .  .  .  .     .    ..          .     .  .     .    .     .  .     .          .     .  .    .        .          .        .    .  .  .  .    .  .     .    .  .     .       .          .       .     .  .    .  .    .  .     .       .       .       .  .       .       .       .        .    .  .    .  .    .  .    .  .    .  .    .  .    .  .    .     .  .    .  .    .  .    .  .    .  .      .  .    .  .    .  .    .  .    .  .    .  .    .  .    .  .      .       .       .       .    .       .       .       .      .  .    .  .    .  .      .       .    .       .      .  .    .  .      .  .    .  . .    .  .      .       .    .       . .    .  .      .    .       . .    .  . .    . .  .    . .            . .    .    .      .  . .    . .  .      . .  .      . .  . .    . .  . .      . .  . .      . .  . .        . .  . . .        . ...    . . . . . . . . ... . .  .   ..  ",
"    ..     .    ..             .. ..  .      .  .      .  .  .  .      .  .  .  .     .      .     .     .     .  .  .  .  .  .  .  .  .  .  .     .     .    ..          .     .  .     .    .     .  .     .          .     .  .     .       .  .       .     .  .    ..    .  .     .    .  .    ..       .          .       .     .  .    .  .     .       .       .          .       .       .        .    .  .    .  .    .  .    .     .  .    .  .    .  .    .  .    .  .    .  .    .  .    .  .  .  .    .  .    .  .    .  .    .  .    . .  .    .  .    .  .    .  .    .  .    .  .    .  .    .  .      .  .    .  .    .  .    .  .      .       .       .       .    .       .       .      .  .    .  .      .       .    .       .      .  .    .  .      .  .    . .  .    .  .      .            .      .  .      .            .      .  . .    .    .    . .            . .    . .  .      .  . .      .  . .      .  . .      .    .      . .  . .      . .  . .        . .  . .          . .    . . .  .               .      . ..    .",
"      ..    ..  ..  ..  ..  .   ..     .  .      .  .      .  .  .  .      .     .  .  .  .     ..    ..    ..     .     .     .     .     .    ..    .           .     .  .     .    ..    .  .     .  .       ..    .  .     .          .     .  .    .  .  .  .    .     .  .    ..       .          .       .     .  .    .  .     .       .          .       .       .     .  .    .  .    .  .    .     .  .    .  .    .  .    .  .  .  .    .  .    .  .    .  .    .  .    .  .    .  .    .  .     .       .       .       .       .         .    .  .    .  .    .  .    .  .    .  .    .  .    .  .    . .  .    .  .    .  .    .  .      .  .    .  .    .  .    .         .       .            .       .      .  .    .  .      .       .    .       .      .  .    .    .    .  .      .  .      .       .    .      .  .    . .            .      .  . .    .    .    . .            . .    . .  .      . .  .      . .  .      . .  . .    . .  . .      . .    .        . .  . .        . . .  . . .        .   . . . . . . . .      .  .   ",
"..      ..             .     .   .  .      .  .      .  .      .  .  .  .     ..     .  .  .  .     .     .     .     .     .     .     .     .        .  .     .  .     .    ..    .        .  .        .    .        .          .     .  .     .    .  .  .  .    .  .     .          .       .     .  .    .  .     .       .          .       .     .  .    .  .    .  .  .  .    .  .    .  .    .  .  .  .    .  .    .  .    .  .     .       .       .       .       .       .       .       .          .       .       .       .       .    .       .       .       .       .       .       .       .       . .    .  .    .  .    .  .    . .  .    .  .    .  .    .  . .    .  .    .  .    . .       .       .    .       .      .  .    .  .      .       .    .       . .    .  .      .  .    . .  .    .         .    .         .    . .            .      .  . .    .    .    . .              .      .  . .      .  . .      .    .      .    .        .    . .      . .  . .        . .    . .          . . ...    .         .  . .    .  . ",
"  ..      .   ..  ..  ... ..  .      .  ..  .  .  ..  .  .  .      .  .  .  .     ..     .  .  .  .  .  .  .  .  .  .  .  .  .  .  .  .  .     .  .     .  .     .    ..    .        .  .        .    .        .  .       ..    .  .  .  .    .     .  .     .       .          .     .  .    .  .     .       .          .       .     .  .    .  .  .  .    .  .    .  .     .    .  .    .  .    .  .     .       .       .       .          .       .       .       .       .       .       .       .        .       .       .       .       .      .       .       .       .       .       .       .       .            .       .       .       . .    .  .    .  .    .  .      .  .    .  .    .  . .    .  .    .         .       .    .       .      .  .    .  .      .            .      .  .    .  . .    .  . .    .  .      .    .       . .    . .       .    .      .  . .    .    .      .    .      .  .      . .  .      . .  . .    . .  . .      . .  . .      . .  . .        . .  . . .        . . .    . . . . ... . . . . . . ..    . .",
".   .. ..  .            ..     .  ..  .      .  .      .  .  .  .      .  .  .  .     .      .     .     .     .  .  .  .  .  .  .     .  .        .     .    ..    .        .  .        .    .        .  .        .    .     .  .     .    .  .     .          .       ..    .  .     .       .          .       .     .  .    .  .  .  .    .  .     .    .  .    .  .    ..       .       .       .          .       .       .       .        .       .       .       .       .       .       .       .                                               .       .       .       .       .       .       .       .      .       .       .       .            .       .       .      .  .    .  .    .  .      .  .    .  . .    .  .    .  .      .       .    .       .      .  .    . .       .    .       .      .  .      .  .      .  .      .            . .    .         .    .      .  . .    . .  .      .    .      .  . .      .  . .      .    .      . .  . .      . .  . .        . .  . .          . .    . . .          .              .  .    .",
"..    ....  ..  ..  ..  ..  .   .      .  .      .  .      .  .  .  .      .     .  .  .  .     ..    ..    ..     .     .     .           .    ..    .     .        .  .        .    ..       .  .     .  .    ..    .  .  .  .    ..       .  .       .     .  .    .        .          .       .     .  .    .  .  .  .    .  .     .    .  .    .        .       .          .       .       .       .        .       .       .       .                                                                        .       .       .       .       .                                                                      .       .       .       .      .       .       .       .    .       .       .      .  .    .  .      .  .    .  .      .  .    .         .       .    .         .    .  .      .            .      .  .    . .  .    . .  .      .            . .    .         .    .      .  . .    . .  .      .    .      . .  .      . .  . .    . .  . .      . .    .        . .  . .        . . .  . . .            . . . . . . . .     ..  .   ",
"..      ..     .             .   .  .      .  .      .  .      .  .  .  .     ..     .  .  .  .     .     .     .     .           .     .     .     .  .     .  .        .    ..          .     .  .     .    .     .  .     .          .        .    .  .     .       .  .       .     .  .    .  .  .  .    .  .  .  .    .  .    ..       .       .  .       .       .        .       .       .       .                                .       .       .       .       .       .       .       .       ..       .       .       .       .       .      .       .       .       .       .       .       .       .                                      .       .       .       .      .       .       .    .       .      .  .    .  .      .  .    .  . .    .  .    .         .    .       .      .  .    . .       .    .         .    .    .    . .  .      .            . .    .         .    .      .    .      .  .           . .      .    .      .    .        .    . .      . .  . .        . .    . .          . . . .      .     .    . . .  .  . ",
"  ..      .   ... ..  ..  ..  .      .  ..  .  .  ..  .  .  .      .  .  .  .     ..     .  .  .  .  .  .  .  .  .     .  .     .  .  .  .  .  .     .  .        .    ..          .     .  .     .    .     .  .     .          .     .  .    .        .          .        .    .  .  .  .    .  .     .    .  .     .       .          .       .        .       .       .                                .       .       .       .        .       .       .       .       .       .       .       .          .       .       .       .       .            .       .       .       .       .       .       .       .      .       .       .       .                                      .       .       .      .       .    .       .      .  .    .  .      .  .    .  . .    .  .      .       .    .       . .    .  .      .    .       . .    .  . .    . .  .    . .            . .    .              . .    . .  .      . .           .  . .    . .  . .      . .  . .      . .  . .        . .  . . .        . . .    . . . . . . . . ... . .  .    .  ",
"    ..     .    ..             .  ..  .      .  .      .  .  .  .      .  .  .  .     .      .     .     .     .  .     .  .  .  .  .  .     .           .    ..          .     .  .     .    .     .  .     .          .     .  .     .       .  .       .     .  .    ..    .  .     .    .  .    ..       .          .       .        .       .                                .       .       .        .       .       .       .          .       .       .       .       .       .       .       .     .  .    .  .    .  .    .  .    .  .    . .       .       .       .       .       .       .       .            .       .       .       .      .       .       .       .                              .       .      .       .    .       .      .  .    .  .      .  .    . .  .    .  .      .            .      .  .      .            .      .  . .    .    .    . .            . .    . .            . .      .  . .      .    .      .    .      . .  . .      . .  . .        . .  . .          . .    . . .                  .      . ..    .",
"      ..    ..  ..  ..  ..  .   .      .  .      .  .      .  .  .  .      .     .  .  .  .     ..    ..           .     .     .     .          ..    .           .     .  .     .    ..    .  .     .  .       ..    .  .     .          .     .  .    .  .  .  .    .     .  .    ..       .          .       .        .       .                        .       .       .        .       .       .          .       .       .       .     .  .    .  .    .  .    .  .    .  .    .  .    .  .    .  .     .       .       .       .       .         .    .  .    .  .    .  .    .  .    .  .    .  .    .  .    . .       .       .       .            .       .       .              .       .                              .       .      .       .    .       .      .  .    .    .    .  .      .  .      .       .    .      .  .    . .            .      .  . .    .    .    . .            . .    . .           .  .      . .  .      .    . .    . .  . .      . .    .        . .  . .        . . .  . . .            . . . . . . . .      .  .   ",
"..      ..                   .   .  .      .  .      .  .      .  .  .  .     ..     .  .  .  .           .     .     .     .           .     .        .  .     .  .     .    ..    .        .  .        .    .        .          .     .  .     .    .  .  .  .    .  .     .          .       .        .       .                        .       .        .       .       .  .       .       .       .     .  .    .  .    .  .    .  .     .       .       .       .       .       .       .       .          .       .       .       .       .    .       .       .       .       .       .       .       .       . .    .  .    .  .    .  .    . .       .       .       .    .       .       .      .       .       .                      .       .      .       .    .       . .    .  .      .  .    . .  .    .         .    .         .    . .            .      .  . .    .    .    . .              .      .    .      .  . .      .                .        .    . .      . .  . .        . .    . .          . . . .              .  . .    .  . ",
"  ..      .   ..  ..  ..  ..  .      .  ..  .  .  ..  .  .  .      .  .  .  .     ..     .     .  .     .  .  .  .  .  .     .  .     .  .     .  .     .  .     .    ..    .        .  .        .    .        .  .       ..    .  .  .  .    .     .  .     .       .          .        .       .                        .       .        .       .  .       .       .        .    .  .    .  .    .  .     .       .       .       .          .       .       .       .       .       .       .       .        .       .       .       .       .      .       .       .       .       .       .       .       .            .       .       .       . .    .  .    .  .    .  .      .       .       .    .       .              .       .                      .       .      .            .      .  .    .  . .    .  . .    .  .      .    .       . .    . .       .    .      .  . .    .    .      .    .      .  .      .    .      . .  . .    . .    .      . .  . .      . .  . .        . .  . . .        . . .    . . . . . . . . . . . . ..    . .",
".   .. ..  .                   .  ..  .      .  .      .  .  .  .      .  .  .  .     .            .     .     .     .  .     .  .     .  .        .     .    ..    .        .  .        .    .        .  .        .    .     .  .     .    .  .     .          .       ..       .                        .       .        .       .  .       .        .    .  .    .  .    ..       .       .       .          .       .       .       .        .       .       .       .       .       .       .       .                                               .       .       .       .       .       .       .       .      .       .       .       .            .       .       .      .  .    .  .    .  .      .       .    .       .       .      .       .                      .      .       .    .       .      .  .      .  .      .  .      .            . .    .         .    .      .  . .    . .  .      .    .      .  .           . .      .    .      .    . .      . .  . .        . .  . .          . .    . . .                         .  .    .",
"..    ....  ..  ..  ..  ..  .   .      .  .      .  .      .  .  .  .      .     .     .  .     ..    ..    ..           .     .           .    ..    .     .        .  .        .    ..       .  .     .  .    ..    .  .  .  .    ..       .  .       .        .                        .       .        .       .  .       .        .    .  .    .        .       .          .       .       .       .        .       .       .       .                                                                        .       .       .       .       .                                                                      .       .       .       .      .       .       .       .    .       .       .      .  .    .  .      .       .            .              .       .              .       .      .            .      .  .    . .  .    . .  .      .            . .    .         .    .      .  . .    . .  .      .    .      . .           .  . .    . .  .          .    .        . .  . .        . . .  . . .            . . . . . . . .     ..  .   ",
"..      ..                   .   .  .      .  .      .  .      .  .  .  .     ..        .  .  .     .           .     .           .     .     .     .  .     .  .        .    ..          .     .  .     .    .     .  .     .          .        .       .                .       .        .       .  .       .     .  .    .  .    ..       .       .  .       .       .        .       .       .       .                                .       .       .       .       .       .       .       .       ..       .       .       .       .       .      .       .       .       .       .       .       .       .                                      .       .       .       .      .       .       .    .       .      .  .    .  .      .       .    .       .              .                      .      .       .    .         .    .    .    . .  .      .            . .    .         .    .      .    .      .  .           . .      .    .      .    .        .    . .      . .  . .        . .    . .          . . . .                 . . .  .  . ",
"  ..      .   ..  ..  ..  ..  .      .  ..  .  .  ..  .  .  .      .  .  .        ..     .  .  .     .  .     .  .     .  .     .  .  .  .  .  .     .  .        .    ..          .     .  .     .    .     .  .     .          .        .                        .        .       .  .       .        .    .  .     .       .          .       .        .       .       .                                .       .       .       .        .       .       .       .       .       .       .       .          .       .       .       .       .            .       .       .       .       .       .       .       .      .       .       .       .                                      .       .       .      .       .    .       .      .  .    .  .      .       .    .       .      .       .              .       .      .    .       . .    .  . .    . .  .    . .            . .    .              . .    . .  .      . .           .  .      .    . .      . .  .          .  . .        . .  . . .        . . .    . . . . . . . . . . . .  .    .  ",
"    ..     .                   .  ..  .      .  .      .  .  .  .      .  .     .     .      .           .     .  .     .  .  .  .  .  .     .           .    ..          .     .  .     .    .     .  .     .          .        .                .       .        .          .        .    .  .    ..       .          .       .        .       .                                .       .       .        .       .       .       .          .       .       .       .       .       .       .       .     .  .    .  .    .  .    .  .    .  .    . .       .       .       .       .       .       .       .            .       .       .       .      .       .       .       .                              .       .      .       .    .       .      .  .    .  .      .       .    .       .      .                      .      .            .      .  . .    .    .    . .            . .    . .            . .      .  . .      .    .      .             .  . .      . .    .        . .  . .          . .    . . .                         . ..    .",
"      ..    ..  ..  ..  ..  .   .      .  .      .  .      .  .  .         .     .  .  .        ..    ..           .     .     .     .          ..    .           .     .  .     .    ..    .  .     .  .       ..       .                .        .       .  .       .     .  .    ..       .          .       .        .       .                        .       .       .        .       .       .          .       .       .       .     .  .    .  .    .  .    .  .    .  .    .  .    .  .    .  .     .       .       .       .       .         .    .  .    .  .    .  .    .  .    .  .    .  .    .  .    . .       .       .       .            .       .       .              .       .                              .       .      .       .    .       .      .  .    .         .            .      .       .              .      .            .      .  . .    .    .    . .            . .    . .           .  .      . .  .      .    . .    . .    .      . .    .          .  . .        . . .  . . .            . . . . . . . .      .  .   ",
"..      ..                   .   .  .      .  .      .  .      .  .     .     ..     .  .     .           .     .     .     .           .     .        .  .     .  .     .    ..    .        .  .        .                        .        .          .     .  .    .  .     .          .       .        .       .                        .       .        .       .       .  .       .       .       .     .  .    .  .    .  .    .  .     .       .       .       .       .       .       .       .          .       .       .       .       .    .       .       .       .       .       .       .       .       . .    .  .    .  .    .  .    . .       .       .       .    .       .       .      .       .       .                      .       .      .       .    .       . .    .  .      .       .    .              .              .      .            .      .  . .    .    .    . .              .      .    .      .  . .      .                .             . .      . .    .        . .    . .          . . . .                 . .    .  . ",
"  ..      .   ..  ..  ..  ..  .      .  ..  .  .  ..  .  .         .  .  .  .            .     .  .     .  .  .  .  .  .     .  .     .  .     .  .     .  .     .    ..    .        .  .        .                .       ..       .  .       .     .  .     .       .          .        .       .                        .       .        .       .  .       .       .        .    .  .    .  .    .  .     .       .       .       .          .       .       .       .       .       .       .       .        .       .       .       .       .      .       .       .       .       .       .       .       .            .       .       .       . .    .  .    .  .    .  .      .       .       .    .       .              .       .                      .       .      .            .      .  .    .  .      .    .       .      .              .      .       .    .      .  . .    .    .      .    .      .  .      .    .      . .  . .    . .    .      . .    .      . .  . .          .  . . .        . . .    . . . . . . . . . . . .  .    . .",
".   ..     .                   .  ..  .      .  .      .  .     .      .     .  .     .            .     .     .     .  .     .  .     .  .        .     .    ..    .        .  .        .                .        .          .        .    .  .     .          .       ..       .                        .       .        .       .  .       .        .    .  .    .  .    ..       .       .       .          .       .       .       .        .       .       .       .       .       .       .       .                                               .       .       .       .       .       .       .       .      .       .       .       .            .       .       .      .  .    .  .    .  .      .       .    .       .       .      .       .                      .      .       .    .       .      .  .      .            .      .              .              .    .      .  . .    . .  .      .    .      .  .           . .      .    .      .    . .      .    . .        . .    .          . .    . . .                         .  .    .",
"..    ..    ..  ..  ..  ..  .   .      .  .      .         .  .  .  .            .     .  .     ..    ..    ..           .     .           .    ..    .     .        .  .        .                .        .          .     .  .    ..       .  .       .        .                        .       .        .       .  .       .        .    .  .    .        .       .          .       .       .       .        .       .       .       .                                                                        .       .       .       .       .                                                                      .       .       .       .      .       .       .       .    .       .       .      .  .    .  .      .       .            .              .       .              .       .      .            .      .  .    . .       .    .      .              .              .    .      .  . .    . .  .      .    .      . .           .  . .    . .  .          .             . .  . .          . .  . . .            . . . . . . . .      .  .   ",
"..      ..                   .   .  .      .  .         .      .     .  .     ..        .  .  .     .           .     .           .     .     .     .  .     .  .        .                .        .          .     .  .     .          .        .       .                .       .        .       .  .       .     .  .    .  .    ..       .       .  .       .       .        .       .       .       .                                .       .       .       .       .       .       .       .       ..       .       .       .       .       .      .       .       .       .       .       .       .       .                                      .       .       .       .      .       .       .    .       .      .  .    .  .      .       .    .       .              .                      .      .       .    .         .    .         .    .      .              .              .    .      .    .      .  .           . .      .    .      .    .        .    . .      .    . .        . .    . .          . . . .                 . .    .  . ",
"  ..      .   ..  ..  ..  ..  .      .  ..     .  ..  .  .  .         .  .        ..     .  .  .     .  .     .  .     .  .     .  .  .  .  .  .     .  .        .                .        .          .     .  .     .          .        .                        .        .       .  .       .        .    .  .     .       .          .       .        .       .       .                                .       .       .       .        .       .       .       .       .       .       .       .          .       .       .       .       .            .       .       .       .       .       .       .       .      .       .       .       .                                      .       .       .      .       .    .       .      .  .    .  .      .       .    .       .      .       .              .       .      .    .       . .    .  .      .    .      .              .                   . .    . .  .      . .           .  .      .    . .      . .  .          .  .          . .  . .          . . .    . . . . . . . . . . . .  .    .  ",
"    ..     .                   .  ..  .         .      .     .  .      .  .     .     .      .           .     .  .     .  .  .  .  .  .     .           .                .        .          .     .  .     .          .        .                .       .        .          .        .    .  .    ..       .          .       .        .       .                                .       .       .        .       .       .       .          .       .       .       .       .       .       .       .     .  .    .  .    .  .    .  .    .  .    . .       .       .       .       .       .       .       .            .       .       .       .      .       .       .       .                              .       .      .       .    .       .      .  .    .  .      .       .    .       .      .                      .      .            .      .  .      .    .      .              .      .            . .      .  . .      .    .      .             .  . .      . .    .        .    . .          .      . . .                         .  .    .",
"      ..    ..  ..  ..  ..  .   .      .  .      .  .         .  .         .     .  .  .        ..    ..           .     .     .     .          ..                .        .          ..    .  .     .  .       ..       .                .        .       .  .       .     .  .    ..       .          .       .        .       .                        .       .       .        .       .       .          .       .       .       .     .  .    .  .    .  .    .  .    .  .    .  .    .  .    .  .                                               .    .  .    .  .    .  .    .  .    .  .    .  .    .  .    . .       .       .       .            .       .       .              .       .                              .       .      .       .    .       .      .  .    .         .            .      .       .              .      .            .      .  .      .    .      .              .      .           .  .      . .  .      .    . .    . .    .      . .    .          .  .          . . .  .   .            . . . . . . . .      .  .   ",
"..      ..                   .   .         .  .      .  .      .  .     .     ..     .  .     .           .     .     .     .           .                 .        .          ..    .        .  .        .                        .        .          .     .  .    .  .     .          .       .        .       .                        .       .        .       .       .  .       .       .       .     .  .    .  .    .  .    .  .                                                                        .       .       .       .       .                                                                      .    .  .    .  .    .  .    . .       .       .       .    .       .       .      .       .       .                      .       .      .       .    .       . .    .  .      .       .    .              .              .      .            .      .  .      .    .      .              .      .    .      .  . .      .                .             . .      . .    .        .      . .            . . .                 . .    .  . ",
"  ..      .   ..  ..  ..  ..  .         ..  .  .      .  .         .  .  .  .            .     .  .     .  .  .  .  .  .     .  .        .        .        .          ..    .        .  .        .                .       ..       .  .       .     .  .     .       .          .        .       .                        .       .        .       .  .       .       .        .    .  .    .  .    .  .                                        .       .       .       .       .       .       .       .                                               .       .       .       .       .       .       .       .                                      .    .  .    .  .    .  .      .       .       .    .       .              .       .                      .       .      .            .      .  .    .  .      .    .       .      .              .      .       .    .      .  .      .    .      .              .      .    .      . .  . .    . .    .      . .    .      . .  . .          .  .   .        . . .    . . . . . . . . . . . .  .    .  ",
"    ..     .                   .  ..  .      .  .      .  .     .      .     .  .     .            .     .     .     .  .        .        .        .          ..    .        .  .        .                .        .          .        .    .  .     .          .       ..       .                        .       .        .       .  .       .        .    .  .    .  .    .                                   .       .       .       .                                                                                                                                                                               .       .       .       .                                   .  .    .  .    .  .      .       .    .       .       .      .       .                      .      .       .    .       .      .  .      .            .      .              .              .    .      .  .      .    .      .              .           . .      .    .      .    . .      .    . .        . .    .            .    . .                           .  .    .",
"      ..    ..  ..  ..  ..      .      .         .         .  .  .  .            .     .  .     ..    ..    ..           .                 .          .     .        .  .        .                .        .          .     .  .    ..       .  .       .        .                        .       .        .       .  .       .        .    .  .    .                           .       .       .       .                                                                                                                                                                                                                                               .       .       .       .                           .  .    .  .      .       .            .              .       .              .       .      .            .      .  .    . .       .    .      .              .              .    .      .  .      .    .      .             .           .  . .    . .  .          .             . .  . .          . .    . .              . . . . . . .      .  .   ",
"..      ..                       .  .         .         .      .     .  .     ..        .  .  .     .           .                 .           .     .  .     .  .        .                .        .          .     .  .     .          .        .       .                .       .        .       .  .       .     .  .    .  .    .                   .       .       .                                                                                                                                                                                                                                                                                                               .       .       .                   .  .    .  .      .       .    .       .              .                      .      .       .    .         .    .         .    .      .              .              .    .      .              .             .      .    .      .    .        .    . .      .    . .        . .    . .          . . . .                 . .    .  . ",
"  ..      .   ..  ..  ..  ..  .      .  ..     .  ..  .  .  .         .  .        ..     .  .  .     .  .        .        .        .  .     .  .     .  .        .                .        .          .     .  .     .          .        .                        .        .       .  .       .        .    .  .                        .       .                                                                                                                                                             .       .       .       .       .                                                                                                                                                                 .       .                   .  .    .  .      .       .    .       .      .       .              .       .      .    .       . .    .  .      .    .      .              .                   . .    . .           .              .      .    . .      . .  .          .  .          . .  . .          . .      . . .   . . . . . . . .  .    .  ",
"    ..     .                   .      .         .      .     .  .      .  .     .     .      .           .        .        .  .     .  .     .           .                .        .          .     .  .     .          .        .                .       .        .          .        .    .  .    .                   .       .                                                                                                             .       .       .       .       .       .       .       .        .       .       .       .       .      .       .       .       .       .       .       .       .                                                                                                                 .       .                   .  .    .  .      .       .    .       .      .                      .      .            .      .  .      .    .      .              .      .            . .      .    .      .                         .  . .      . .    .        .    . .          .      .   .                         .  .    .",
"      ..    ..  ..      ..  .   .      .  .      .  .         .  .         .     .  .  .        ..                 .           .     .          ..                .        .          ..    .  .     .  .       ..       .                .        .       .  .       .     .  .    .                   .       .                                                                                             .       .       .       .        .       .       .       .       .       .       .       .                                               .       .       .       .       .       .       .       .      .       .       .       .                                                                                                 .       .                   .  .    .         .            .      .       .              .      .            .      .  .      .    .      .              .      .           .  .      .    .      .      .      .    .      . .    .          .  .          . . .  .   .            . . . .   . . .      .  .   ",
"..      ..                   .   .         .  .      .  .      .  .     .     ..     .  .                 .           .     .           .                 .        .          ..    .        .  .        .                        .        .          .     .  .    .  .                .       .                                                                             .       .       .       .        .       .       .       .                                                                        .       .       .       .       .                                                                      .       .       .       .      .       .       .       .                                                                                 .       .              .    .  .      .       .    .              .              .      .            .      .  .      .    .      .              .      .    .      .  .                         .             . .      . .    .        .      . .            . .                   . .    .  . ",
"  ..      .   ..  ..  ..      .         ..  .  .      .  .         .  .  .  .            .        .        .  .     .  .     .  .        .        .        .          ..    .        .  .        .                .       ..       .  .       .     .  .                        .                                                                     .       .       .        .       .       .       .                                        .       .       .       .       .       .       .       .                                               .       .       .       .       .       .       .       .                                      .       .       .       .      .       .       .                                                                         .                   .  .    .  .      .    .       .      .              .      .       .    .      .  .      .    .      .              .      .    .      . .    .      .             .    .      . .  . .          .  .   .        . . .    . .   . . . .   . . . .  .    .  ",
"    ..     .                   .  ..  .      .  .      .  .     .      .     .  .                  .           .     .  .        .        .        .          ..    .        .  .        .                .        .          .        .    .  .                .       .                                                             .       .        .       .       .                                        .       .       .       .                                                                                                                                                                               .       .       .       .                                      .       .       .      .       .                                                                 .       .                   .  .      .            .      .              .              .    .      .  .      .    .      .              .           . .      .    .      .      .      .    . .        . .    .            .    . .                           .  .    .",
"      ..        ..  ..  ..      .      .         .         .  .  .  .            .        .           ..    ..           .                 .          .     .        .  .        .                .        .          .     .  .    .           .       .                                                             .       .        .       .                                .       .       .       .                                                                                                                                                                                                                                               .       .       .       .                              .       .      .       .                                                                 .                   .  .    . .       .    .      .              .              .    .      .  .      .    .      .             .           .  .      .    .                        . .  . .          . .    . .              . .   . . . .      .  .   ",
"..      ..                       .  .         .         .      .     .  .                  .  .     .           .                 .           .     .  .     .  .        .                .        .          .     .  .                .                                                             .       .        .       .                        .       .       .                                                                                                                                                                                                                                                                                                               .       .       .                      .       .      .       .                                                         .       .              .    .         .    .      .              .              .    .      .              .             .      .    .      .             .      .      .    . .        . .    . .          . . . .                   .    .  . ",
"  ..      .   ..      ..  ..  .      .  ..     .  ..  .  .  .            .        ..        .  .     .  .        .        .        .  .     .  .     .  .        .                .        .          .     .  .                .                                                     .       .        .       .                        .       .                                                                                                                                                             .       .       .       .       .                                                                                                                                                                 .       .                      .       .      .       .                                                         .              .    .  .      .    .      .              .                   . .    . .           .              .      .    . .      .    .             .          . .  . .          . .      . . .   . .   . . . .    .    .  ",
"    ..     .                   .      .         .      .     .  .         .           .      .           .        .        .  .     .  .     .           .                .        .          .     .  .                .                                                     .        .       .                        .       .                                                                                                             .       .       .       .       .       .       .       .        .       .       .       .       .      .       .       .       .       .       .       .       .                                                                                                                 .       .                      .       .      .       .                                                 .                   .  .      .    .      .              .      .            . .      .    .      .                         .  .          .             .    . .          .      .   .                         .  .    .",
"      ..    ..  ..      ..  .   .      .  .      .  .            .         .        .  .        ..                 .           .     .          ..                .        .          ..    .  .        .       .                                             .       .        .                        .       .                                                                                             .       .       .       .        .       .       .       .       .       .       .       .                                               .       .       .       .       .       .       .       .      .       .       .       .                                                                                                 .       .                      .              .                                                 .                   .  .      .    .      .              .      .           .  .      .    .      .      .      .    .      . .    .             .          . . .  .   .            . . . .   . .        .  .   ",
"..      ..                   .   .         .  .      .  .         .           ..     .  .                 .           .     .           .                 .        .          ..    .           .                                                     .        .       .                .       .                                                                             .       .       .       .        .       .       .       .                                                                        .       .       .       .       .                                                                      .       .       .       .      .       .       .       .                                                                                 .       .              .       .      .       .                                         .                   .  .      .    .      .              .      .    .      .  .                         .             .          .             .      . .            . .                   . .    .  . ",
"  ..          ..  ..  ..      .         ..  .  .         .         .  .     .            .        .        .  .     .  .     .  .        .        .        .          ..    .           .                                             .       .        .                        .                                                                     .       .       .        .       .       .       .                                        .       .       .       .       .       .       .       .                                               .       .       .       .       .       .       .       .                                      .       .       .       .      .       .       .                                                                         .                      .       .      .                                         .       .           .  .      .    .      .              .      .    .      . .    .      .             .    .      . .    .             .   .        . . .    . .   . . . .   . .   .  .    .  ",
"                               .  ..  .      .  .         .            .     .  .                  .           .     .  .        .        .        .          ..    .           .                                             .        .       .                .       .                                                             .       .        .       .       .                                        .       .       .       .                                                                                                                                                                               .       .       .       .                                      .       .       .      .       .                                                                 .       .                      .      .                                                 .           .  .      .    .      .              .           . .      .    .      .      .      .    . .          .                 .    . .                           .  .    .",
"      ..        ..  ..  ..      .      .         .         .  .     .            .        .           ..    ..           .                 .          .     .           .                                             .        .                .       .                                                             .       .        .       .                                .       .       .       .                                                                                                                                                                                                                                               .       .       .       .                              .       .      .       .                                                                 .                      .      .       .                                         .           .  .      .    .      .             .           .  .      .    .                        . .    .            .    . .              . .   . . . .      .      ",
"..      ..                       .  .                          .     .  .                  .  .     .           .                 .           .     .  .        .                                             .        .                .                                                             .       .        .       .                        .       .       .                                                                                                                                                                                                                                                                                                               .       .       .                      .       .      .       .                                                         .       .              .              .                                         .           .              .             .      .    .      .             .      .      .    . .          .      .          . . . .                   .    .  . ",
"  ..      .   ..      ..  ..  .      .  ..        ..  .     .            .        ..        .  .     .  .        .        .        .  .     .  .        .                                             .        .                .                                                     .       .        .       .                        .       .                                                                                                                                                             .       .       .       .       .                                                                                                                                                                 .       .                      .       .      .       .                                                         .              .       .      .                                                .    . .           .              .      .    . .      .    .             .          . .    .            .      . . .   . .   . . . .    .       ",
"    ..     .                   .                       .     .  .         .           .      .           .        .        .  .     .  .                                                      .        .                .                                                     .        .       .                        .       .                                                                                                             .       .       .       .       .       .       .       .                                               .       .       .       .       .       .       .       .                                                                                                                 .       .                      .       .      .       .                                                 .                      .      .                                 .              .      .    .      .                         .  .          .             .    . .          .      .   .                         .       .",
"      ..    ..  ..      ..  .   .         .         .            .         .        .  .        ..                 .           .                .                                     ..       .        .       .                                             .       .        .                        .       .                                                                                             .       .       .       .                                                                                                                                                                               .       .       .       .                                                                                                 .       .                      .              .                                                 .                      .      .                                 .           .  .      .    .      .      .      .    .      . .    .             .          . .    .                . . . .   . .        .  .   ",
"..      ..                   .   .         .  .      .  .         .           ..     .  .                 .           .     .           .                                     ..                .                                                     .        .       .                .       .                                                                             .       .       .       .                                                                                                                                                                                                                                               .       .       .       .                                                                                 .       .              .       .      .       .                                         .                      .      .                                 .           .  .                         .             .          .             .      .                .                   . .       . ",
"              ..  ..  ..                    .  .         .         .  .     .            .        .        .  .     .  .        .                                     ..                .                                             .       .        .                        .                                                                     .       .       .                                                                                                                                                                                                                                                                                                               .       .       .                                                                         .                      .       .      .                                         .       .              .      .                                 .           . .    .      .             .    .      . .    .             .   .        .   .      .   . . . .   . .   .  .    .  ",
"                                  ..  .      .  .         .            .     .  .                  .           .        .                                     ..                .                                             .        .       .                .       .                                                             .       .                                                                                                                                                                                                                                                                                                                                                               .       .                                                                 .       .                      .      .                                                 .              .      .                                        .      .    .      .      .      .    . .          .                 .      .                           .  .    .",
"      ..        ..  ..  ..             .         .         .  .     .            .        .           ..    .                                         .                 .                                             .        .                .       .                                                             .       .                                                                                                                                                                                                                                                                                                                                                                                               .       .                                                                 .                      .      .       .                                         .              .      .                         .           .  .      .    .                        . .    .            .    . .                .   . . . .      .      ",
"..      ..                          .                          .     .  .                  .  .     .           .                             .        .        .                                             .        .                .                                                             .       .                                                                                                                                                                                                                                                                                                                                                                                                                               .       .                                                         .       .              .              .                                         .                                               .           .             .      .      .    . .          .      .          . .   .                   .    .  . ",
"  ..      .   ..          ..  .      .  ..        ..  .     .            .        ..        .  .        .                             .        .        .                                             .        .                .                                                     .       .                                                                                                                                                                                                                                                                                                                                                                                                                                                               .       .                                                         .              .       .      .                                                .      .                                 .      .      .    .             .          . .    .            .      .   .     .   . . . .    .       ",
"    ..     .                   .                       .     .  .         .           .                                       .        .                                                      .        .                .                                                     .                                                                                                                                                                                                                                                                                                                                                                                                                                                                                               .       .                                                 .                      .      .                                 .              .      .                                     .  .          .             .    . .          .      .   .                         .       .",
"      ..    ..  ..          .   .         .         .            .         .        .  .        .                              .                .                                     ..       .        .       .                                             .       .                                                                                                                                                                                                                                                                                                                                                                                                                                                                                                                       .                                                 .                      .      .                                 .              .      .                         .           . .    .             .          . .    .                . .   .     .        .  .   ",
"..      ..                   .   .         .  .      .  .         .           ..        .                             .                 .                                     ..                .                                                     .                                                                                                                                                                                                                                                                                                                                                                                                                                                                                                                                               .       .                                         .                      .      .                                 .              .                                       .          .             .      .                .                   . .       . ",
"                  ..  ..                    .  .         .         .  .     .                                 .        .        .                                     ..                .                                             .       .                                                                                                                                                                                                                                                                                                                                                                                                                                                                                                                                                                       .                                         .       .              .      .                                 .             .                         .           . .    .             .   .        .   .      .   . .   .     .   .  .    .  ",
"                                  ..  .      .  .         .            .        .                              .        .                                     ..                .                                             .                                                                                                                                                                                                                                                                                                                                                                                                                                                                                                                                                                                               .                                                 .              .      .                                        .      .                         .      .          .                 .      .                           .  .    .",
"      ..            ..  ..             .         .         .  .     .                                 ..                                              .                 .                                             .                                                                                                                                                                                                                                                                                                                                                                                                                                                                                                                                                                                                               .       .                                         .              .      .                         .              .      .                             . .    .            .    . .                .   . .   .      .      ",
"..      ..                          .                          .        .                     .                 .                             .        .        .                                             .                                                                                                                                                                                                                                                                                                                                                                                                                                                                                                                                                                                                                                       .                                         .                                               .                                       .      .          .      .          . .   .                        .  . ",
"  ..      .   ..          ..  .      .  ..        ..  .     .                                  .        .                             .        .        .                                             .                                                                                                                                                                                                                                                                                                                                                                                                                                                                                                                                                                                                                                                       .                                                .      .                                 .      .      .                             . .    .            .      .   .     .   . .   .    .       ",
"    ..     .                   .                       .        .                     .                                       .        .                                                      .                                                                                                                                                                                                                                                                                                                                                                                                                                                                                                                                                                                                                                                                       .                                 .              .      .                                        .                        .      .          .      .   .                                 .",
"            ..  ..          .   .         .         .                                  .        .                              .                .                                     .                                                                                                                                                                                                                                                                                                                                                                                                                                                                                                                                                                                                                                                                                       .                                 .              .      .                         .             .                             . .    .                . .   .     .        .  .   ",
"..                           .   .         .  .         .                     ..        .                             .                 .                                     .                                                                                                                                                                                                                                                                                                                                                                                                                                                                                                                                                                                                                                                                                                       .                                 .              .                                       .                        .      .                .                   . .       . ",
"                  ..  ..                    .  .                      .                                       .        .        .                                     .                                                                                                                                                                                                                                                                                                                                                                                                                                                                                                                                                                                                                                                                                                                       .                                 .             .                         .             .                               .   .      .   . .   .     .   .       .  ",
"                                  ..  .         .                      .        .                              .        .                                     .                                                                                                                                                                                                                                                                                                                                                                                                                                                                                                                                                                                                                                                                                                                                       .                                        .      .                         .      .                            .      .                           .  .    .",
"      ..            ..  ..             .                      .                                       ..                                              .                                                                                                                                                                                                                                                                                                                                                                                                                                                                                                                                                                                                                                                                                                                                                       .                         .              .      .                               .                 .      .                .   . .   .             ",
"..      ..                          .                          .        .                     .                 .                             .                                                                                                                                                                                                                                                                                                                                                                                                                                                                                                                                                                                                                                                                                                                                                                                                 .                                       .      .                            . .   .                        .    ",
"  ..      .   ..          ..  .         .             .                                        .        .                             .                                                                                                                                                                                                                                                                                                                                                                                                                                                                                                                                                                                                                                                                                                                                                                               .                                 .      .      .                               .                 .      .   .     .   . .   .    .       ",
"    ..     .                   .                       .        .                     .                                       .                                                                                                                                                                                                                                                                                                                                                                                                                                                                                                                                                                                                                                                                                                                                                                                               .                                        .                        .      .                                                        ",
"            ..  ..          .   .                                                      .        .                                                                                                                                                                                                                                                                                                                                                                                                                                                                                                                                                                                                                                                                                                                                                                                                                                     .                         .             .                               .                     . .   .     .        .  .   ",
"                                              .         .                     ..        .                             .                                                                                                                                                                                                                                                                                                                                                                                                                                                                                                                                                                                                                                                                                                                                                                                                                                                        .                        .      .                .                   . .       . ",
"                  ..  ..                       .                      .                                       .                                                                                                                                                                                                                                                                                                                                                                                                                                                                                                                                                                                                                                                                                                                                                                                                                               .                         .             .                               .                .   .     .   .       .  ",
"                                      .         .                      .        .                                                                                                                                                                                                                                                                                                                                                                                                                                                                                                                                                                                                                                                                                                                                                                                                                                                                     .                         .      .                                                               .  .    .",
"      ..            .   .              .                      .                                       .                                                                                                                                                                                                                                                                                                                                                                                                                                                                                                                                                                                                                                                                                                                                                                                                                                                       .                               .                 .      .                .   . .   .             ",
"..      ..                                                     .        .                     .                                                                                                                                                                                                                                                                                                                                                                                                                                                                                                                                                                                                                                                                                                                                                                                                                                                                                         .      .                              .                            .    ",
"  ..      .   ..              .         .             .                                                                                                                                                                                                                                                                                                                                                                                                                                                                                                                                                                                                                                                                                                                                                                                                                                                                                                               .                               .                 .      .               .   .    .       ",
"    ..     .                   .                       .        .                     .                                                                                                                                                                                                                                                                                                                                                                                                                                                                                                                                                                                                                                                                                                                                                                                                                                                                                                         .      .                                                        ",
"            .   .               .                                                                                                                                                                                                                                                                                                                                                                                                                                                                                                                                                                                                                                                                                                                                                                                                                                                                                                                                             .                               .                       .         .        .  .   ",
"                                              .         .                     .                                                                                                                                                                                                                                                                                                                                                                                                                                                                                                                                                                                                                                                                                                                                                                                                                                                                                                                         .      .                .                   . .       . ",
"                      ..                       .                      .                                                                                                                                                                                                                                                                                                                                                                                                                                                                                                                                                                                                                                                                                                                                                                                                                                                                                                               .                               .                .                     .  ",
"                                      .         .                                                                                                                                                                                                                                                                                                                                                                                                                                                                                                                                                                                                                                                                                                                                                                                                                                                                                                                                                                                                      .  .    .",
"      ..                .              .                      .                                                                                                                                                                                                                                                                                                                                                                                                                                                                                                                                                                                                                                                                                                                                                                                                                                                                                                                               .                 .      .                .     .                 ",
"..      .                                                                                                                                                                                                                                                                                                                                                                                                                                                                                                                                                                                                                                                                                                                                                                                                                                                                                                                                                                                                                     .                            .    ",
"  ..          ..              .         .             .                                                                                                                                                                                                                                                                                                                                                                                                                                                                                                                                                                                                                                                                                                                                                                                                                                                                                                                                               .                 .      .               .        .       ",
"    .                          .                                                                                                                                                                                                                                                                                                                                                                                                                                                                                                                                                                                                                                                                                                                                                                                                                                                                                                                                                                                                                                ",
"                .               .                                                                                                                                                                                                                                                                                                                                                                                                                                                                                                                                                                                                                                                                                                                                                                                                                                                                                                                                                                             .                       .         .           .   ",
"                                              .                                                                                                                                                                                                                                                                                                                                                                                                                                                                                                                                                                                                                                                                                                                                                                                                                                                                                                                                                                                 .                     .       . ",
"                      ..                                                                                                                                                                                                                                                                                                                                                                                                                                                                                                                                                                                                                                                                                                                                                                                                                                                                                                                                                                                              .                .                        ",
"                                      .                                                                                                                                                                                                                                                                                                                                                                                                                                                                                                                                                                                                                                                                                                                                                                                                                                                                                                                                                                                                                .       .",
"      ..                .                                                                                                                                                                                                                                                                                                                                                                                                                                                                                                                                                                                                                                                                                                                                                                                                                                                                                                                                                                                                               .     .                 ",
".       .                                                                                                                                                                                                                                                                                                                                                                                                                                                                                                                                                                                                                                                                                                                                                                                                                                                                                                                                                                                                                     .                                 ",
"              ..              .                                                                                                                                                                                                                                                                                                                                                                                                                                                                                                                                                                                                                                                                                                                                                                                                                                                                                                                                                                                                                .        .       ",
"                                                                                                                                                                                                                                                                                                                                                                                                                                                                                                                                                                                                                                                                                                                                                                                                                                                                                                                                                                                                                                                                ",
"                .                                                                                                                                                                                                                                                                                                                                                                                                                                                                                                                                                                                                                                                                                                                                                                                                                                                                                                                                                                                                                     .         .               ",
"                                                                                                                                                                                                                                                                                                                                                                                                                                                                                                                                                                                                                                                                                                                                                                                                                                                                                                                                                                                                                                                      .       . ",
"                      .                                                                                                                                                                                                                                                                                                                                                                                                                                                                                                                                                                                                                                                                                                                                                                                                                                                                                                                                                                                                                                         ",
"                                                                                                                                                                                                                                                                                                                                                                                                                                                                                                                                                                                                                                                                                                                                                                                                                                                                                                                                                                                                                                                       .       .",
"      ..                                                                                                                                                                                                                                                                                                                                                                                                                                                                                                                                                                                                                                                                                                                                                                                                                                                                                                                                                                                                                                      .                 ",
".       .                                                                                                                                                                                                                                                                                                                                                                                                                                                                                                                                                                                                                                                                                                                                                                                                                                                                                                                                                                                                                                                       ",
"              .                                                                                                                                                                                                                                                                                                                                                                                                                                                                                                                                                                                                                                                                                                                                                                                                                                                                                                                                                                                                                                         .       ",
"                                                                                                                                                                                                                                                                                                                                                                                                                                                                                                                                                                                                                                                                                                                                                                                                                                                                                                                                                                                                                                                                ",
"                                                                                                                                                                                                                                                                                                                                                                                                                                                                                                                                                                                                                                                                                                                                                                                                                                                                                                                                                                                                                                                                ",
"                                                                                                                                                                                                                                                                                                                                                                                                                                                                                                                                                                                                                                                                                                                                                                                                                                                                                                                                                                                                                                                              . ",
"                                                                                                                                                                                                                                                                                                                                                                                                                                                                                                                                                                                                                                                                                                                                                                                                                                                                                                                                                                                                                                                                ",
"                                                                                                                                                                                                                                                                                                                                                                                                                                                                                                                                                                                                                                                                                                                                                                                                                                                                                                                                                                                                                                                                ",
"      .                                                                                                                                                                                                                                                                                                                                                                                                                                                                                                                                                                                                                                                                                                                                                                                                                                                                                                                                                                                                                                                         ",
".                                                                                                                                                                                                                                                                                                                                                                                                                                                                                                                                                                                                                                                                                                                                                                                                                                                                                                                                                                                                                                                               "};
