/* XPM */
static char * bg_dither_xpm[] = {
"1024 384 2 1",
" 	c None",
".	c #000000",
"................................................................................................................................................................................................................................................................................................................................................................................................................................................................................................................................................................................................................................................................................................................................................................................................................................................................................................................................................................................................................................................................",
"................................................................................................................................................................................................................................................................................................................................................................................................................................................................................................................................................................................................................................................................................................................................................................................................................................................................................................................................................................................................................................................................",
"................................................................................................................................................................................................................................................................................................................................................................................................................................................................................................................................................................................................................................................................................................................................................................................................................................................................................................................................................................................................................................................................",
"................................................................................................................................................................................................................................................................................................................................................................................................................................................................................................................................................................................................................................................................................................................................................................................................................................................................................................................................................................................................................................................................",
"................................................................................................................................................................................................................................................................................................................................................................................................................................................................................................................................................................................................................................................................................................................................................................................................................................................................................................................................................................................................................................................................",
"................................................................................................................................................................................................................................................................................................................................................................................................................................................................................................................................................................................................................................................................................................................................................................................................................................................................................................................................................................................................................................................................",
"................................................................................................................................................................................................................................................................................................................................................................................................................................................................................................................................................................................................................................................................................................................................................................................................................................................................................................................................................................................................................................................................",
"................................................................................................................................................................................................................................................................................................................................................................................................................................................................................................................................................................................................................................................................................................................................................................................................................................................................................................................................................................................................................................................................",
"................................................................................................................................................................................................................................................................................................................................................................................................................................................................................................................................................................................................................................................................................................................................................................................................................................................................................................................................................................................................................................................................",
"................................................................................................................................................................................................................................................................................................................................................................................................................................................................................................................................................................................................................................................................................................................................................................................................................................................................................................................................................................................................................................................................",
"................................................................................................................................................................................................................................................................................................................................................................................................................................................................................................................................................................................................................................................................................................................................................................................................................................................................................................................................................................................................................................................................",
"................................................................................................................................................................................................................................................................................................................................................................................................................................................................................................................................................................................................................................................................................................................................................................................................................................................................................................................................................................................................................................................................",
"................................................................................................................................................................................................................................................................................................................................................................................................................................................................................................................................................................................................................................................................................................................................................................................................................................................................................................................................................................................................................................................................",
"................................................................................................................................................................................................................................................................................................................................................................................................................................................................................................................................................................................................................................................................................................................................................................................................................................................................................................................................................................................................................................................................",
"................................................................................................................................................................................................................................................................................................................................................................................................................................................................................................................................................................................................................................................................................................................................................................................................................................................................................................................................................................................................................................................................",
"................................................................................................................................................................................................................................................................................................................................................................................................................................................................................................................................................................................................................................................................................................................................................................................................................................................................................................................................................................................................................................................................",
"................................................................................................................................................................................................................................................................................................................................................................................................................................................................................................................................................................................................................................................................................................................................................................................................................................................................................................................................................................................................................................................................",
"................................................................................................................................................................................................................................................................................................................................................................................................................................................................................................................................................................................................................................................................................................................................................................................................................................................................................................................................................................................................................................................................",
"................................................................................................................................................................................................................................................................................................................................................................................................................................................................................................................................................................................................................................................................................................................................................................................................................................................................................................................................................................................................................................................................",
"................................................................................................................................................................................................................................................................................................................................................................................................................................................................................................................................................................................................................................................................................................................................................................................................................................................................................................................................................................................................................................................................",
"................................................................................................................................................................................................................................................................................................................................................................................................................................................................................................................................................................................................................................................................................................................................................................................................................................................................................................................................................................................................................................................................",
"................................................................................................................................................................................................................................................................................................................................................................................................................................................................................................................................................................................................................................................................................................................................................................................................................................................................................................................................................................................................................................................................",
"....... ....... ....... ....... ....... ....... ....... ....... ....... ....... ....... ....... ....... ....... ....... ....... ....... ....... ....... ....... ....... ....... ....... ....... ....... ....... ....... ....... ....... ....... ....... ....... ....... ....... ....... ....... ....... ....... ....... ....... ....... ....... ....... ....... ....... ....... ....... ....... ....... ....... ....... ....... ....... ....... ....... ....... ....... ....... ....... ....... ....... ....... ....... ....... ....... ....... ....... ....... ....... ....... ....... ....... ....... ....... ....... ....... ....... ....... ....... ....... ....... ....... ....... ....... ....... ....... ....... ....... ....... ....... ....... ....... ....... ....... ....... ....... ....... ....... ....... ....... ....... ....... ....... ....... ....... ....... ....... ....... ....... ....... ....... ....... ....... ....... ....... ....... ....... ....... ....... ....... ....... ....... ....... ....... ....... ....... ....... ....... ",
"....... ....... ....... ....... ....... ....... ....... ....... ....... ....... ....... ....... ....... ....... ....... ....... ....... ....... ....... ....... ....... ....... ....... ....... ....... ....... ....... ....... ....... ....... ....... ....... ....... ....... ....... ....... ....... ....... ....... ....... ....... ....... ....... ....... ....... ....... ....... ....... ....... ....... ....... ....... ....... ....... ....... ....... ....... ....... ....... ....... ....... ....... ....... ....... ....... ....... ....... ....... ....... ....... ....... ....... ....... ....... ....... ....... ....... ....... ....... ....... ....... ....... ....... ....... ....... ....... ....... ....... ....... ....... ....... ....... ....... ....... ....... ....... ....... ....... ....... ....... ....... ....... ....... ....... ....... ....... ....... ....... ....... ....... ....... ....... ....... ....... ....... ....... ....... ....... ....... ....... ....... ....... ....... ....... ....... ....... ....... ....... ",
"................................................................................................................................................................................................................................................................................................................................................................................................................................................................................................................................................................................................................................................................................................................................................................................................................................................................................................................................................................................................................................................................",
"................................................................................................................................................................................................................................................................................................................................................................................................................................................................................................................................................................................................................................................................................................................................................................................................................................................................................................................................................................................................................................................................",
"................................................................................................................................................................................................................................................................................................................................................................................................................................................................................................................................................................................................................................................................................................................................................................................................................................................................................................................................................................................................................................................................",
"................................................................................................................................................................................................................................................................................................................................................................................................................................................................................................................................................................................................................................................................................................................................................................................................................................................................................................................................................................................................................................................................",
"................................................................................................................................................................................................................................................................................................................................................................................................................................................................................................................................................................................................................................................................................................................................................................................................................................................................................................................................................................................................................................................................",
"...... ....... ....... ....... ....... ....... ....... ....... ....... ....... ....... ....... ....... ....... ....... ....... ....... ....... ....... ....... ....... ....... ....... ....... ....... ....... ....... ....... ....... ....... ....... ....... ....... ....... ....... ....... ....... ....... ....... ....... ....... ....... ....... ....... ....... ....... ....... ....... ....... ....... ....... ....... ....... ....... ....... ....... ....... ....... ....... ....... ....... ....... ....... ....... ....... ....... ....... ....... ....... ....... ....... ....... ....... ....... ....... ....... ....... ....... ....... ....... ....... ....... ....... ....... ....... ....... ....... ....... ....... ....... ....... ....... ....... ....... ....... ....... ....... ....... ....... ....... ....... ....... ....... ....... ....... ....... ....... ....... ....... ....... ....... ....... ....... ....... ....... ....... ....... ....... ....... ....... ....... ....... ....... ....... ....... ....... ....... ....... .",
"....... ....... ....... ....... ....... ....... ....... ....... ....... ....... ....... ....... ....... ....... ....... ....... ....... ....... ....... ....... ....... ....... ....... ....... ....... ....... ....... ....... ....... ....... ....... ....... ....... ....... ....... ....... ....... ....... ....... ....... ....... ....... ....... ....... ....... ....... ....... ....... ....... ....... ....... ....... ....... ....... ....... ....... ....... ....... ....... ....... ....... ....... ....... ....... ....... ....... ....... ....... ....... ....... ....... ....... ....... ....... ....... ....... ....... ....... ....... ....... ....... ....... ....... ....... ....... ....... ....... ....... ....... ....... ....... ....... ....... ....... ....... ....... ....... ....... ....... ....... ....... ....... ....... ....... ....... ....... ....... ....... ....... ....... ....... ....... ....... ....... ....... ....... ....... ....... ....... ....... ....... ....... ....... ....... ....... ....... ....... ....... ",
"....... ....... ....... ....... ....... ....... ....... ....... ....... ....... ....... ....... ....... ....... ....... ....... ....... ....... ....... ....... ....... ....... ....... ....... ....... ....... ....... ....... ....... ....... ....... ....... ....... ....... ....... ....... ....... ....... ....... ....... ....... ....... ....... ....... ....... ....... ....... ....... ....... ....... ....... ....... ....... ....... ....... ....... ....... ....... ....... ....... ....... ....... ....... ....... ....... ....... ....... ....... ....... ....... ....... ....... ....... ....... ....... ....... ....... ....... ....... ....... ....... ....... ....... ....... ....... ....... ....... ....... ....... ....... ....... ....... ....... ....... ....... ....... ....... ....... ....... ....... ....... ....... ....... ....... ....... ....... ....... ....... ....... ....... ....... ....... ....... ....... ....... ....... ....... ....... ....... ....... ....... ....... ....... ....... ....... ....... ....... ....... ",
"................................................................................................................................................................................................................................................................................................................................................................................................................................................................................................................................................................................................................................................................................................................................................................................................................................................................................................................................................................................................................................................................",
"................................................................................................................................................................................................................................................................................................................................................................................................................................................................................................................................................................................................................................................................................................................................................................................................................................................................................................................................................................................................................................................................",
"................................................................................................................................................................................................................................................................................................................................................................................................................................................................................................................................................................................................................................................................................................................................................................................................................................................................................................................................................................................................................................................................",
"................................................................................................................................................................................................................................................................................................................................................................................................................................................................................................................................................................................................................................................................................................................................................................................................................................................................................................................................................................................................................................................................",
"................................................................................................................................................................................................................................................................................................................................................................................................................................................................................................................................................................................................................................................................................................................................................................................................................................................................................................................................................................................................................................................................",
"...... ....... ....... ....... ....... ....... ....... ....... ....... ....... ....... ....... ....... ....... ....... ....... ....... ....... ....... ....... ....... ....... ....... ....... ....... ....... ....... ....... ....... ....... ....... ....... ....... ....... ....... ....... ....... ....... ....... ....... ....... ....... ....... ....... ....... ....... ....... ....... ....... ....... ....... ....... ....... ....... ....... ....... ....... ....... ....... ....... ....... ....... ....... ....... ....... ....... ....... ....... ....... ....... ....... ....... ....... ....... ....... ....... ....... ....... ....... ....... ....... ....... ....... ....... ....... ....... ....... ....... ....... ....... ....... ....... ....... ....... ....... ....... ....... ....... ....... ....... ....... ....... ....... ....... ....... ....... ....... ....... ....... ....... ....... ....... ....... ....... ....... ....... ....... ....... ....... ....... ....... ....... ....... ....... ....... ....... ....... ....... .",
"....... ....... ....... ....... ....... ....... ....... ....... ....... ....... ....... ....... ....... ....... ....... ....... ....... ....... ....... ....... ....... ....... ....... ....... ....... ....... ....... ....... ....... ....... ....... ....... ....... ....... ....... ....... ....... ....... ....... ....... ....... ....... ....... ....... ....... ....... ....... ....... ....... ....... ....... ....... ....... ....... ....... ....... ....... ....... ....... ....... ....... ....... ....... ....... ....... ....... ....... ....... ....... ....... ....... ....... ....... ....... ....... ....... ....... ....... ....... ....... ....... ....... ....... ....... ....... ....... ....... ....... ....... ....... ....... ....... ....... ....... ....... ....... ....... ....... ....... ....... ....... ....... ....... ....... ....... ....... ....... ....... ....... ....... ....... ....... ....... ....... ....... ....... ....... ....... ....... ....... ....... ....... ....... ....... ....... ....... ....... ....... ",
"....... ....... ....... ....... ....... ....... ....... ....... ....... ....... ....... ....... ....... ....... ....... ....... ....... ....... ....... ....... ....... ....... ....... ....... ....... ....... ....... ....... ....... ....... ....... ....... ....... ....... ....... ....... ....... ....... ....... ....... ....... ....... ....... ....... ....... ....... ....... ....... ....... ....... ....... ....... ....... ....... ....... ....... ....... ....... ....... ....... ....... ....... ....... ....... ....... ....... ....... ....... ....... ....... ....... ....... ....... ....... ....... ....... ....... ....... ....... ....... ....... ....... ....... ....... ....... ....... ....... ....... ....... ....... ....... ....... ....... ....... ....... ....... ....... ....... ....... ....... ....... ....... ....... ....... ....... ....... ....... ....... ....... ....... ....... ....... ....... ....... ....... ....... ....... ....... ....... ....... ....... ....... ....... ....... ....... ....... ....... ....... ",
"................................................................................................................................................................................................................................................................................................................................................................................................................................................................................................................................................................................................................................................................................................................................................................................................................................................................................................................................................................................................................................................................",
"................................................................................................................................................................................................................................................................................................................................................................................................................................................................................................................................................................................................................................................................................................................................................................................................................................................................................................................................................................................................................................................................",
"................................................................................................................................................................................................................................................................................................................................................................................................................................................................................................................................................................................................................................................................................................................................................................................................................................................................................................................................................................................................................................................................",
"................................................................................................................................................................................................................................................................................................................................................................................................................................................................................................................................................................................................................................................................................................................................................................................................................................................................................................................................................................................................................................................................",
"................................................................................................................................................................................................................................................................................................................................................................................................................................................................................................................................................................................................................................................................................................................................................................................................................................................................................................................................................................................................................................................................",
"...... ....... ....... ....... ....... ....... ....... ....... ....... ....... ....... ....... ....... ....... ....... ....... ....... ....... ....... ....... ....... ....... ....... ....... ....... ....... ....... ....... ....... ....... ....... ....... ....... ....... ....... ....... ....... ....... ....... ....... ....... ....... ....... ....... ....... ....... ....... ....... ....... ....... ....... ....... ....... ....... ....... ....... ....... ....... ....... ....... ....... ....... ....... ....... ....... ....... ....... ....... ....... ....... ....... ....... ....... ....... ....... ....... ....... ....... ....... ....... ....... ....... ....... ....... ....... ....... ....... ....... ....... ....... ....... ....... ....... ....... ....... ....... ....... ....... ....... ....... ....... ....... ....... ....... ....... ....... ....... ....... ....... ....... ....... ....... ....... ....... ....... ....... ....... ....... ....... ....... ....... ....... ....... ....... ....... ....... ....... ....... .",
"....... ....... ....... ....... ....... ....... ....... ....... ....... ....... ....... ....... ....... ....... ....... ....... ....... ....... ....... ....... ....... ....... ....... ....... ....... ....... ....... ....... ....... ....... ....... ....... ....... ....... ....... ....... ....... ....... ....... ....... ....... ....... ....... ....... ....... ....... ....... ....... ....... ....... ....... ....... ....... ....... ....... ....... ....... ....... ....... ....... ....... ....... ....... ....... ....... ....... ....... ....... ....... ....... ....... ....... ....... ....... ....... ....... ....... ....... ....... ....... ....... ....... ....... ....... ....... ....... ....... ....... ....... ....... ....... ....... ....... ....... ....... ....... ....... ....... ....... ....... ....... ....... ....... ....... ....... ....... ....... ....... ....... ....... ....... ....... ....... ....... ....... ....... ....... ....... ....... ....... ....... ....... ....... ....... ....... ....... ....... ....... ",
"....... ....... ....... ....... ....... ....... ....... ....... ....... ....... ....... ....... ....... ....... ....... ....... ....... ....... ....... ....... ....... ....... ....... ....... ....... ....... ....... ....... ....... ....... ....... ....... ....... ....... ....... ....... ....... ....... ....... ....... ....... ....... ....... ....... ....... ....... ....... ....... ....... ....... ....... ....... ....... ....... ....... ....... ....... ....... ....... ....... ....... ....... ....... ....... ....... ....... ....... ....... ....... ....... ....... ....... ....... ....... ....... ....... ....... ....... ....... ....... ....... ....... ....... ....... ....... ....... ....... ....... ....... ....... ....... ....... ....... ....... ....... ....... ....... ....... ....... ....... ....... ....... ....... ....... ....... ....... ....... ....... ....... ....... ....... ....... ....... ....... ....... ....... ....... ....... ....... ....... ....... ....... ....... ....... ....... ....... ....... ....... ",
"... ....... ....... ....... ....... ....... ....... ....... ....... ....... ....... ....... ....... ....... ....... ....... ....... ....... ....... ....... ....... ....... ....... ....... ....... ....... ....... ....... ....... ....... ....... ....... ....... ....... ....... ....... ....... ....... ....... ....... ....... ....... ....... ....... ....... ....... ....... ....... ....... ....... ....... ....... ....... ....... ....... ....... ....... ....... ....... ....... ....... ....... ....... ....... ....... ....... ....... ....... ....... ....... ....... ....... ....... ....... ....... ....... ....... ....... ....... ....... ....... ....... ....... ....... ....... ....... ....... ....... ....... ....... ....... ....... ....... ....... ....... ....... ....... ....... ....... ....... ....... ....... ....... ....... ....... ....... ....... ....... ....... ....... ....... ....... ....... ....... ....... ....... ....... ....... ....... ....... ....... ....... ....... ....... ....... ....... ....... ....... ....",
"... ....... ....... ....... ....... ....... ....... ....... ....... ....... ....... ....... ....... ....... ....... ....... ....... ....... ....... ....... ....... ....... ....... ....... ....... ....... ....... ....... ....... ....... ....... ....... ....... ....... ....... ....... ....... ....... ....... ....... ....... ....... ....... ....... ....... ....... ....... ....... ....... ....... ....... ....... ....... ....... ....... ....... ....... ....... ....... ....... ....... ....... ....... ....... ....... ....... ....... ....... ....... ....... ....... ....... ....... ....... ....... ....... ....... ....... ....... ....... ....... ....... ....... ....... ....... ....... ....... ....... ....... ....... ....... ....... ....... ....... ....... ....... ....... ....... ....... ....... ....... ....... ....... ....... ....... ....... ....... ....... ....... ....... ....... ....... ....... ....... ....... ....... ....... ....... ....... ....... ....... ....... ....... ....... ....... ....... ....... ....... ....",
".... ....... ....... ....... ....... ....... ....... ....... ....... ....... ....... ....... ....... ....... ....... ....... ....... ....... ....... ....... ....... ....... ....... ....... ....... ....... ....... ....... ....... ....... ....... ....... ....... ....... ....... ....... ....... ....... ....... ....... ....... ....... ....... ....... ....... ....... ....... ....... ....... ....... ....... ....... ....... ....... ....... ....... ....... ....... ....... ....... ....... ....... ....... ....... ....... ....... ....... ....... ....... ....... ....... ....... ....... ....... ....... ....... ....... ....... ....... ....... ....... ....... ....... ....... ....... ....... ....... ....... ....... ....... ....... ....... ....... ....... ....... ....... ....... ....... ....... ....... ....... ....... ....... ....... ....... ....... ....... ....... ....... ....... ....... ....... ....... ....... ....... ....... ....... ....... ....... ....... ....... ....... ....... ....... ....... ....... ....... ....... ...",
"..... ....... ....... ....... ....... ....... ....... ....... ....... ....... ....... ....... ....... ....... ....... ....... ....... ....... ....... ....... ....... ....... ....... ....... ....... ....... ....... ....... ....... ....... ....... ....... ....... ....... ....... ....... ....... ....... ....... ....... ....... ....... ....... ....... ....... ....... ....... ....... ....... ....... ....... ....... ....... ....... ....... ....... ....... ....... ....... ....... ....... ....... ....... ....... ....... ....... ....... ....... ....... ....... ....... ....... ....... ....... ....... ....... ....... ....... ....... ....... ....... ....... ....... ....... ....... ....... ....... ....... ....... ....... ....... ....... ....... ....... ....... ....... ....... ....... ....... ....... ....... ....... ....... ....... ....... ....... ....... ....... ....... ....... ....... ....... ....... ....... ....... ....... ....... ....... ....... ....... ....... ....... ....... ....... ....... ....... ....... ....... ..",
"..... ....... ....... ....... ....... ....... ....... ....... ....... ....... ....... ....... ....... ....... ....... ....... ....... ....... ....... ....... ....... ....... ....... ....... ....... ....... ....... ....... ....... ....... ....... ....... ....... ....... ....... ....... ....... ....... ....... ....... ....... ....... ....... ....... ....... ....... ....... ....... ....... ....... ....... ....... ....... ....... ....... ....... ....... ....... ....... ....... ....... ....... ....... ....... ....... ....... ....... ....... ....... ....... ....... ....... ....... ....... ....... ....... ....... ....... ....... ....... ....... ....... ....... ....... ....... ....... ....... ....... ....... ....... ....... ....... ....... ....... ....... ....... ....... ....... ....... ....... ....... ....... ....... ....... ....... ....... ....... ....... ....... ....... ....... ....... ....... ....... ....... ....... ....... ....... ....... ....... ....... ....... ....... ....... ....... ....... ....... ....... ..",
"...... ....... ....... ....... ....... ....... ....... ....... ....... ....... ....... ....... ....... ....... ....... ....... ....... ....... ....... ....... ....... ....... ....... ....... ....... ....... ....... ....... ....... ....... ....... ....... ....... ....... ....... ....... ....... ....... ....... ....... ....... ....... ....... ....... ....... ....... ....... ....... ....... ....... ....... ....... ....... ....... ....... ....... ....... ....... ....... ....... ....... ....... ....... ....... ....... ....... ....... ....... ....... ....... ....... ....... ....... ....... ....... ....... ....... ....... ....... ....... ....... ....... ....... ....... ....... ....... ....... ....... ....... ....... ....... ....... ....... ....... ....... ....... ....... ....... ....... ....... ....... ....... ....... ....... ....... ....... ....... ....... ....... ....... ....... ....... ....... ....... ....... ....... ....... ....... ....... ....... ....... ....... ....... ....... ....... ....... ....... ....... .",
"....... ....... ....... ....... ....... ....... ....... ....... ....... ....... ....... ....... ....... ....... ....... ....... ....... ....... ....... ....... ....... ....... ....... ....... ....... ....... ....... ....... ....... ....... ....... ....... ....... ....... ....... ....... ....... ....... ....... ....... ....... ....... ....... ....... ....... ....... ....... ....... ....... ....... ....... ....... ....... ....... ....... ....... ....... ....... ....... ....... ....... ....... ....... ....... ....... ....... ....... ....... ....... ....... ....... ....... ....... ....... ....... ....... ....... ....... ....... ....... ....... ....... ....... ....... ....... ....... ....... ....... ....... ....... ....... ....... ....... ....... ....... ....... ....... ....... ....... ....... ....... ....... ....... ....... ....... ....... ....... ....... ....... ....... ....... ....... ....... ....... ....... ....... ....... ....... ....... ....... ....... ....... ....... ....... ....... ....... ....... ....... ",
"....... ....... ....... ....... ....... ....... ....... ....... ....... ....... ....... ....... ....... ....... ....... ....... ....... ....... ....... ....... ....... ....... ....... ....... ....... ....... ....... ....... ....... ....... ....... ....... ....... ....... ....... ....... ....... ....... ....... ....... ....... ....... ....... ....... ....... ....... ....... ....... ....... ....... ....... ....... ....... ....... ....... ....... ....... ....... ....... ....... ....... ....... ....... ....... ....... ....... ....... ....... ....... ....... ....... ....... ....... ....... ....... ....... ....... ....... ....... ....... ....... ....... ....... ....... ....... ....... ....... ....... ....... ....... ....... ....... ....... ....... ....... ....... ....... ....... ....... ....... ....... ....... ....... ....... ....... ....... ....... ....... ....... ....... ....... ....... ....... ....... ....... ....... ....... ....... ....... ....... ....... ....... ....... ....... ....... ....... ....... ....... ",
"... ....... ....... ....... ....... ....... ....... ....... ....... ....... ....... ....... ....... ....... ....... ....... ....... ....... ....... ....... ....... ....... ....... ....... ....... ....... ....... ....... ....... ....... ....... ....... ....... ....... ....... ....... ....... ....... ....... ....... ....... ....... ....... ....... ....... ....... ....... ....... ....... ....... ....... ....... ....... ....... ....... ....... ....... ....... ....... ....... ....... ....... ....... ....... ....... ....... ....... ....... ....... ....... ....... ....... ....... ....... ....... ....... ....... ....... ....... ....... ....... ....... ....... ....... ....... ....... ....... ....... ....... ....... ....... ....... ....... ....... ....... ....... ....... ....... ....... ....... ....... ....... ....... ....... ....... ....... ....... ....... ....... ....... ....... ....... ....... ....... ....... ....... ....... ....... ....... ....... ....... ....... ....... ....... ....... ....... ....... ....... ....",
"... ....... ....... ....... ....... ....... ....... ....... ....... ....... ....... ....... ....... ....... ....... ....... ....... ....... ....... ....... ....... ....... ....... ....... ....... ....... ....... ....... ....... ....... ....... ....... ....... ....... ....... ....... ....... ....... ....... ....... ....... ....... ....... ....... ....... ....... ....... ....... ....... ....... ....... ....... ....... ....... ....... ....... ....... ....... ....... ....... ....... ....... ....... ....... ....... ....... ....... ....... ....... ....... ....... ....... ....... ....... ....... ....... ....... ....... ....... ....... ....... ....... ....... ....... ....... ....... ....... ....... ....... ....... ....... ....... ....... ....... ....... ....... ....... ....... ....... ....... ....... ....... ....... ....... ....... ....... ....... ....... ....... ....... ....... ....... ....... ....... ....... ....... ....... ....... ....... ....... ....... ....... ....... ....... ....... ....... ....... ....... ....",
".... ....... ....... ....... ....... ....... ....... ....... ....... ....... ....... ....... ....... ....... ....... ....... ....... ....... ....... ....... ....... ....... ....... ....... ....... ....... ....... ....... ....... ....... ....... ....... ....... ....... ....... ....... ....... ....... ....... ....... ....... ....... ....... ....... ....... ....... ....... ....... ....... ....... ....... ....... ....... ....... ....... ....... ....... ....... ....... ....... ....... ....... ....... ....... ....... ....... ....... ....... ....... ....... ....... ....... ....... ....... ....... ....... ....... ....... ....... ....... ....... ....... ....... ....... ....... ....... ....... ....... ....... ....... ....... ....... ....... ....... ....... ....... ....... ....... ....... ....... ....... ....... ....... ....... ....... ....... ....... ....... ....... ....... ....... ....... ....... ....... ....... ....... ....... ....... ....... ....... ....... ....... ....... ....... ....... ....... ....... ....... ...",
"..... ....... ....... ....... ....... ....... ....... ....... ....... ....... ....... ....... ....... ....... ....... ....... ....... ....... ....... ....... ....... ....... ....... ....... ....... ....... ....... ....... ....... ....... ....... ....... ....... ....... ....... ....... ....... ....... ....... ....... ....... ....... ....... ....... ....... ....... ....... ....... ....... ....... ....... ....... ....... ....... ....... ....... ....... ....... ....... ....... ....... ....... ....... ....... ....... ....... ....... ....... ....... ....... ....... ....... ....... ....... ....... ....... ....... ....... ....... ....... ....... ....... ....... ....... ....... ....... ....... ....... ....... ....... ....... ....... ....... ....... ....... ....... ....... ....... ....... ....... ....... ....... ....... ....... ....... ....... ....... ....... ....... ....... ....... ....... ....... ....... ....... ....... ....... ....... ....... ....... ....... ....... ....... ....... ....... ....... ....... ....... ..",
"..... ....... ....... ....... ....... ....... ....... ....... ....... ....... ....... ....... ....... ....... ....... ....... ....... ....... ....... ....... ....... ....... ....... ....... ....... ....... ....... ....... ....... ....... ....... ....... ....... ....... ....... ....... ....... ....... ....... ....... ....... ....... ....... ....... ....... ....... ....... ....... ....... ....... ....... ....... ....... ....... ....... ....... ....... ....... ....... ....... ....... ....... ....... ....... ....... ....... ....... ....... ....... ....... ....... ....... ....... ....... ....... ....... ....... ....... ....... ....... ....... ....... ....... ....... ....... ....... ....... ....... ....... ....... ....... ....... ....... ....... ....... ....... ....... ....... ....... ....... ....... ....... ....... ....... ....... ....... ....... ....... ....... ....... ....... ....... ....... ....... ....... ....... ....... ....... ....... ....... ....... ....... ....... ....... ....... ....... ....... ....... ..",
"...... ....... ....... ....... ....... ....... ....... ....... ....... ....... ....... ....... ....... ....... ....... ....... ....... ....... ....... ....... ....... ....... ....... ....... ....... ....... ....... ....... ....... ....... ....... ....... ....... ....... ....... ....... ....... ....... ....... ....... ....... ....... ....... ....... ....... ....... ....... ....... ....... ....... ....... ....... ....... ....... ....... ....... ....... ....... ....... ....... ....... ....... ....... ....... ....... ....... ....... ....... ....... ....... ....... ....... ....... ....... ....... ....... ....... ....... ....... ....... ....... ....... ....... ....... ....... ....... ....... ....... ....... ....... ....... ....... ....... ....... ....... ....... ....... ....... ....... ....... ....... ....... ....... ....... ....... ....... ....... ....... ....... ....... ....... ....... ....... ....... ....... ....... ....... ....... ....... ....... ....... ....... ....... ....... ....... ....... ....... ....... .",
"....... ....... ....... ....... ....... ....... ....... ....... ....... ....... ....... ....... ....... ....... ....... ....... ....... ....... ....... ....... ....... ....... ....... ....... ....... ....... ....... ....... ....... ....... ....... ....... ....... ....... ....... ....... ....... ....... ....... ....... ....... ....... ....... ....... ....... ....... ....... ....... ....... ....... ....... ....... ....... ....... ....... ....... ....... ....... ....... ....... ....... ....... ....... ....... ....... ....... ....... ....... ....... ....... ....... ....... ....... ....... ....... ....... ....... ....... ....... ....... ....... ....... ....... ....... ....... ....... ....... ....... ....... ....... ....... ....... ....... ....... ....... ....... ....... ....... ....... ....... ....... ....... ....... ....... ....... ....... ....... ....... ....... ....... ....... ....... ....... ....... ....... ....... ....... ....... ....... ....... ....... ....... ....... ....... ....... ....... ....... ....... ",
"....... ....... ....... ....... ....... ....... ....... ....... ....... ....... ....... ....... ....... ....... ....... ....... ....... ....... ....... ....... ....... ....... ....... ....... ....... ....... ....... ....... ....... ....... ....... ....... ....... ....... ....... ....... ....... ....... ....... ....... ....... ....... ....... ....... ....... ....... ....... ....... ....... ....... ....... ....... ....... ....... ....... ....... ....... ....... ....... ....... ....... ....... ....... ....... ....... ....... ....... ....... ....... ....... ....... ....... ....... ....... ....... ....... ....... ....... ....... ....... ....... ....... ....... ....... ....... ....... ....... ....... ....... ....... ....... ....... ....... ....... ....... ....... ....... ....... ....... ....... ....... ....... ....... ....... ....... ....... ....... ....... ....... ....... ....... ....... ....... ....... ....... ....... ....... ....... ....... ....... ....... ....... ....... ....... ....... ....... ....... ....... ",
"... ....... ....... ....... ....... ....... ....... ....... ....... ....... ....... ....... ....... ....... ....... ....... ....... ....... ....... ....... ....... ....... ....... ....... ....... ....... ....... ....... ....... ....... ....... ....... ....... ....... ....... ....... ....... ....... ....... ....... ....... ....... ....... ....... ....... ....... ....... ....... ....... ....... ....... ....... ....... ....... ....... ....... ....... ....... ....... ....... ....... ....... ....... ....... ....... ....... ....... ....... ....... ....... ....... ....... ....... ....... ....... ....... ....... ....... ....... ....... ....... ....... ....... ....... ....... ....... ....... ....... ....... ....... ....... ....... ....... ....... ....... ....... ....... ....... ....... ....... ....... ....... ....... ....... ....... ....... ....... ....... ....... ....... ....... ....... ....... ....... ....... ....... ....... ....... ....... ....... ....... ....... ....... ....... ....... ....... ....... ....... ....",
"... ....... ....... ....... ....... ....... ....... ....... ....... ....... ....... ....... ....... ....... ....... ....... ....... ....... ....... ....... ....... ....... ....... ....... ....... ....... ....... ....... ....... ....... ....... ....... ....... ....... ....... ....... ....... ....... ....... ....... ....... ....... ....... ....... ....... ....... ....... ....... ....... ....... ....... ....... ....... ....... ....... ....... ....... ....... ....... ....... ....... ....... ....... ....... ....... ....... ....... ....... ....... ....... ....... ....... ....... ....... ....... ....... ....... ....... ....... ....... ....... ....... ....... ....... ....... ....... ....... ....... ....... ....... ....... ....... ....... ....... ....... ....... ....... ....... ....... ....... ....... ....... ....... ....... ....... ....... ....... ....... ....... ....... ....... ....... ....... ....... ....... ....... ....... ....... ....... ....... ....... ....... ....... ....... ....... ....... ....... ....... ....",
".... ....... ....... ....... ....... ....... ....... ....... ....... ....... ....... ....... ....... ....... ....... ....... ....... ....... ....... ....... ....... ....... ....... ....... ....... ....... ....... ....... ....... ....... ....... ....... ....... ....... ....... ....... ....... ....... ....... ....... ....... ....... ....... ....... ....... ....... ....... ....... ....... ....... ....... ....... ....... ....... ....... ....... ....... ....... ....... ....... ....... ....... ....... ....... ....... ....... ....... ....... ....... ....... ....... ....... ....... ....... ....... ....... ....... ....... ....... ....... ....... ....... ....... ....... ....... ....... ....... ....... ....... ....... ....... ....... ....... ....... ....... ....... ....... ....... ....... ....... ....... ....... ....... ....... ....... ....... ....... ....... ....... ....... ....... ....... ....... ....... ....... ....... ....... ....... ....... ....... ....... ....... ....... ....... ....... ....... ....... ....... ...",
"..... ....... ....... ....... ....... ....... ....... ....... ....... ....... ....... ....... ....... ....... ....... ....... ....... ....... ....... ....... ....... ....... ....... ....... ....... ....... ....... ....... ....... ....... ....... ....... ....... ....... ....... ....... ....... ....... ....... ....... ....... ....... ....... ....... ....... ....... ....... ....... ....... ....... ....... ....... ....... ....... ....... ....... ....... ....... ....... ....... ....... ....... ....... ....... ....... ....... ....... ....... ....... ....... ....... ....... ....... ....... ....... ....... ....... ....... ....... ....... ....... ....... ....... ....... ....... ....... ....... ....... ....... ....... ....... ....... ....... ....... ....... ....... ....... ....... ....... ....... ....... ....... ....... ....... ....... ....... ....... ....... ....... ....... ....... ....... ....... ....... ....... ....... ....... ....... ....... ....... ....... ....... ....... ....... ....... ....... ....... ....... ..",
" .... .. .... .. .... .. .... .. .... .. .... .. .... .. .... .. .... .. .... .. .... .. .... .. .... .. .... .. .... .. .... .. .... .. .... .. .... .. .... .. .... .. .... .. .... .. .... .. .... .. .... .. .... .. .... .. .... .. .... .. .... .. .... .. .... .. .... .. .... .. .... .. .... .. .... .. .... .. .... .. .... .. .... .. .... .. .... .. .... .. .... .. .... .. .... .. .... .. .... .. .... .. .... .. .... .. .... .. .... .. .... .. .... .. .... .. .... .. .... .. .... .. .... .. .... .. .... .. .... .. .... .. .... .. .... .. .... .. .... .. .... .. .... .. .... .. .... .. .... .. .... .. .... .. .... .. .... .. .... .. .... .. .... .. .... .. .... .. .... .. .... .. .... .. .... .. .... .. .... .. .... .. .... .. .... .. .... .. .... .. .... .. .... .. .... .. .... .. .... .. .... .. .... .. .... .. .... .. .... .. .... .. .... .. .... .. .... .. .... .. .... .. .... .. .... .. .... .. .... .. .... .. .... .. .... .. .... .. .... .. .... .. .... .. .... .. .... .. .... .. .... .. .... .. .... ..",
". .... .. .... .. .... .. .... .. .... .. .... .. .... .. .... .. .... .. .... .. .... .. .... .. .... .. .... .. .... .. .... .. .... .. .... .. .... .. .... .. .... .. .... .. .... .. .... .. .... .. .... .. .... .. .... .. .... .. .... .. .... .. .... .. .... .. .... .. .... .. .... .. .... .. .... .. .... .. .... .. .... .. .... .. .... .. .... .. .... .. .... .. .... .. .... .. .... .. .... .. .... .. .... .. .... .. .... .. .... .. .... .. .... .. .... .. .... .. .... .. .... .. .... .. .... .. .... .. .... .. .... .. .... .. .... .. .... .. .... .. .... .. .... .. .... .. .... .. .... .. .... .. .... .. .... .. .... .. .... .. .... .. .... .. .... .. .... .. .... .. .... .. .... .. .... .. .... .. .... .. .... .. .... .. .... .. .... .. .... .. .... .. .... .. .... .. .... .. .... .. .... .. .... .. .... .. .... .. .... .. .... .. .... .. .... .. .... .. .... .. .... .. .... .. .... .. .... .. .... .. .... .. .... .. .... .. .... .. .... .. .... .. .... .. .... .. .... .. .... .. .... .. .... .. .... .",
". ..... . ..... . ..... . ..... . ..... . ..... . ..... . ..... . ..... . ..... . ..... . ..... . ..... . ..... . ..... . ..... . ..... . ..... . ..... . ..... . ..... . ..... . ..... . ..... . ..... . ..... . ..... . ..... . ..... . ..... . ..... . ..... . ..... . ..... . ..... . ..... . ..... . ..... . ..... . ..... . ..... . ..... . ..... . ..... . ..... . ..... . ..... . ..... . ..... . ..... . ..... . ..... . ..... . ..... . ..... . ..... . ..... . ..... . ..... . ..... . ..... . ..... . ..... . ..... . ..... . ..... . ..... . ..... . ..... . ..... . ..... . ..... . ..... . ..... . ..... . ..... . ..... . ..... . ..... . ..... . ..... . ..... . ..... . ..... . ..... . ..... . ..... . ..... . ..... . ..... . ..... . ..... . ..... . ..... . ..... . ..... . ..... . ..... . ..... . ..... . ..... . ..... . ..... . ..... . ..... . ..... . ..... . ..... . ..... . ..... . ..... . ..... . ..... . ..... . ..... . ..... . ..... . ..... . ..... . ..... . ..... . ..... . ..... . ..... . ..... . ..... . ..... . ..... ",
".. .... .. .... .. .... .. .... .. .... .. .... .. .... .. .... .. .... .. .... .. .... .. .... .. .... .. .... .. .... .. .... .. .... .. .... .. .... .. .... .. .... .. .... .. .... .. .... .. .... .. .... .. .... .. .... .. .... .. .... .. .... .. .... .. .... .. .... .. .... .. .... .. .... .. .... .. .... .. .... .. .... .. .... .. .... .. .... .. .... .. .... .. .... .. .... .. .... .. .... .. .... .. .... .. .... .. .... .. .... .. .... .. .... .. .... .. .... .. .... .. .... .. .... .. .... .. .... .. .... .. .... .. .... .. .... .. .... .. .... .. .... .. .... .. .... .. .... .. .... .. .... .. .... .. .... .. .... .. .... .. .... .. .... .. .... .. .... .. .... .. .... .. .... .. .... .. .... .. .... .. .... .. .... .. .... .. .... .. .... .. .... .. .... .. .... .. .... .. .... .. .... .. .... .. .... .. .... .. .... .. .... .. .... .. .... .. .... .. .... .. .... .. .... .. .... .. .... .. .... .. .... .. .... .. .... .. .... .. .... .. .... .. .... .. .... .. .... .. .... .. .... .. .... .. .... ",
"... ....... ....... ....... ....... ....... ....... ....... ....... ....... ....... ....... ....... ....... ....... ....... ....... ....... ....... ....... ....... ....... ....... ....... ....... ....... ....... ....... ....... ....... ....... ....... ....... ....... ....... ....... ....... ....... ....... ....... ....... ....... ....... ....... ....... ....... ....... ....... ....... ....... ....... ....... ....... ....... ....... ....... ....... ....... ....... ....... ....... ....... ....... ....... ....... ....... ....... ....... ....... ....... ....... ....... ....... ....... ....... ....... ....... ....... ....... ....... ....... ....... ....... ....... ....... ....... ....... ....... ....... ....... ....... ....... ....... ....... ....... ....... ....... ....... ....... ....... ....... ....... ....... ....... ....... ....... ....... ....... ....... ....... ....... ....... ....... ....... ....... ....... ....... ....... ....... ....... ....... ....... ....... ....... ....... ....... ....... ....... ....",
"... ....... ....... ....... ....... ....... ....... ....... ....... ....... ....... ....... ....... ....... ....... ....... ....... ....... ....... ....... ....... ....... ....... ....... ....... ....... ....... ....... ....... ....... ....... ....... ....... ....... ....... ....... ....... ....... ....... ....... ....... ....... ....... ....... ....... ....... ....... ....... ....... ....... ....... ....... ....... ....... ....... ....... ....... ....... ....... ....... ....... ....... ....... ....... ....... ....... ....... ....... ....... ....... ....... ....... ....... ....... ....... ....... ....... ....... ....... ....... ....... ....... ....... ....... ....... ....... ....... ....... ....... ....... ....... ....... ....... ....... ....... ....... ....... ....... ....... ....... ....... ....... ....... ....... ....... ....... ....... ....... ....... ....... ....... ....... ....... ....... ....... ....... ....... ....... ....... ....... ....... ....... ....... ....... ....... ....... ....... ....... ....",
".... ....... ....... ....... ....... ....... ....... ....... ....... ....... ....... ....... ....... ....... ....... ....... ....... ....... ....... ....... ....... ....... ....... ....... ....... ....... ....... ....... ....... ....... ....... ....... ....... ....... ....... ....... ....... ....... ....... ....... ....... ....... ....... ....... ....... ....... ....... ....... ....... ....... ....... ....... ....... ....... ....... ....... ....... ....... ....... ....... ....... ....... ....... ....... ....... ....... ....... ....... ....... ....... ....... ....... ....... ....... ....... ....... ....... ....... ....... ....... ....... ....... ....... ....... ....... ....... ....... ....... ....... ....... ....... ....... ....... ....... ....... ....... ....... ....... ....... ....... ....... ....... ....... ....... ....... ....... ....... ....... ....... ....... ....... ....... ....... ....... ....... ....... ....... ....... ....... ....... ....... ....... ....... ....... ....... ....... ....... ....... ...",
"..... ....... ....... ....... ....... ....... ....... ....... ....... ....... ....... ....... ....... ....... ....... ....... ....... ....... ....... ....... ....... ....... ....... ....... ....... ....... ....... ....... ....... ....... ....... ....... ....... ....... ....... ....... ....... ....... ....... ....... ....... ....... ....... ....... ....... ....... ....... ....... ....... ....... ....... ....... ....... ....... ....... ....... ....... ....... ....... ....... ....... ....... ....... ....... ....... ....... ....... ....... ....... ....... ....... ....... ....... ....... ....... ....... ....... ....... ....... ....... ....... ....... ....... ....... ....... ....... ....... ....... ....... ....... ....... ....... ....... ....... ....... ....... ....... ....... ....... ....... ....... ....... ....... ....... ....... ....... ....... ....... ....... ....... ....... ....... ....... ....... ....... ....... ....... ....... ....... ....... ....... ....... ....... ....... ....... ....... ....... ....... ..",
" .... .. .... .. .... .. .... .. .... .. .... .. .... .. .... .. .... .. .... .. .... .. .... .. .... .. .... .. .... .. .... .. .... .. .... .. .... .. .... .. .... .. .... .. .... .. .... .. .... .. .... .. .... .. .... .. .... .. .... .. .... .. .... .. .... .. .... .. .... .. .... .. .... .. .... .. .... .. .... .. .... .. .... .. .... .. .... .. .... .. .... .. .... .. .... .. .... .. .... .. .... .. .... .. .... .. .... .. .... .. .... .. .... .. .... .. .... .. .... .. .... .. .... .. .... .. .... .. .... .. .... .. .... .. .... .. .... .. .... .. .... .. .... .. .... .. .... .. .... .. .... .. .... .. .... .. .... .. .... .. .... .. .... .. .... .. .... .. .... .. .... .. .... .. .... .. .... .. .... .. .... .. .... .. .... .. .... .. .... .. .... .. .... .. .... .. .... .. .... .. .... .. .... .. .... .. .... .. .... .. .... .. .... .. .... .. .... .. .... .. .... .. .... .. .... .. .... .. .... .. .... .. .... .. .... .. .... .. .... .. .... .. .... .. .... .. .... .. .... .. .... .. .... .. .... ..",
". .... .. .... .. .... .. .... .. .... .. .... .. .... .. .... .. .... .. .... .. .... .. .... .. .... .. .... .. .... .. .... .. .... .. .... .. .... .. .... .. .... .. .... .. .... .. .... .. .... .. .... .. .... .. .... .. .... .. .... .. .... .. .... .. .... .. .... .. .... .. .... .. .... .. .... .. .... .. .... .. .... .. .... .. .... .. .... .. .... .. .... .. .... .. .... .. .... .. .... .. .... .. .... .. .... .. .... .. .... .. .... .. .... .. .... .. .... .. .... .. .... .. .... .. .... .. .... .. .... .. .... .. .... .. .... .. .... .. .... .. .... .. .... .. .... .. .... .. .... .. .... .. .... .. .... .. .... .. .... .. .... .. .... .. .... .. .... .. .... .. .... .. .... .. .... .. .... .. .... .. .... .. .... .. .... .. .... .. .... .. .... .. .... .. .... .. .... .. .... .. .... .. .... .. .... .. .... .. .... .. .... .. .... .. .... .. .... .. .... .. .... .. .... .. .... .. .... .. .... .. .... .. .... .. .... .. .... .. .... .. .... .. .... .. .... .. .... .. .... .. .... .. .... .. .... .",
". ..... . ..... . ..... . ..... . ..... . ..... . ..... . ..... . ..... . ..... . ..... . ..... . ..... . ..... . ..... . ..... . ..... . ..... . ..... . ..... . ..... . ..... . ..... . ..... . ..... . ..... . ..... . ..... . ..... . ..... . ..... . ..... . ..... . ..... . ..... . ..... . ..... . ..... . ..... . ..... . ..... . ..... . ..... . ..... . ..... . ..... . ..... . ..... . ..... . ..... . ..... . ..... . ..... . ..... . ..... . ..... . ..... . ..... . ..... . ..... . ..... . ..... . ..... . ..... . ..... . ..... . ..... . ..... . ..... . ..... . ..... . ..... . ..... . ..... . ..... . ..... . ..... . ..... . ..... . ..... . ..... . ..... . ..... . ..... . ..... . ..... . ..... . ..... . ..... . ..... . ..... . ..... . ..... . ..... . ..... . ..... . ..... . ..... . ..... . ..... . ..... . ..... . ..... . ..... . ..... . ..... . ..... . ..... . ..... . ..... . ..... . ..... . ..... . ..... . ..... . ..... . ..... . ..... . ..... . ..... . ..... . ..... . ..... . ..... . ..... . ..... . ..... . ..... ",
".. .... .. .... .. .... .. .... .. .... .. .... .. .... .. .... .. .... .. .... .. .... .. .... .. .... .. .... .. .... .. .... .. .... .. .... .. .... .. .... .. .... .. .... .. .... .. .... .. .... .. .... .. .... .. .... .. .... .. .... .. .... .. .... .. .... .. .... .. .... .. .... .. .... .. .... .. .... .. .... .. .... .. .... .. .... .. .... .. .... .. .... .. .... .. .... .. .... .. .... .. .... .. .... .. .... .. .... .. .... .. .... .. .... .. .... .. .... .. .... .. .... .. .... .. .... .. .... .. .... .. .... .. .... .. .... .. .... .. .... .. .... .. .... .. .... .. .... .. .... .. .... .. .... .. .... .. .... .. .... .. .... .. .... .. .... .. .... .. .... .. .... .. .... .. .... .. .... .. .... .. .... .. .... .. .... .. .... .. .... .. .... .. .... .. .... .. .... .. .... .. .... .. .... .. .... .. .... .. .... .. .... .. .... .. .... .. .... .. .... .. .... .. .... .. .... .. .... .. .... .. .... .. .... .. .... .. .... .. .... .. .... .. .... .. .... .. .... .. .... .. .... .. .... .. .... ",
"... ....... ....... ....... ....... ....... ....... ....... ....... ....... ....... ....... ....... ....... ....... ....... ....... ....... ....... ....... ....... ....... ....... ....... ....... ....... ....... ....... ....... ....... ....... ....... ....... ....... ....... ....... ....... ....... ....... ....... ....... ....... ....... ....... ....... ....... ....... ....... ....... ....... ....... ....... ....... ....... ....... ....... ....... ....... ....... ....... ....... ....... ....... ....... ....... ....... ....... ....... ....... ....... ....... ....... ....... ....... ....... ....... ....... ....... ....... ....... ....... ....... ....... ....... ....... ....... ....... ....... ....... ....... ....... ....... ....... ....... ....... ....... ....... ....... ....... ....... ....... ....... ....... ....... ....... ....... ....... ....... ....... ....... ....... ....... ....... ....... ....... ....... ....... ....... ....... ....... ....... ....... ....... ....... ....... ....... ....... ....... ....",
"... ....... ....... ....... ....... ....... ....... ....... ....... ....... ....... ....... ....... ....... ....... ....... ....... ....... ....... ....... ....... ....... ....... ....... ....... ....... ....... ....... ....... ....... ....... ....... ....... ....... ....... ....... ....... ....... ....... ....... ....... ....... ....... ....... ....... ....... ....... ....... ....... ....... ....... ....... ....... ....... ....... ....... ....... ....... ....... ....... ....... ....... ....... ....... ....... ....... ....... ....... ....... ....... ....... ....... ....... ....... ....... ....... ....... ....... ....... ....... ....... ....... ....... ....... ....... ....... ....... ....... ....... ....... ....... ....... ....... ....... ....... ....... ....... ....... ....... ....... ....... ....... ....... ....... ....... ....... ....... ....... ....... ....... ....... ....... ....... ....... ....... ....... ....... ....... ....... ....... ....... ....... ....... ....... ....... ....... ....... ....... ....",
".... ....... ....... ....... ....... ....... ....... ....... ....... ....... ....... ....... ....... ....... ....... ....... ....... ....... ....... ....... ....... ....... ....... ....... ....... ....... ....... ....... ....... ....... ....... ....... ....... ....... ....... ....... ....... ....... ....... ....... ....... ....... ....... ....... ....... ....... ....... ....... ....... ....... ....... ....... ....... ....... ....... ....... ....... ....... ....... ....... ....... ....... ....... ....... ....... ....... ....... ....... ....... ....... ....... ....... ....... ....... ....... ....... ....... ....... ....... ....... ....... ....... ....... ....... ....... ....... ....... ....... ....... ....... ....... ....... ....... ....... ....... ....... ....... ....... ....... ....... ....... ....... ....... ....... ....... ....... ....... ....... ....... ....... ....... ....... ....... ....... ....... ....... ....... ....... ....... ....... ....... ....... ....... ....... ....... ....... ....... ....... ...",
"..... ....... ....... ....... ....... ....... ....... ....... ....... ....... ....... ....... ....... ....... ....... ....... ....... ....... ....... ....... ....... ....... ....... ....... ....... ....... ....... ....... ....... ....... ....... ....... ....... ....... ....... ....... ....... ....... ....... ....... ....... ....... ....... ....... ....... ....... ....... ....... ....... ....... ....... ....... ....... ....... ....... ....... ....... ....... ....... ....... ....... ....... ....... ....... ....... ....... ....... ....... ....... ....... ....... ....... ....... ....... ....... ....... ....... ....... ....... ....... ....... ....... ....... ....... ....... ....... ....... ....... ....... ....... ....... ....... ....... ....... ....... ....... ....... ....... ....... ....... ....... ....... ....... ....... ....... ....... ....... ....... ....... ....... ....... ....... ....... ....... ....... ....... ....... ....... ....... ....... ....... ....... ....... ....... ....... ....... ....... ....... ..",
" .... .. .... .. .... .. .... .. .... .. .... .. .... .. .... .. .... .. .... .. .... .. .... .. .... .. .... .. .... .. .... .. .... .. .... .. .... .. .... .. .... .. .... .. .... .. .... .. .... .. .... .. .... .. .... .. .... .. .... .. .... .. .... .. .... .. .... .. .... .. .... .. .... .. .... .. .... .. .... .. .... .. .... .. .... .. .... .. .... .. .... .. .... .. .... .. .... .. .... .. .... .. .... .. .... .. .... .. .... .. .... .. .... .. .... .. .... .. .... .. .... .. .... .. .... .. .... .. .... .. .... .. .... .. .... .. .... .. .... .. .... .. .... .. .... .. .... .. .... .. .... .. .... .. .... .. .... .. .... .. .... .. .... .. .... .. .... .. .... .. .... .. .... .. .... .. .... .. .... .. .... .. .... .. .... .. .... .. .... .. .... .. .... .. .... .. .... .. .... .. .... .. .... .. .... .. .... .. .... .. .... .. .... .. .... .. .... .. .... .. .... .. .... .. .... .. .... .. .... .. .... .. .... .. .... .. .... .. .... .. .... .. .... .. .... .. .... .. .... .. .... .. .... .. .... ..",
". .... .. .... .. .... .. .... .. .... .. .... .. .... .. .... .. .... .. .... .. .... .. .... .. .... .. .... .. .... .. .... .. .... .. .... .. .... .. .... .. .... .. .... .. .... .. .... .. .... .. .... .. .... .. .... .. .... .. .... .. .... .. .... .. .... .. .... .. .... .. .... .. .... .. .... .. .... .. .... .. .... .. .... .. .... .. .... .. .... .. .... .. .... .. .... .. .... .. .... .. .... .. .... .. .... .. .... .. .... .. .... .. .... .. .... .. .... .. .... .. .... .. .... .. .... .. .... .. .... .. .... .. .... .. .... .. .... .. .... .. .... .. .... .. .... .. .... .. .... .. .... .. .... .. .... .. .... .. .... .. .... .. .... .. .... .. .... .. .... .. .... .. .... .. .... .. .... .. .... .. .... .. .... .. .... .. .... .. .... .. .... .. .... .. .... .. .... .. .... .. .... .. .... .. .... .. .... .. .... .. .... .. .... .. .... .. .... .. .... .. .... .. .... .. .... .. .... .. .... .. .... .. .... .. .... .. .... .. .... .. .... .. .... .. .... .. .... .. .... .. .... .. .... .. .... .",
". ..... . ..... . ..... . ..... . ..... . ..... . ..... . ..... . ..... . ..... . ..... . ..... . ..... . ..... . ..... . ..... . ..... . ..... . ..... . ..... . ..... . ..... . ..... . ..... . ..... . ..... . ..... . ..... . ..... . ..... . ..... . ..... . ..... . ..... . ..... . ..... . ..... . ..... . ..... . ..... . ..... . ..... . ..... . ..... . ..... . ..... . ..... . ..... . ..... . ..... . ..... . ..... . ..... . ..... . ..... . ..... . ..... . ..... . ..... . ..... . ..... . ..... . ..... . ..... . ..... . ..... . ..... . ..... . ..... . ..... . ..... . ..... . ..... . ..... . ..... . ..... . ..... . ..... . ..... . ..... . ..... . ..... . ..... . ..... . ..... . ..... . ..... . ..... . ..... . ..... . ..... . ..... . ..... . ..... . ..... . ..... . ..... . ..... . ..... . ..... . ..... . ..... . ..... . ..... . ..... . ..... . ..... . ..... . ..... . ..... . ..... . ..... . ..... . ..... . ..... . ..... . ..... . ..... . ..... . ..... . ..... . ..... . ..... . ..... . ..... . ..... . ..... . ..... ",
".. .... .. .... .. .... .. .... .. .... .. .... .. .... .. .... .. .... .. .... .. .... .. .... .. .... .. .... .. .... .. .... .. .... .. .... .. .... .. .... .. .... .. .... .. .... .. .... .. .... .. .... .. .... .. .... .. .... .. .... .. .... .. .... .. .... .. .... .. .... .. .... .. .... .. .... .. .... .. .... .. .... .. .... .. .... .. .... .. .... .. .... .. .... .. .... .. .... .. .... .. .... .. .... .. .... .. .... .. .... .. .... .. .... .. .... .. .... .. .... .. .... .. .... .. .... .. .... .. .... .. .... .. .... .. .... .. .... .. .... .. .... .. .... .. .... .. .... .. .... .. .... .. .... .. .... .. .... .. .... .. .... .. .... .. .... .. .... .. .... .. .... .. .... .. .... .. .... .. .... .. .... .. .... .. .... .. .... .. .... .. .... .. .... .. .... .. .... .. .... .. .... .. .... .. .... .. .... .. .... .. .... .. .... .. .... .. .... .. .... .. .... .. .... .. .... .. .... .. .... .. .... .. .... .. .... .. .... .. .... .. .... .. .... .. .... .. .... .. .... .. .... .. .... .. .... ",
"... ....... ....... ....... ....... ....... ....... ....... ....... ....... ....... ....... ....... ....... ....... ....... ....... ....... ....... ....... ....... ....... ....... ....... ....... ....... ....... ....... ....... ....... ....... ....... ....... ....... ....... ....... ....... ....... ....... ....... ....... ....... ....... ....... ....... ....... ....... ....... ....... ....... ....... ....... ....... ....... ....... ....... ....... ....... ....... ....... ....... ....... ....... ....... ....... ....... ....... ....... ....... ....... ....... ....... ....... ....... ....... ....... ....... ....... ....... ....... ....... ....... ....... ....... ....... ....... ....... ....... ....... ....... ....... ....... ....... ....... ....... ....... ....... ....... ....... ....... ....... ....... ....... ....... ....... ....... ....... ....... ....... ....... ....... ....... ....... ....... ....... ....... ....... ....... ....... ....... ....... ....... ....... ....... ....... ....... ....... ....... ....",
"... ....... ....... ....... ....... ....... ....... ....... ....... ....... ....... ....... ....... ....... ....... ....... ....... ....... ....... ....... ....... ....... ....... ....... ....... ....... ....... ....... ....... ....... ....... ....... ....... ....... ....... ....... ....... ....... ....... ....... ....... ....... ....... ....... ....... ....... ....... ....... ....... ....... ....... ....... ....... ....... ....... ....... ....... ....... ....... ....... ....... ....... ....... ....... ....... ....... ....... ....... ....... ....... ....... ....... ....... ....... ....... ....... ....... ....... ....... ....... ....... ....... ....... ....... ....... ....... ....... ....... ....... ....... ....... ....... ....... ....... ....... ....... ....... ....... ....... ....... ....... ....... ....... ....... ....... ....... ....... ....... ....... ....... ....... ....... ....... ....... ....... ....... ....... ....... ....... ....... ....... ....... ....... ....... ....... ....... ....... ....... ....",
".... .. .... .. .... .. .... .. .... .. .... .. .... .. .... .. .... .. .... .. .... .. .... .. .... .. .... .. .... .. .... .. .... .. .... .. .... .. .... .. .... .. .... .. .... .. .... .. .... .. .... .. .... .. .... .. .... .. .... .. .... .. .... .. .... .. .... .. .... .. .... .. .... .. .... .. .... .. .... .. .... .. .... .. .... .. .... .. .... .. .... .. .... .. .... .. .... .. .... .. .... .. .... .. .... .. .... .. .... .. .... .. .... .. .... .. .... .. .... .. .... .. .... .. .... .. .... .. .... .. .... .. .... .. .... .. .... .. .... .. .... .. .... .. .... .. .... .. .... .. .... .. .... .. .... .. .... .. .... .. .... .. .... .. .... .. .... .. .... .. .... .. .... .. .... .. .... .. .... .. .... .. .... .. .... .. .... .. .... .. .... .. .... .. .... .. .... .. .... .. .... .. .... .. .... .. .... .. .... .. .... .. .... .. .... .. .... .. .... .. .... .. .... .. .... .. .... .. .... .. .... .. .... .. .... .. .... .. .... .. .... .. .... .. .... .. .... .. .... .. .... .. .... .. .... .. ",
"..... . ..... . ..... . ..... . ..... . ..... . ..... . ..... . ..... . ..... . ..... . ..... . ..... . ..... . ..... . ..... . ..... . ..... . ..... . ..... . ..... . ..... . ..... . ..... . ..... . ..... . ..... . ..... . ..... . ..... . ..... . ..... . ..... . ..... . ..... . ..... . ..... . ..... . ..... . ..... . ..... . ..... . ..... . ..... . ..... . ..... . ..... . ..... . ..... . ..... . ..... . ..... . ..... . ..... . ..... . ..... . ..... . ..... . ..... . ..... . ..... . ..... . ..... . ..... . ..... . ..... . ..... . ..... . ..... . ..... . ..... . ..... . ..... . ..... . ..... . ..... . ..... . ..... . ..... . ..... . ..... . ..... . ..... . ..... . ..... . ..... . ..... . ..... . ..... . ..... . ..... . ..... . ..... . ..... . ..... . ..... . ..... . ..... . ..... . ..... . ..... . ..... . ..... . ..... . ..... . ..... . ..... . ..... . ..... . ..... . ..... . ..... . ..... . ..... . ..... . ..... . ..... . ..... . ..... . ..... . ..... . ..... . ..... . ..... . ..... . ..... . ..... . ..... . ",
" .... .. .... .. .... .. .... .. .... .. .... .. .... .. .... .. .... .. .... .. .... .. .... .. .... .. .... .. .... .. .... .. .... .. .... .. .... .. .... .. .... .. .... .. .... .. .... .. .... .. .... .. .... .. .... .. .... .. .... .. .... .. .... .. .... .. .... .. .... .. .... .. .... .. .... .. .... .. .... .. .... .. .... .. .... .. .... .. .... .. .... .. .... .. .... .. .... .. .... .. .... .. .... .. .... .. .... .. .... .. .... .. .... .. .... .. .... .. .... .. .... .. .... .. .... .. .... .. .... .. .... .. .... .. .... .. .... .. .... .. .... .. .... .. .... .. .... .. .... .. .... .. .... .. .... .. .... .. .... .. .... .. .... .. .... .. .... .. .... .. .... .. .... .. .... .. .... .. .... .. .... .. .... .. .... .. .... .. .... .. .... .. .... .. .... .. .... .. .... .. .... .. .... .. .... .. .... .. .... .. .... .. .... .. .... .. .... .. .... .. .... .. .... .. .... .. .... .. .... .. .... .. .... .. .... .. .... .. .... .. .... .. .... .. .... .. .... .. .... .. .... .. .... .. .... ..",
". .... .. .... .. .... .. .... .. .... .. .... .. .... .. .... .. .... .. .... .. .... .. .... .. .... .. .... .. .... .. .... .. .... .. .... .. .... .. .... .. .... .. .... .. .... .. .... .. .... .. .... .. .... .. .... .. .... .. .... .. .... .. .... .. .... .. .... .. .... .. .... .. .... .. .... .. .... .. .... .. .... .. .... .. .... .. .... .. .... .. .... .. .... .. .... .. .... .. .... .. .... .. .... .. .... .. .... .. .... .. .... .. .... .. .... .. .... .. .... .. .... .. .... .. .... .. .... .. .... .. .... .. .... .. .... .. .... .. .... .. .... .. .... .. .... .. .... .. .... .. .... .. .... .. .... .. .... .. .... .. .... .. .... .. .... .. .... .. .... .. .... .. .... .. .... .. .... .. .... .. .... .. .... .. .... .. .... .. .... .. .... .. .... .. .... .. .... .. .... .. .... .. .... .. .... .. .... .. .... .. .... .. .... .. .... .. .... .. .... .. .... .. .... .. .... .. .... .. .... .. .... .. .... .. .... .. .... .. .... .. .... .. .... .. .... .. .... .. .... .. .... .. .... .. .... .",
". ..... . ..... . ..... . ..... . ..... . ..... . ..... . ..... . ..... . ..... . ..... . ..... . ..... . ..... . ..... . ..... . ..... . ..... . ..... . ..... . ..... . ..... . ..... . ..... . ..... . ..... . ..... . ..... . ..... . ..... . ..... . ..... . ..... . ..... . ..... . ..... . ..... . ..... . ..... . ..... . ..... . ..... . ..... . ..... . ..... . ..... . ..... . ..... . ..... . ..... . ..... . ..... . ..... . ..... . ..... . ..... . ..... . ..... . ..... . ..... . ..... . ..... . ..... . ..... . ..... . ..... . ..... . ..... . ..... . ..... . ..... . ..... . ..... . ..... . ..... . ..... . ..... . ..... . ..... . ..... . ..... . ..... . ..... . ..... . ..... . ..... . ..... . ..... . ..... . ..... . ..... . ..... . ..... . ..... . ..... . ..... . ..... . ..... . ..... . ..... . ..... . ..... . ..... . ..... . ..... . ..... . ..... . ..... . ..... . ..... . ..... . ..... . ..... . ..... . ..... . ..... . ..... . ..... . ..... . ..... . ..... . ..... . ..... . ..... . ..... . ..... . ..... . ..... ",
".. .... .. .... .. .... .. .... .. .... .. .... .. .... .. .... .. .... .. .... .. .... .. .... .. .... .. .... .. .... .. .... .. .... .. .... .. .... .. .... .. .... .. .... .. .... .. .... .. .... .. .... .. .... .. .... .. .... .. .... .. .... .. .... .. .... .. .... .. .... .. .... .. .... .. .... .. .... .. .... .. .... .. .... .. .... .. .... .. .... .. .... .. .... .. .... .. .... .. .... .. .... .. .... .. .... .. .... .. .... .. .... .. .... .. .... .. .... .. .... .. .... .. .... .. .... .. .... .. .... .. .... .. .... .. .... .. .... .. .... .. .... .. .... .. .... .. .... .. .... .. .... .. .... .. .... .. .... .. .... .. .... .. .... .. .... .. .... .. .... .. .... .. .... .. .... .. .... .. .... .. .... .. .... .. .... .. .... .. .... .. .... .. .... .. .... .. .... .. .... .. .... .. .... .. .... .. .... .. .... .. .... .. .... .. .... .. .... .. .... .. .... .. .... .. .... .. .... .. .... .. .... .. .... .. .... .. .... .. .... .. .... .. .... .. .... .. .... .. .... .. .... .. .... .. .... ",
"... . ..... . ..... . ..... . ..... . ..... . ..... . ..... . ..... . ..... . ..... . ..... . ..... . ..... . ..... . ..... . ..... . ..... . ..... . ..... . ..... . ..... . ..... . ..... . ..... . ..... . ..... . ..... . ..... . ..... . ..... . ..... . ..... . ..... . ..... . ..... . ..... . ..... . ..... . ..... . ..... . ..... . ..... . ..... . ..... . ..... . ..... . ..... . ..... . ..... . ..... . ..... . ..... . ..... . ..... . ..... . ..... . ..... . ..... . ..... . ..... . ..... . ..... . ..... . ..... . ..... . ..... . ..... . ..... . ..... . ..... . ..... . ..... . ..... . ..... . ..... . ..... . ..... . ..... . ..... . ..... . ..... . ..... . ..... . ..... . ..... . ..... . ..... . ..... . ..... . ..... . ..... . ..... . ..... . ..... . ..... . ..... . ..... . ..... . ..... . ..... . ..... . ..... . ..... . ..... . ..... . ..... . ..... . ..... . ..... . ..... . ..... . ..... . ..... . ..... . ..... . ..... . ..... . ..... . ..... . ..... . ..... . ..... . ..... . ..... . ..... . ..... . ..... . ..",
"... .. .... .. .... .. .... .. .... .. .... .. .... .. .... .. .... .. .... .. .... .. .... .. .... .. .... .. .... .. .... .. .... .. .... .. .... .. .... .. .... .. .... .. .... .. .... .. .... .. .... .. .... .. .... .. .... .. .... .. .... .. .... .. .... .. .... .. .... .. .... .. .... .. .... .. .... .. .... .. .... .. .... .. .... .. .... .. .... .. .... .. .... .. .... .. .... .. .... .. .... .. .... .. .... .. .... .. .... .. .... .. .... .. .... .. .... .. .... .. .... .. .... .. .... .. .... .. .... .. .... .. .... .. .... .. .... .. .... .. .... .. .... .. .... .. .... .. .... .. .... .. .... .. .... .. .... .. .... .. .... .. .... .. .... .. .... .. .... .. .... .. .... .. .... .. .... .. .... .. .... .. .... .. .... .. .... .. .... .. .... .. .... .. .... .. .... .. .... .. .... .. .... .. .... .. .... .. .... .. .... .. .... .. .... .. .... .. .... .. .... .. .... .. .... .. .... .. .... .. .... .. .... .. .... .. .... .. .... .. .... .. .... .. .... .. .... .. .... .. .... .. .... .. .... .. .",
".... .. .... .. .... .. .... .. .... .. .... .. .... .. .... .. .... .. .... .. .... .. .... .. .... .. .... .. .... .. .... .. .... .. .... .. .... .. .... .. .... .. .... .. .... .. .... .. .... .. .... .. .... .. .... .. .... .. .... .. .... .. .... .. .... .. .... .. .... .. .... .. .... .. .... .. .... .. .... .. .... .. .... .. .... .. .... .. .... .. .... .. .... .. .... .. .... .. .... .. .... .. .... .. .... .. .... .. .... .. .... .. .... .. .... .. .... .. .... .. .... .. .... .. .... .. .... .. .... .. .... .. .... .. .... .. .... .. .... .. .... .. .... .. .... .. .... .. .... .. .... .. .... .. .... .. .... .. .... .. .... .. .... .. .... .. .... .. .... .. .... .. .... .. .... .. .... .. .... .. .... .. .... .. .... .. .... .. .... .. .... .. .... .. .... .. .... .. .... .. .... .. .... .. .... .. .... .. .... .. .... .. .... .. .... .. .... .. .... .. .... .. .... .. .... .. .... .. .... .. .... .. .... .. .... .. .... .. .... .. .... .. .... .. .... .. .... .. .... .. .... .. .... .. .... .. ",
"..... . ..... . ..... . ..... . ..... . ..... . ..... . ..... . ..... . ..... . ..... . ..... . ..... . ..... . ..... . ..... . ..... . ..... . ..... . ..... . ..... . ..... . ..... . ..... . ..... . ..... . ..... . ..... . ..... . ..... . ..... . ..... . ..... . ..... . ..... . ..... . ..... . ..... . ..... . ..... . ..... . ..... . ..... . ..... . ..... . ..... . ..... . ..... . ..... . ..... . ..... . ..... . ..... . ..... . ..... . ..... . ..... . ..... . ..... . ..... . ..... . ..... . ..... . ..... . ..... . ..... . ..... . ..... . ..... . ..... . ..... . ..... . ..... . ..... . ..... . ..... . ..... . ..... . ..... . ..... . ..... . ..... . ..... . ..... . ..... . ..... . ..... . ..... . ..... . ..... . ..... . ..... . ..... . ..... . ..... . ..... . ..... . ..... . ..... . ..... . ..... . ..... . ..... . ..... . ..... . ..... . ..... . ..... . ..... . ..... . ..... . ..... . ..... . ..... . ..... . ..... . ..... . ..... . ..... . ..... . ..... . ..... . ..... . ..... . ..... . ..... . ..... . ..... . ",
" .... .. .... .. .... .. .... .. .... .. .... .. .... .. .... .. .... .. .... .. .... .. .... .. .... .. .... .. .... .. .... .. .... .. .... .. .... .. .... .. .... .. .... .. .... .. .... .. .... .. .... .. .... .. .... .. .... .. .... .. .... .. .... .. .... .. .... .. .... .. .... .. .... .. .... .. .... .. .... .. .... .. .... .. .... .. .... .. .... .. .... .. .... .. .... .. .... .. .... .. .... .. .... .. .... .. .... .. .... .. .... .. .... .. .... .. .... .. .... .. .... .. .... .. .... .. .... .. .... .. .... .. .... .. .... .. .... .. .... .. .... .. .... .. .... .. .... .. .... .. .... .. .... .. .... .. .... .. .... .. .... .. .... .. .... .. .... .. .... .. .... .. .... .. .... .. .... .. .... .. .... .. .... .. .... .. .... .. .... .. .... .. .... .. .... .. .... .. .... .. .... .. .... .. .... .. .... .. .... .. .... .. .... .. .... .. .... .. .... .. .... .. .... .. .... .. .... .. .... .. .... .. .... .. .... .. .... .. .... .. .... .. .... .. .... .. .... .. .... .. .... .. .... .. .... ..",
". .... .. .... .. .... .. .... .. .... .. .... .. .... .. .... .. .... .. .... .. .... .. .... .. .... .. .... .. .... .. .... .. .... .. .... .. .... .. .... .. .... .. .... .. .... .. .... .. .... .. .... .. .... .. .... .. .... .. .... .. .... .. .... .. .... .. .... .. .... .. .... .. .... .. .... .. .... .. .... .. .... .. .... .. .... .. .... .. .... .. .... .. .... .. .... .. .... .. .... .. .... .. .... .. .... .. .... .. .... .. .... .. .... .. .... .. .... .. .... .. .... .. .... .. .... .. .... .. .... .. .... .. .... .. .... .. .... .. .... .. .... .. .... .. .... .. .... .. .... .. .... .. .... .. .... .. .... .. .... .. .... .. .... .. .... .. .... .. .... .. .... .. .... .. .... .. .... .. .... .. .... .. .... .. .... .. .... .. .... .. .... .. .... .. .... .. .... .. .... .. .... .. .... .. .... .. .... .. .... .. .... .. .... .. .... .. .... .. .... .. .... .. .... .. .... .. .... .. .... .. .... .. .... .. .... .. .... .. .... .. .... .. .... .. .... .. .... .. .... .. .... .. .... .. .... .",
". ..... . ..... . ..... . ..... . ..... . ..... . ..... . ..... . ..... . ..... . ..... . ..... . ..... . ..... . ..... . ..... . ..... . ..... . ..... . ..... . ..... . ..... . ..... . ..... . ..... . ..... . ..... . ..... . ..... . ..... . ..... . ..... . ..... . ..... . ..... . ..... . ..... . ..... . ..... . ..... . ..... . ..... . ..... . ..... . ..... . ..... . ..... . ..... . ..... . ..... . ..... . ..... . ..... . ..... . ..... . ..... . ..... . ..... . ..... . ..... . ..... . ..... . ..... . ..... . ..... . ..... . ..... . ..... . ..... . ..... . ..... . ..... . ..... . ..... . ..... . ..... . ..... . ..... . ..... . ..... . ..... . ..... . ..... . ..... . ..... . ..... . ..... . ..... . ..... . ..... . ..... . ..... . ..... . ..... . ..... . ..... . ..... . ..... . ..... . ..... . ..... . ..... . ..... . ..... . ..... . ..... . ..... . ..... . ..... . ..... . ..... . ..... . ..... . ..... . ..... . ..... . ..... . ..... . ..... . ..... . ..... . ..... . ..... . ..... . ..... . ..... . ..... . ..... ",
".. .... .. .... .. .... .. .... .. .... .. .... .. .... .. .... .. .... .. .... .. .... .. .... .. .... .. .... .. .... .. .... .. .... .. .... .. .... .. .... .. .... .. .... .. .... .. .... .. .... .. .... .. .... .. .... .. .... .. .... .. .... .. .... .. .... .. .... .. .... .. .... .. .... .. .... .. .... .. .... .. .... .. .... .. .... .. .... .. .... .. .... .. .... .. .... .. .... .. .... .. .... .. .... .. .... .. .... .. .... .. .... .. .... .. .... .. .... .. .... .. .... .. .... .. .... .. .... .. .... .. .... .. .... .. .... .. .... .. .... .. .... .. .... .. .... .. .... .. .... .. .... .. .... .. .... .. .... .. .... .. .... .. .... .. .... .. .... .. .... .. .... .. .... .. .... .. .... .. .... .. .... .. .... .. .... .. .... .. .... .. .... .. .... .. .... .. .... .. .... .. .... .. .... .. .... .. .... .. .... .. .... .. .... .. .... .. .... .. .... .. .... .. .... .. .... .. .... .. .... .. .... .. .... .. .... .. .... .. .... .. .... .. .... .. .... .. .... .. .... .. .... .. .... .. .... ",
"... . ..... . ..... . ..... . ..... . ..... . ..... . ..... . ..... . ..... . ..... . ..... . ..... . ..... . ..... . ..... . ..... . ..... . ..... . ..... . ..... . ..... . ..... . ..... . ..... . ..... . ..... . ..... . ..... . ..... . ..... . ..... . ..... . ..... . ..... . ..... . ..... . ..... . ..... . ..... . ..... . ..... . ..... . ..... . ..... . ..... . ..... . ..... . ..... . ..... . ..... . ..... . ..... . ..... . ..... . ..... . ..... . ..... . ..... . ..... . ..... . ..... . ..... . ..... . ..... . ..... . ..... . ..... . ..... . ..... . ..... . ..... . ..... . ..... . ..... . ..... . ..... . ..... . ..... . ..... . ..... . ..... . ..... . ..... . ..... . ..... . ..... . ..... . ..... . ..... . ..... . ..... . ..... . ..... . ..... . ..... . ..... . ..... . ..... . ..... . ..... . ..... . ..... . ..... . ..... . ..... . ..... . ..... . ..... . ..... . ..... . ..... . ..... . ..... . ..... . ..... . ..... . ..... . ..... . ..... . ..... . ..... . ..... . ..... . ..... . ..... . ..... . ..... . ..",
"... .. .... .. .... .. .... .. .... .. .... .. .... .. .... .. .... .. .... .. .... .. .... .. .... .. .... .. .... .. .... .. .... .. .... .. .... .. .... .. .... .. .... .. .... .. .... .. .... .. .... .. .... .. .... .. .... .. .... .. .... .. .... .. .... .. .... .. .... .. .... .. .... .. .... .. .... .. .... .. .... .. .... .. .... .. .... .. .... .. .... .. .... .. .... .. .... .. .... .. .... .. .... .. .... .. .... .. .... .. .... .. .... .. .... .. .... .. .... .. .... .. .... .. .... .. .... .. .... .. .... .. .... .. .... .. .... .. .... .. .... .. .... .. .... .. .... .. .... .. .... .. .... .. .... .. .... .. .... .. .... .. .... .. .... .. .... .. .... .. .... .. .... .. .... .. .... .. .... .. .... .. .... .. .... .. .... .. .... .. .... .. .... .. .... .. .... .. .... .. .... .. .... .. .... .. .... .. .... .. .... .. .... .. .... .. .... .. .... .. .... .. .... .. .... .. .... .. .... .. .... .. .... .. .... .. .... .. .... .. .... .. .... .. .... .. .... .. .... .. .... .. .... .. .... .. .",
".... .. .... .. .... .. .... .. .... .. .... .. .... .. .... .. .... .. .... .. .... .. .... .. .... .. .... .. .... .. .... .. .... .. .... .. .... .. .... .. .... .. .... .. .... .. .... .. .... .. .... .. .... .. .... .. .... .. .... .. .... .. .... .. .... .. .... .. .... .. .... .. .... .. .... .. .... .. .... .. .... .. .... .. .... .. .... .. .... .. .... .. .... .. .... .. .... .. .... .. .... .. .... .. .... .. .... .. .... .. .... .. .... .. .... .. .... .. .... .. .... .. .... .. .... .. .... .. .... .. .... .. .... .. .... .. .... .. .... .. .... .. .... .. .... .. .... .. .... .. .... .. .... .. .... .. .... .. .... .. .... .. .... .. .... .. .... .. .... .. .... .. .... .. .... .. .... .. .... .. .... .. .... .. .... .. .... .. .... .. .... .. .... .. .... .. .... .. .... .. .... .. .... .. .... .. .... .. .... .. .... .. .... .. .... .. .... .. .... .. .... .. .... .. .... .. .... .. .... .. .... .. .... .. .... .. .... .. .... .. .... .. .... .. .... .. .... .. .... .. .... .. .... .. .... .. ",
"..... . ..... . ..... . ..... . ..... . ..... . ..... . ..... . ..... . ..... . ..... . ..... . ..... . ..... . ..... . ..... . ..... . ..... . ..... . ..... . ..... . ..... . ..... . ..... . ..... . ..... . ..... . ..... . ..... . ..... . ..... . ..... . ..... . ..... . ..... . ..... . ..... . ..... . ..... . ..... . ..... . ..... . ..... . ..... . ..... . ..... . ..... . ..... . ..... . ..... . ..... . ..... . ..... . ..... . ..... . ..... . ..... . ..... . ..... . ..... . ..... . ..... . ..... . ..... . ..... . ..... . ..... . ..... . ..... . ..... . ..... . ..... . ..... . ..... . ..... . ..... . ..... . ..... . ..... . ..... . ..... . ..... . ..... . ..... . ..... . ..... . ..... . ..... . ..... . ..... . ..... . ..... . ..... . ..... . ..... . ..... . ..... . ..... . ..... . ..... . ..... . ..... . ..... . ..... . ..... . ..... . ..... . ..... . ..... . ..... . ..... . ..... . ..... . ..... . ..... . ..... . ..... . ..... . ..... . ..... . ..... . ..... . ..... . ..... . ..... . ..... . ..... . ..... . ",
" .... .. .... .. .... .. .... .. .... .. .... .. .... .. .... .. .... .. .... .. .... .. .... .. .... .. .... .. .... .. .... .. .... .. .... .. .... .. .... .. .... .. .... .. .... .. .... .. .... .. .... .. .... .. .... .. .... .. .... .. .... .. .... .. .... .. .... .. .... .. .... .. .... .. .... .. .... .. .... .. .... .. .... .. .... .. .... .. .... .. .... .. .... .. .... .. .... .. .... .. .... .. .... .. .... .. .... .. .... .. .... .. .... .. .... .. .... .. .... .. .... .. .... .. .... .. .... .. .... .. .... .. .... .. .... .. .... .. .... .. .... .. .... .. .... .. .... .. .... .. .... .. .... .. .... .. .... .. .... .. .... .. .... .. .... .. .... .. .... .. .... .. .... .. .... .. .... .. .... .. .... .. .... .. .... .. .... .. .... .. .... .. .... .. .... .. .... .. .... .. .... .. .... .. .... .. .... .. .... .. .... .. .... .. .... .. .... .. .... .. .... .. .... .. .... .. .... .. .... .. .... .. .... .. .... .. .... .. .... .. .... .. .... .. .... .. .... .. .... .. .... .. .... .. .... ..",
". .... .. .... .. .... .. .... .. .... .. .... .. .... .. .... .. .... .. .... .. .... .. .... .. .... .. .... .. .... .. .... .. .... .. .... .. .... .. .... .. .... .. .... .. .... .. .... .. .... .. .... .. .... .. .... .. .... .. .... .. .... .. .... .. .... .. .... .. .... .. .... .. .... .. .... .. .... .. .... .. .... .. .... .. .... .. .... .. .... .. .... .. .... .. .... .. .... .. .... .. .... .. .... .. .... .. .... .. .... .. .... .. .... .. .... .. .... .. .... .. .... .. .... .. .... .. .... .. .... .. .... .. .... .. .... .. .... .. .... .. .... .. .... .. .... .. .... .. .... .. .... .. .... .. .... .. .... .. .... .. .... .. .... .. .... .. .... .. .... .. .... .. .... .. .... .. .... .. .... .. .... .. .... .. .... .. .... .. .... .. .... .. .... .. .... .. .... .. .... .. .... .. .... .. .... .. .... .. .... .. .... .. .... .. .... .. .... .. .... .. .... .. .... .. .... .. .... .. .... .. .... .. .... .. .... .. .... .. .... .. .... .. .... .. .... .. .... .. .... .. .... .. .... .. .... .",
". ..... . ..... . ..... . ..... . ..... . ..... . ..... . ..... . ..... . ..... . ..... . ..... . ..... . ..... . ..... . ..... . ..... . ..... . ..... . ..... . ..... . ..... . ..... . ..... . ..... . ..... . ..... . ..... . ..... . ..... . ..... . ..... . ..... . ..... . ..... . ..... . ..... . ..... . ..... . ..... . ..... . ..... . ..... . ..... . ..... . ..... . ..... . ..... . ..... . ..... . ..... . ..... . ..... . ..... . ..... . ..... . ..... . ..... . ..... . ..... . ..... . ..... . ..... . ..... . ..... . ..... . ..... . ..... . ..... . ..... . ..... . ..... . ..... . ..... . ..... . ..... . ..... . ..... . ..... . ..... . ..... . ..... . ..... . ..... . ..... . ..... . ..... . ..... . ..... . ..... . ..... . ..... . ..... . ..... . ..... . ..... . ..... . ..... . ..... . ..... . ..... . ..... . ..... . ..... . ..... . ..... . ..... . ..... . ..... . ..... . ..... . ..... . ..... . ..... . ..... . ..... . ..... . ..... . ..... . ..... . ..... . ..... . ..... . ..... . ..... . ..... . ..... . ..... ",
".. .... .. .... .. .... .. .... .. .... .. .... .. .... .. .... .. .... .. .... .. .... .. .... .. .... .. .... .. .... .. .... .. .... .. .... .. .... .. .... .. .... .. .... .. .... .. .... .. .... .. .... .. .... .. .... .. .... .. .... .. .... .. .... .. .... .. .... .. .... .. .... .. .... .. .... .. .... .. .... .. .... .. .... .. .... .. .... .. .... .. .... .. .... .. .... .. .... .. .... .. .... .. .... .. .... .. .... .. .... .. .... .. .... .. .... .. .... .. .... .. .... .. .... .. .... .. .... .. .... .. .... .. .... .. .... .. .... .. .... .. .... .. .... .. .... .. .... .. .... .. .... .. .... .. .... .. .... .. .... .. .... .. .... .. .... .. .... .. .... .. .... .. .... .. .... .. .... .. .... .. .... .. .... .. .... .. .... .. .... .. .... .. .... .. .... .. .... .. .... .. .... .. .... .. .... .. .... .. .... .. .... .. .... .. .... .. .... .. .... .. .... .. .... .. .... .. .... .. .... .. .... .. .... .. .... .. .... .. .... .. .... .. .... .. .... .. .... .. .... .. .... .. .... .. .... ",
"... . ..... . ..... . ..... . ..... . ..... . ..... . ..... . ..... . ..... . ..... . ..... . ..... . ..... . ..... . ..... . ..... . ..... . ..... . ..... . ..... . ..... . ..... . ..... . ..... . ..... . ..... . ..... . ..... . ..... . ..... . ..... . ..... . ..... . ..... . ..... . ..... . ..... . ..... . ..... . ..... . ..... . ..... . ..... . ..... . ..... . ..... . ..... . ..... . ..... . ..... . ..... . ..... . ..... . ..... . ..... . ..... . ..... . ..... . ..... . ..... . ..... . ..... . ..... . ..... . ..... . ..... . ..... . ..... . ..... . ..... . ..... . ..... . ..... . ..... . ..... . ..... . ..... . ..... . ..... . ..... . ..... . ..... . ..... . ..... . ..... . ..... . ..... . ..... . ..... . ..... . ..... . ..... . ..... . ..... . ..... . ..... . ..... . ..... . ..... . ..... . ..... . ..... . ..... . ..... . ..... . ..... . ..... . ..... . ..... . ..... . ..... . ..... . ..... . ..... . ..... . ..... . ..... . ..... . ..... . ..... . ..... . ..... . ..... . ..... . ..... . ..... . ..... . ..",
"... .. .... .. .... .. .... .. .... .. .... .. .... .. .... .. .... .. .... .. .... .. .... .. .... .. .... .. .... .. .... .. .... .. .... .. .... .. .... .. .... .. .... .. .... .. .... .. .... .. .... .. .... .. .... .. .... .. .... .. .... .. .... .. .... .. .... .. .... .. .... .. .... .. .... .. .... .. .... .. .... .. .... .. .... .. .... .. .... .. .... .. .... .. .... .. .... .. .... .. .... .. .... .. .... .. .... .. .... .. .... .. .... .. .... .. .... .. .... .. .... .. .... .. .... .. .... .. .... .. .... .. .... .. .... .. .... .. .... .. .... .. .... .. .... .. .... .. .... .. .... .. .... .. .... .. .... .. .... .. .... .. .... .. .... .. .... .. .... .. .... .. .... .. .... .. .... .. .... .. .... .. .... .. .... .. .... .. .... .. .... .. .... .. .... .. .... .. .... .. .... .. .... .. .... .. .... .. .... .. .... .. .... .. .... .. .... .. .... .. .... .. .... .. .... .. .... .. .... .. .... .. .... .. .... .. .... .. .... .. .... .. .... .. .... .. .... .. .... .. .... .. .... .. .... .. .",
".... .. .... .. .... .. .... .. .... .. .... .. .... .. .... .. .... .. .... .. .... .. .... .. .... .. .... .. .... .. .... .. .... .. .... .. .... .. .... .. .... .. .... .. .... .. .... .. .... .. .... .. .... .. .... .. .... .. .... .. .... .. .... .. .... .. .... .. .... .. .... .. .... .. .... .. .... .. .... .. .... .. .... .. .... .. .... .. .... .. .... .. .... .. .... .. .... .. .... .. .... .. .... .. .... .. .... .. .... .. .... .. .... .. .... .. .... .. .... .. .... .. .... .. .... .. .... .. .... .. .... .. .... .. .... .. .... .. .... .. .... .. .... .. .... .. .... .. .... .. .... .. .... .. .... .. .... .. .... .. .... .. .... .. .... .. .... .. .... .. .... .. .... .. .... .. .... .. .... .. .... .. .... .. .... .. .... .. .... .. .... .. .... .. .... .. .... .. .... .. .... .. .... .. .... .. .... .. .... .. .... .. .... .. .... .. .... .. .... .. .... .. .... .. .... .. .... .. .... .. .... .. .... .. .... .. .... .. .... .. .... .. .... .. .... .. .... .. .... .. .... .. .... .. .... .. ",
"..... . ..... . ..... . ..... . ..... . ..... . ..... . ..... . ..... . ..... . ..... . ..... . ..... . ..... . ..... . ..... . ..... . ..... . ..... . ..... . ..... . ..... . ..... . ..... . ..... . ..... . ..... . ..... . ..... . ..... . ..... . ..... . ..... . ..... . ..... . ..... . ..... . ..... . ..... . ..... . ..... . ..... . ..... . ..... . ..... . ..... . ..... . ..... . ..... . ..... . ..... . ..... . ..... . ..... . ..... . ..... . ..... . ..... . ..... . ..... . ..... . ..... . ..... . ..... . ..... . ..... . ..... . ..... . ..... . ..... . ..... . ..... . ..... . ..... . ..... . ..... . ..... . ..... . ..... . ..... . ..... . ..... . ..... . ..... . ..... . ..... . ..... . ..... . ..... . ..... . ..... . ..... . ..... . ..... . ..... . ..... . ..... . ..... . ..... . ..... . ..... . ..... . ..... . ..... . ..... . ..... . ..... . ..... . ..... . ..... . ..... . ..... . ..... . ..... . ..... . ..... . ..... . ..... . ..... . ..... . ..... . ..... . ..... . ..... . ..... . ..... . ..... . ..... . ",
" .. . .. .. . .. .. . .. .. . .. .. . .. .. . .. .. . .. .. . .. .. . .. .. . .. .. . .. .. . .. .. . .. .. . .. .. . .. .. . .. .. . .. .. . .. .. . .. .. . .. .. . .. .. . .. .. . .. .. . .. .. . .. .. . .. .. . .. .. . .. .. . .. .. . .. .. . .. .. . .. .. . .. .. . .. .. . .. .. . .. .. . .. .. . .. .. . .. .. . .. .. . .. .. . .. .. . .. .. . .. .. . .. .. . .. .. . .. .. . .. .. . .. .. . .. .. . .. .. . .. .. . .. .. . .. .. . .. .. . .. .. . .. .. . .. .. . .. .. . .. .. . .. .. . .. .. . .. .. . .. .. . .. .. . .. .. . .. .. . .. .. . .. .. . .. .. . .. .. . .. .. . .. .. . .. .. . .. .. . .. .. . .. .. . .. .. . .. .. . .. .. . .. .. . .. .. . .. .. . .. .. . .. .. . .. .. . .. .. . .. .. . .. .. . .. .. . .. .. . .. .. . .. .. . .. .. . .. .. . .. .. . .. .. . .. .. . .. .. . .. .. . .. .. . .. .. . .. .. . .. .. . .. .. . .. .. . .. .. . .. .. . .. .. . .. .. . .. .. . .. .. . .. .. . .. .. . .. .. . .. .. . .. .. . .. .. . .. .. . .. .. . .. .. . .. .. . .. .. . .. .. . .. .. . .. .. . .. .. . ..",
". . .. .. . .. .. . .. .. . .. .. . .. .. . .. .. . .. .. . .. .. . .. .. . .. .. . .. .. . .. .. . .. .. . .. .. . .. .. . .. .. . .. .. . .. .. . .. .. . .. .. . .. .. . .. .. . .. .. . .. .. . .. .. . .. .. . .. .. . .. .. . .. .. . .. .. . .. .. . .. .. . .. .. . .. .. . .. .. . .. .. . .. .. . .. .. . .. .. . .. .. . .. .. . .. .. . .. .. . .. .. . .. .. . .. .. . .. .. . .. .. . .. .. . .. .. . .. .. . .. .. . .. .. . .. .. . .. .. . .. .. . .. .. . .. .. . .. .. . .. .. . .. .. . .. .. . .. .. . .. .. . .. .. . .. .. . .. .. . .. .. . .. .. . .. .. . .. .. . .. .. . .. .. . .. .. . .. .. . .. .. . .. .. . .. .. . .. .. . .. .. . .. .. . .. .. . .. .. . .. .. . .. .. . .. .. . .. .. . .. .. . .. .. . .. .. . .. .. . .. .. . .. .. . .. .. . .. .. . .. .. . .. .. . .. .. . .. .. . .. .. . .. .. . .. .. . .. .. . .. .. . .. .. . .. .. . .. .. . .. .. . .. .. . .. .. . .. .. . .. .. . .. .. . .. .. . .. .. . .. .. . .. .. . .. .. . .. .. . .. .. . .. .. . .. .. . .. .. . .. .. . .. .. . .. .. . .. .. . .. .",
". .. .. . .. .. . .. .. . .. .. . .. .. . .. .. . .. .. . .. .. . .. .. . .. .. . .. .. . .. .. . .. .. . .. .. . .. .. . .. .. . .. .. . .. .. . .. .. . .. .. . .. .. . .. .. . .. .. . .. .. . .. .. . .. .. . .. .. . .. .. . .. .. . .. .. . .. .. . .. .. . .. .. . .. .. . .. .. . .. .. . .. .. . .. .. . .. .. . .. .. . .. .. . .. .. . .. .. . .. .. . .. .. . .. .. . .. .. . .. .. . .. .. . .. .. . .. .. . .. .. . .. .. . .. .. . .. .. . .. .. . .. .. . .. .. . .. .. . .. .. . .. .. . .. .. . .. .. . .. .. . .. .. . .. .. . .. .. . .. .. . .. .. . .. .. . .. .. . .. .. . .. .. . .. .. . .. .. . .. .. . .. .. . .. .. . .. .. . .. .. . .. .. . .. .. . .. .. . .. .. . .. .. . .. .. . .. .. . .. .. . .. .. . .. .. . .. .. . .. .. . .. .. . .. .. . .. .. . .. .. . .. .. . .. .. . .. .. . .. .. . .. .. . .. .. . .. .. . .. .. . .. .. . .. .. . .. .. . .. .. . .. .. . .. .. . .. .. . .. .. . .. .. . .. .. . .. .. . .. .. . .. .. . .. .. . .. .. . .. .. . .. .. . .. .. . .. .. . .. .. . .. .. . .. .. . .. .. . .. .. ",
".. .. . .. .. . .. .. . .. .. . .. .. . .. .. . .. .. . .. .. . .. .. . .. .. . .. .. . .. .. . .. .. . .. .. . .. .. . .. .. . .. .. . .. .. . .. .. . .. .. . .. .. . .. .. . .. .. . .. .. . .. .. . .. .. . .. .. . .. .. . .. .. . .. .. . .. .. . .. .. . .. .. . .. .. . .. .. . .. .. . .. .. . .. .. . .. .. . .. .. . .. .. . .. .. . .. .. . .. .. . .. .. . .. .. . .. .. . .. .. . .. .. . .. .. . .. .. . .. .. . .. .. . .. .. . .. .. . .. .. . .. .. . .. .. . .. .. . .. .. . .. .. . .. .. . .. .. . .. .. . .. .. . .. .. . .. .. . .. .. . .. .. . .. .. . .. .. . .. .. . .. .. . .. .. . .. .. . .. .. . .. .. . .. .. . .. .. . .. .. . .. .. . .. .. . .. .. . .. .. . .. .. . .. .. . .. .. . .. .. . .. .. . .. .. . .. .. . .. .. . .. .. . .. .. . .. .. . .. .. . .. .. . .. .. . .. .. . .. .. . .. .. . .. .. . .. .. . .. .. . .. .. . .. .. . .. .. . .. .. . .. .. . .. .. . .. .. . .. .. . .. .. . .. .. . .. .. . .. .. . .. .. . .. .. . .. .. . .. .. . .. .. . .. .. . .. .. . .. .. . .. .. . .. .. . .. .. . .. .. . ",
"... . ..... . ..... . ..... . ..... . ..... . ..... . ..... . ..... . ..... . ..... . ..... . ..... . ..... . ..... . ..... . ..... . ..... . ..... . ..... . ..... . ..... . ..... . ..... . ..... . ..... . ..... . ..... . ..... . ..... . ..... . ..... . ..... . ..... . ..... . ..... . ..... . ..... . ..... . ..... . ..... . ..... . ..... . ..... . ..... . ..... . ..... . ..... . ..... . ..... . ..... . ..... . ..... . ..... . ..... . ..... . ..... . ..... . ..... . ..... . ..... . ..... . ..... . ..... . ..... . ..... . ..... . ..... . ..... . ..... . ..... . ..... . ..... . ..... . ..... . ..... . ..... . ..... . ..... . ..... . ..... . ..... . ..... . ..... . ..... . ..... . ..... . ..... . ..... . ..... . ..... . ..... . ..... . ..... . ..... . ..... . ..... . ..... . ..... . ..... . ..... . ..... . ..... . ..... . ..... . ..... . ..... . ..... . ..... . ..... . ..... . ..... . ..... . ..... . ..... . ..... . ..... . ..... . ..... . ..... . ..... . ..... . ..... . ..... . ..... . ..... . ..... . ..... . ..",
"... .. .... .. .... .. .... .. .... .. .... .. .... .. .... .. .... .. .... .. .... .. .... .. .... .. .... .. .... .. .... .. .... .. .... .. .... .. .... .. .... .. .... .. .... .. .... .. .... .. .... .. .... .. .... .. .... .. .... .. .... .. .... .. .... .. .... .. .... .. .... .. .... .. .... .. .... .. .... .. .... .. .... .. .... .. .... .. .... .. .... .. .... .. .... .. .... .. .... .. .... .. .... .. .... .. .... .. .... .. .... .. .... .. .... .. .... .. .... .. .... .. .... .. .... .. .... .. .... .. .... .. .... .. .... .. .... .. .... .. .... .. .... .. .... .. .... .. .... .. .... .. .... .. .... .. .... .. .... .. .... .. .... .. .... .. .... .. .... .. .... .. .... .. .... .. .... .. .... .. .... .. .... .. .... .. .... .. .... .. .... .. .... .. .... .. .... .. .... .. .... .. .... .. .... .. .... .. .... .. .... .. .... .. .... .. .... .. .... .. .... .. .... .. .... .. .... .. .... .. .... .. .... .. .... .. .... .. .... .. .... .. .... .. .... .. .... .. .... .. .... .. .... .. .... .. .",
".... .. .... .. .... .. .... .. .... .. .... .. .... .. .... .. .... .. .... .. .... .. .... .. .... .. .... .. .... .. .... .. .... .. .... .. .... .. .... .. .... .. .... .. .... .. .... .. .... .. .... .. .... .. .... .. .... .. .... .. .... .. .... .. .... .. .... .. .... .. .... .. .... .. .... .. .... .. .... .. .... .. .... .. .... .. .... .. .... .. .... .. .... .. .... .. .... .. .... .. .... .. .... .. .... .. .... .. .... .. .... .. .... .. .... .. .... .. .... .. .... .. .... .. .... .. .... .. .... .. .... .. .... .. .... .. .... .. .... .. .... .. .... .. .... .. .... .. .... .. .... .. .... .. .... .. .... .. .... .. .... .. .... .. .... .. .... .. .... .. .... .. .... .. .... .. .... .. .... .. .... .. .... .. .... .. .... .. .... .. .... .. .... .. .... .. .... .. .... .. .... .. .... .. .... .. .... .. .... .. .... .. .... .. .... .. .... .. .... .. .... .. .... .. .... .. .... .. .... .. .... .. .... .. .... .. .... .. .... .. .... .. .... .. .... .. .... .. .... .. .... .. .... .. .... .. ",
"..... . ..... . ..... . ..... . ..... . ..... . ..... . ..... . ..... . ..... . ..... . ..... . ..... . ..... . ..... . ..... . ..... . ..... . ..... . ..... . ..... . ..... . ..... . ..... . ..... . ..... . ..... . ..... . ..... . ..... . ..... . ..... . ..... . ..... . ..... . ..... . ..... . ..... . ..... . ..... . ..... . ..... . ..... . ..... . ..... . ..... . ..... . ..... . ..... . ..... . ..... . ..... . ..... . ..... . ..... . ..... . ..... . ..... . ..... . ..... . ..... . ..... . ..... . ..... . ..... . ..... . ..... . ..... . ..... . ..... . ..... . ..... . ..... . ..... . ..... . ..... . ..... . ..... . ..... . ..... . ..... . ..... . ..... . ..... . ..... . ..... . ..... . ..... . ..... . ..... . ..... . ..... . ..... . ..... . ..... . ..... . ..... . ..... . ..... . ..... . ..... . ..... . ..... . ..... . ..... . ..... . ..... . ..... . ..... . ..... . ..... . ..... . ..... . ..... . ..... . ..... . ..... . ..... . ..... . ..... . ..... . ..... . ..... . ..... . ..... . ..... . ..... . ..... . ",
" .. . .. .. . .. .. . .. .. . .. .. . .. .. . .. .. . .. .. . .. .. . .. .. . .. .. . .. .. . .. .. . .. .. . .. .. . .. .. . .. .. . .. .. . .. .. . .. .. . .. .. . .. .. . .. .. . .. .. . .. .. . .. .. . .. .. . .. .. . .. .. . .. .. . .. .. . .. .. . .. .. . .. .. . .. .. . .. .. . .. .. . .. .. . .. .. . .. .. . .. .. . .. .. . .. .. . .. .. . .. .. . .. .. . .. .. . .. .. . .. .. . .. .. . .. .. . .. .. . .. .. . .. .. . .. .. . .. .. . .. .. . .. .. . .. .. . .. .. . .. .. . .. .. . .. .. . .. .. . .. .. . .. .. . .. .. . .. .. . .. .. . .. .. . .. .. . .. .. . .. .. . .. .. . .. .. . .. .. . .. .. . .. .. . .. .. . .. .. . .. .. . .. .. . .. .. . .. .. . .. .. . .. .. . .. .. . .. .. . .. .. . .. .. . .. .. . .. .. . .. .. . .. .. . .. .. . .. .. . .. .. . .. .. . .. .. . .. .. . .. .. . .. .. . .. .. . .. .. . .. .. . .. .. . .. .. . .. .. . .. .. . .. .. . .. .. . .. .. . .. .. . .. .. . .. .. . .. .. . .. .. . .. .. . .. .. . .. .. . .. .. . .. .. . .. .. . .. .. . .. .. . .. .. . .. .. . .. .. . ..",
". . .. .. . .. .. . .. .. . .. .. . .. .. . .. .. . .. .. . .. .. . .. .. . .. .. . .. .. . .. .. . .. .. . .. .. . .. .. . .. .. . .. .. . .. .. . .. .. . .. .. . .. .. . .. .. . .. .. . .. .. . .. .. . .. .. . .. .. . .. .. . .. .. . .. .. . .. .. . .. .. . .. .. . .. .. . .. .. . .. .. . .. .. . .. .. . .. .. . .. .. . .. .. . .. .. . .. .. . .. .. . .. .. . .. .. . .. .. . .. .. . .. .. . .. .. . .. .. . .. .. . .. .. . .. .. . .. .. . .. .. . .. .. . .. .. . .. .. . .. .. . .. .. . .. .. . .. .. . .. .. . .. .. . .. .. . .. .. . .. .. . .. .. . .. .. . .. .. . .. .. . .. .. . .. .. . .. .. . .. .. . .. .. . .. .. . .. .. . .. .. . .. .. . .. .. . .. .. . .. .. . .. .. . .. .. . .. .. . .. .. . .. .. . .. .. . .. .. . .. .. . .. .. . .. .. . .. .. . .. .. . .. .. . .. .. . .. .. . .. .. . .. .. . .. .. . .. .. . .. .. . .. .. . .. .. . .. .. . .. .. . .. .. . .. .. . .. .. . .. .. . .. .. . .. .. . .. .. . .. .. . .. .. . .. .. . .. .. . .. .. . .. .. . .. .. . .. .. . .. .. . .. .. . .. .. . .. .. . .. .",
". .. .. . .. .. . .. .. . .. .. . .. .. . .. .. . .. .. . .. .. . .. .. . .. .. . .. .. . .. .. . .. .. . .. .. . .. .. . .. .. . .. .. . .. .. . .. .. . .. .. . .. .. . .. .. . .. .. . .. .. . .. .. . .. .. . .. .. . .. .. . .. .. . .. .. . .. .. . .. .. . .. .. . .. .. . .. .. . .. .. . .. .. . .. .. . .. .. . .. .. . .. .. . .. .. . .. .. . .. .. . .. .. . .. .. . .. .. . .. .. . .. .. . .. .. . .. .. . .. .. . .. .. . .. .. . .. .. . .. .. . .. .. . .. .. . .. .. . .. .. . .. .. . .. .. . .. .. . .. .. . .. .. . .. .. . .. .. . .. .. . .. .. . .. .. . .. .. . .. .. . .. .. . .. .. . .. .. . .. .. . .. .. . .. .. . .. .. . .. .. . .. .. . .. .. . .. .. . .. .. . .. .. . .. .. . .. .. . .. .. . .. .. . .. .. . .. .. . .. .. . .. .. . .. .. . .. .. . .. .. . .. .. . .. .. . .. .. . .. .. . .. .. . .. .. . .. .. . .. .. . .. .. . .. .. . .. .. . .. .. . .. .. . .. .. . .. .. . .. .. . .. .. . .. .. . .. .. . .. .. . .. .. . .. .. . .. .. . .. .. . .. .. . .. .. . .. .. . .. .. . .. .. . .. .. . .. .. . .. .. ",
".. .. . .. .. . .. .. . .. .. . .. .. . .. .. . .. .. . .. .. . .. .. . .. .. . .. .. . .. .. . .. .. . .. .. . .. .. . .. .. . .. .. . .. .. . .. .. . .. .. . .. .. . .. .. . .. .. . .. .. . .. .. . .. .. . .. .. . .. .. . .. .. . .. .. . .. .. . .. .. . .. .. . .. .. . .. .. . .. .. . .. .. . .. .. . .. .. . .. .. . .. .. . .. .. . .. .. . .. .. . .. .. . .. .. . .. .. . .. .. . .. .. . .. .. . .. .. . .. .. . .. .. . .. .. . .. .. . .. .. . .. .. . .. .. . .. .. . .. .. . .. .. . .. .. . .. .. . .. .. . .. .. . .. .. . .. .. . .. .. . .. .. . .. .. . .. .. . .. .. . .. .. . .. .. . .. .. . .. .. . .. .. . .. .. . .. .. . .. .. . .. .. . .. .. . .. .. . .. .. . .. .. . .. .. . .. .. . .. .. . .. .. . .. .. . .. .. . .. .. . .. .. . .. .. . .. .. . .. .. . .. .. . .. .. . .. .. . .. .. . .. .. . .. .. . .. .. . .. .. . .. .. . .. .. . .. .. . .. .. . .. .. . .. .. . .. .. . .. .. . .. .. . .. .. . .. .. . .. .. . .. .. . .. .. . .. .. . .. .. . .. .. . .. .. . .. .. . .. .. . .. .. . .. .. . .. .. . .. .. . ",
"... . ..... . ..... . ..... . ..... . ..... . ..... . ..... . ..... . ..... . ..... . ..... . ..... . ..... . ..... . ..... . ..... . ..... . ..... . ..... . ..... . ..... . ..... . ..... . ..... . ..... . ..... . ..... . ..... . ..... . ..... . ..... . ..... . ..... . ..... . ..... . ..... . ..... . ..... . ..... . ..... . ..... . ..... . ..... . ..... . ..... . ..... . ..... . ..... . ..... . ..... . ..... . ..... . ..... . ..... . ..... . ..... . ..... . ..... . ..... . ..... . ..... . ..... . ..... . ..... . ..... . ..... . ..... . ..... . ..... . ..... . ..... . ..... . ..... . ..... . ..... . ..... . ..... . ..... . ..... . ..... . ..... . ..... . ..... . ..... . ..... . ..... . ..... . ..... . ..... . ..... . ..... . ..... . ..... . ..... . ..... . ..... . ..... . ..... . ..... . ..... . ..... . ..... . ..... . ..... . ..... . ..... . ..... . ..... . ..... . ..... . ..... . ..... . ..... . ..... . ..... . ..... . ..... . ..... . ..... . ..... . ..... . ..... . ..... . ..... . ..... . ..... . ..... . ..",
"... .. .... .. .... .. .... .. .... .. .... .. .... .. .... .. .... .. .... .. .... .. .... .. .... .. .... .. .... .. .... .. .... .. .... .. .... .. .... .. .... .. .... .. .... .. .... .. .... .. .... .. .... .. .... .. .... .. .... .. .... .. .... .. .... .. .... .. .... .. .... .. .... .. .... .. .... .. .... .. .... .. .... .. .... .. .... .. .... .. .... .. .... .. .... .. .... .. .... .. .... .. .... .. .... .. .... .. .... .. .... .. .... .. .... .. .... .. .... .. .... .. .... .. .... .. .... .. .... .. .... .. .... .. .... .. .... .. .... .. .... .. .... .. .... .. .... .. .... .. .... .. .... .. .... .. .... .. .... .. .... .. .... .. .... .. .... .. .... .. .... .. .... .. .... .. .... .. .... .. .... .. .... .. .... .. .... .. .... .. .... .. .... .. .... .. .... .. .... .. .... .. .... .. .... .. .... .. .... .. .... .. .... .. .... .. .... .. .... .. .... .. .... .. .... .. .... .. .... .. .... .. .... .. .... .. .... .. .... .. .... .. .... .. .... .. .... .. .... .. .... .. .... .. .... .. .",
".... .. .... .. .... .. .... .. .... .. .... .. .... .. .... .. .... .. .... .. .... .. .... .. .... .. .... .. .... .. .... .. .... .. .... .. .... .. .... .. .... .. .... .. .... .. .... .. .... .. .... .. .... .. .... .. .... .. .... .. .... .. .... .. .... .. .... .. .... .. .... .. .... .. .... .. .... .. .... .. .... .. .... .. .... .. .... .. .... .. .... .. .... .. .... .. .... .. .... .. .... .. .... .. .... .. .... .. .... .. .... .. .... .. .... .. .... .. .... .. .... .. .... .. .... .. .... .. .... .. .... .. .... .. .... .. .... .. .... .. .... .. .... .. .... .. .... .. .... .. .... .. .... .. .... .. .... .. .... .. .... .. .... .. .... .. .... .. .... .. .... .. .... .. .... .. .... .. .... .. .... .. .... .. .... .. .... .. .... .. .... .. .... .. .... .. .... .. .... .. .... .. .... .. .... .. .... .. .... .. .... .. .... .. .... .. .... .. .... .. .... .. .... .. .... .. .... .. .... .. .... .. .... .. .... .. .... .. .... .. .... .. .... .. .... .. .... .. .... .. .... .. .... .. .... .. ",
"..... . ..... . ..... . ..... . ..... . ..... . ..... . ..... . ..... . ..... . ..... . ..... . ..... . ..... . ..... . ..... . ..... . ..... . ..... . ..... . ..... . ..... . ..... . ..... . ..... . ..... . ..... . ..... . ..... . ..... . ..... . ..... . ..... . ..... . ..... . ..... . ..... . ..... . ..... . ..... . ..... . ..... . ..... . ..... . ..... . ..... . ..... . ..... . ..... . ..... . ..... . ..... . ..... . ..... . ..... . ..... . ..... . ..... . ..... . ..... . ..... . ..... . ..... . ..... . ..... . ..... . ..... . ..... . ..... . ..... . ..... . ..... . ..... . ..... . ..... . ..... . ..... . ..... . ..... . ..... . ..... . ..... . ..... . ..... . ..... . ..... . ..... . ..... . ..... . ..... . ..... . ..... . ..... . ..... . ..... . ..... . ..... . ..... . ..... . ..... . ..... . ..... . ..... . ..... . ..... . ..... . ..... . ..... . ..... . ..... . ..... . ..... . ..... . ..... . ..... . ..... . ..... . ..... . ..... . ..... . ..... . ..... . ..... . ..... . ..... . ..... . ..... . ..... . ",
" .. . .. .. . .. .. . .. .. . .. .. . .. .. . .. .. . .. .. . .. .. . .. .. . .. .. . .. .. . .. .. . .. .. . .. .. . .. .. . .. .. . .. .. . .. .. . .. .. . .. .. . .. .. . .. .. . .. .. . .. .. . .. .. . .. .. . .. .. . .. .. . .. .. . .. .. . .. .. . .. .. . .. .. . .. .. . .. .. . .. .. . .. .. . .. .. . .. .. . .. .. . .. .. . .. .. . .. .. . .. .. . .. .. . .. .. . .. .. . .. .. . .. .. . .. .. . .. .. . .. .. . .. .. . .. .. . .. .. . .. .. . .. .. . .. .. . .. .. . .. .. . .. .. . .. .. . .. .. . .. .. . .. .. . .. .. . .. .. . .. .. . .. .. . .. .. . .. .. . .. .. . .. .. . .. .. . .. .. . .. .. . .. .. . .. .. . .. .. . .. .. . .. .. . .. .. . .. .. . .. .. . .. .. . .. .. . .. .. . .. .. . .. .. . .. .. . .. .. . .. .. . .. .. . .. .. . .. .. . .. .. . .. .. . .. .. . .. .. . .. .. . .. .. . .. .. . .. .. . .. .. . .. .. . .. .. . .. .. . .. .. . .. .. . .. .. . .. .. . .. .. . .. .. . .. .. . .. .. . .. .. . .. .. . .. .. . .. .. . .. .. . .. .. . .. .. . .. .. . .. .. . .. .. . .. .. . .. .. . ..",
". . .. .. . .. .. . .. .. . .. .. . .. .. . .. .. . .. .. . .. .. . .. .. . .. .. . .. .. . .. .. . .. .. . .. .. . .. .. . .. .. . .. .. . .. .. . .. .. . .. .. . .. .. . .. .. . .. .. . .. .. . .. .. . .. .. . .. .. . .. .. . .. .. . .. .. . .. .. . .. .. . .. .. . .. .. . .. .. . .. .. . .. .. . .. .. . .. .. . .. .. . .. .. . .. .. . .. .. . .. .. . .. .. . .. .. . .. .. . .. .. . .. .. . .. .. . .. .. . .. .. . .. .. . .. .. . .. .. . .. .. . .. .. . .. .. . .. .. . .. .. . .. .. . .. .. . .. .. . .. .. . .. .. . .. .. . .. .. . .. .. . .. .. . .. .. . .. .. . .. .. . .. .. . .. .. . .. .. . .. .. . .. .. . .. .. . .. .. . .. .. . .. .. . .. .. . .. .. . .. .. . .. .. . .. .. . .. .. . .. .. . .. .. . .. .. . .. .. . .. .. . .. .. . .. .. . .. .. . .. .. . .. .. . .. .. . .. .. . .. .. . .. .. . .. .. . .. .. . .. .. . .. .. . .. .. . .. .. . .. .. . .. .. . .. .. . .. .. . .. .. . .. .. . .. .. . .. .. . .. .. . .. .. . .. .. . .. .. . .. .. . .. .. . .. .. . .. .. . .. .. . .. .. . .. .. . .. .. . .. .",
". .. .. . .. .. . .. .. . .. .. . .. .. . .. .. . .. .. . .. .. . .. .. . .. .. . .. .. . .. .. . .. .. . .. .. . .. .. . .. .. . .. .. . .. .. . .. .. . .. .. . .. .. . .. .. . .. .. . .. .. . .. .. . .. .. . .. .. . .. .. . .. .. . .. .. . .. .. . .. .. . .. .. . .. .. . .. .. . .. .. . .. .. . .. .. . .. .. . .. .. . .. .. . .. .. . .. .. . .. .. . .. .. . .. .. . .. .. . .. .. . .. .. . .. .. . .. .. . .. .. . .. .. . .. .. . .. .. . .. .. . .. .. . .. .. . .. .. . .. .. . .. .. . .. .. . .. .. . .. .. . .. .. . .. .. . .. .. . .. .. . .. .. . .. .. . .. .. . .. .. . .. .. . .. .. . .. .. . .. .. . .. .. . .. .. . .. .. . .. .. . .. .. . .. .. . .. .. . .. .. . .. .. . .. .. . .. .. . .. .. . .. .. . .. .. . .. .. . .. .. . .. .. . .. .. . .. .. . .. .. . .. .. . .. .. . .. .. . .. .. . .. .. . .. .. . .. .. . .. .. . .. .. . .. .. . .. .. . .. .. . .. .. . .. .. . .. .. . .. .. . .. .. . .. .. . .. .. . .. .. . .. .. . .. .. . .. .. . .. .. . .. .. . .. .. . .. .. . .. .. . .. .. . .. .. . .. .. . .. .. ",
".. .. . .. .. . .. .. . .. .. . .. .. . .. .. . .. .. . .. .. . .. .. . .. .. . .. .. . .. .. . .. .. . .. .. . .. .. . .. .. . .. .. . .. .. . .. .. . .. .. . .. .. . .. .. . .. .. . .. .. . .. .. . .. .. . .. .. . .. .. . .. .. . .. .. . .. .. . .. .. . .. .. . .. .. . .. .. . .. .. . .. .. . .. .. . .. .. . .. .. . .. .. . .. .. . .. .. . .. .. . .. .. . .. .. . .. .. . .. .. . .. .. . .. .. . .. .. . .. .. . .. .. . .. .. . .. .. . .. .. . .. .. . .. .. . .. .. . .. .. . .. .. . .. .. . .. .. . .. .. . .. .. . .. .. . .. .. . .. .. . .. .. . .. .. . .. .. . .. .. . .. .. . .. .. . .. .. . .. .. . .. .. . .. .. . .. .. . .. .. . .. .. . .. .. . .. .. . .. .. . .. .. . .. .. . .. .. . .. .. . .. .. . .. .. . .. .. . .. .. . .. .. . .. .. . .. .. . .. .. . .. .. . .. .. . .. .. . .. .. . .. .. . .. .. . .. .. . .. .. . .. .. . .. .. . .. .. . .. .. . .. .. . .. .. . .. .. . .. .. . .. .. . .. .. . .. .. . .. .. . .. .. . .. .. . .. .. . .. .. . .. .. . .. .. . .. .. . .. .. . .. .. . .. .. . .. .. . .. .. . ",
" .. . .. .. . .. .. . .. .. . .. .. . .. .. . .. .. . .. .. . .. .. . .. .. . .. .. . .. .. . .. .. . .. .. . .. .. . .. .. . .. .. . .. .. . .. .. . .. .. . .. .. . .. .. . .. .. . .. .. . .. .. . .. .. . .. .. . .. .. . .. .. . .. .. . .. .. . .. .. . .. .. . .. .. . .. .. . .. .. . .. .. . .. .. . .. .. . .. .. . .. .. . .. .. . .. .. . .. .. . .. .. . .. .. . .. .. . .. .. . .. .. . .. .. . .. .. . .. .. . .. .. . .. .. . .. .. . .. .. . .. .. . .. .. . .. .. . .. .. . .. .. . .. .. . .. .. . .. .. . .. .. . .. .. . .. .. . .. .. . .. .. . .. .. . .. .. . .. .. . .. .. . .. .. . .. .. . .. .. . .. .. . .. .. . .. .. . .. .. . .. .. . .. .. . .. .. . .. .. . .. .. . .. .. . .. .. . .. .. . .. .. . .. .. . .. .. . .. .. . .. .. . .. .. . .. .. . .. .. . .. .. . .. .. . .. .. . .. .. . .. .. . .. .. . .. .. . .. .. . .. .. . .. .. . .. .. . .. .. . .. .. . .. .. . .. .. . .. .. . .. .. . .. .. . .. .. . .. .. . .. .. . .. .. . .. .. . .. .. . .. .. . .. .. . .. .. . .. .. . .. .. . .. .. . .. .. . .. .. . ..",
". . .. .. . .. .. . .. .. . .. .. . .. .. . .. .. . .. .. . .. .. . .. .. . .. .. . .. .. . .. .. . .. .. . .. .. . .. .. . .. .. . .. .. . .. .. . .. .. . .. .. . .. .. . .. .. . .. .. . .. .. . .. .. . .. .. . .. .. . .. .. . .. .. . .. .. . .. .. . .. .. . .. .. . .. .. . .. .. . .. .. . .. .. . .. .. . .. .. . .. .. . .. .. . .. .. . .. .. . .. .. . .. .. . .. .. . .. .. . .. .. . .. .. . .. .. . .. .. . .. .. . .. .. . .. .. . .. .. . .. .. . .. .. . .. .. . .. .. . .. .. . .. .. . .. .. . .. .. . .. .. . .. .. . .. .. . .. .. . .. .. . .. .. . .. .. . .. .. . .. .. . .. .. . .. .. . .. .. . .. .. . .. .. . .. .. . .. .. . .. .. . .. .. . .. .. . .. .. . .. .. . .. .. . .. .. . .. .. . .. .. . .. .. . .. .. . .. .. . .. .. . .. .. . .. .. . .. .. . .. .. . .. .. . .. .. . .. .. . .. .. . .. .. . .. .. . .. .. . .. .. . .. .. . .. .. . .. .. . .. .. . .. .. . .. .. . .. .. . .. .. . .. .. . .. .. . .. .. . .. .. . .. .. . .. .. . .. .. . .. .. . .. .. . .. .. . .. .. . .. .. . .. .. . .. .. . .. .. . .. .",
". .. .. . .. .. . .. .. . .. .. . .. .. . .. .. . .. .. . .. .. . .. .. . .. .. . .. .. . .. .. . .. .. . .. .. . .. .. . .. .. . .. .. . .. .. . .. .. . .. .. . .. .. . .. .. . .. .. . .. .. . .. .. . .. .. . .. .. . .. .. . .. .. . .. .. . .. .. . .. .. . .. .. . .. .. . .. .. . .. .. . .. .. . .. .. . .. .. . .. .. . .. .. . .. .. . .. .. . .. .. . .. .. . .. .. . .. .. . .. .. . .. .. . .. .. . .. .. . .. .. . .. .. . .. .. . .. .. . .. .. . .. .. . .. .. . .. .. . .. .. . .. .. . .. .. . .. .. . .. .. . .. .. . .. .. . .. .. . .. .. . .. .. . .. .. . .. .. . .. .. . .. .. . .. .. . .. .. . .. .. . .. .. . .. .. . .. .. . .. .. . .. .. . .. .. . .. .. . .. .. . .. .. . .. .. . .. .. . .. .. . .. .. . .. .. . .. .. . .. .. . .. .. . .. .. . .. .. . .. .. . .. .. . .. .. . .. .. . .. .. . .. .. . .. .. . .. .. . .. .. . .. .. . .. .. . .. .. . .. .. . .. .. . .. .. . .. .. . .. .. . .. .. . .. .. . .. .. . .. .. . .. .. . .. .. . .. .. . .. .. . .. .. . .. .. . .. .. . .. .. . .. .. . .. .. . .. .. . .. .. ",
".. .. . .. .. . .. .. . .. .. . .. .. . .. .. . .. .. . .. .. . .. .. . .. .. . .. .. . .. .. . .. .. . .. .. . .. .. . .. .. . .. .. . .. .. . .. .. . .. .. . .. .. . .. .. . .. .. . .. .. . .. .. . .. .. . .. .. . .. .. . .. .. . .. .. . .. .. . .. .. . .. .. . .. .. . .. .. . .. .. . .. .. . .. .. . .. .. . .. .. . .. .. . .. .. . .. .. . .. .. . .. .. . .. .. . .. .. . .. .. . .. .. . .. .. . .. .. . .. .. . .. .. . .. .. . .. .. . .. .. . .. .. . .. .. . .. .. . .. .. . .. .. . .. .. . .. .. . .. .. . .. .. . .. .. . .. .. . .. .. . .. .. . .. .. . .. .. . .. .. . .. .. . .. .. . .. .. . .. .. . .. .. . .. .. . .. .. . .. .. . .. .. . .. .. . .. .. . .. .. . .. .. . .. .. . .. .. . .. .. . .. .. . .. .. . .. .. . .. .. . .. .. . .. .. . .. .. . .. .. . .. .. . .. .. . .. .. . .. .. . .. .. . .. .. . .. .. . .. .. . .. .. . .. .. . .. .. . .. .. . .. .. . .. .. . .. .. . .. .. . .. .. . .. .. . .. .. . .. .. . .. .. . .. .. . .. .. . .. .. . .. .. . .. .. . .. .. . .. .. . .. .. . .. .. . .. .. . .. .. . ",
" .. . .. .. . .. .. . .. .. . .. .. . .. .. . .. .. . .. .. . .. .. . .. .. . .. .. . .. .. . .. .. . .. .. . .. .. . .. .. . .. .. . .. .. . .. .. . .. .. . .. .. . .. .. . .. .. . .. .. . .. .. . .. .. . .. .. . .. .. . .. .. . .. .. . .. .. . .. .. . .. .. . .. .. . .. .. . .. .. . .. .. . .. .. . .. .. . .. .. . .. .. . .. .. . .. .. . .. .. . .. .. . .. .. . .. .. . .. .. . .. .. . .. .. . .. .. . .. .. . .. .. . .. .. . .. .. . .. .. . .. .. . .. .. . .. .. . .. .. . .. .. . .. .. . .. .. . .. .. . .. .. . .. .. . .. .. . .. .. . .. .. . .. .. . .. .. . .. .. . .. .. . .. .. . .. .. . .. .. . .. .. . .. .. . .. .. . .. .. . .. .. . .. .. . .. .. . .. .. . .. .. . .. .. . .. .. . .. .. . .. .. . .. .. . .. .. . .. .. . .. .. . .. .. . .. .. . .. .. . .. .. . .. .. . .. .. . .. .. . .. .. . .. .. . .. .. . .. .. . .. .. . .. .. . .. .. . .. .. . .. .. . .. .. . .. .. . .. .. . .. .. . .. .. . .. .. . .. .. . .. .. . .. .. . .. .. . .. .. . .. .. . .. .. . .. .. . .. .. . .. .. . .. .. . .. .. . .. .. . ..",
". . .. .. . .. .. . .. .. . .. .. . .. .. . .. .. . .. .. . .. .. . .. .. . .. .. . .. .. . .. .. . .. .. . .. .. . .. .. . .. .. . .. .. . .. .. . .. .. . .. .. . .. .. . .. .. . .. .. . .. .. . .. .. . .. .. . .. .. . .. .. . .. .. . .. .. . .. .. . .. .. . .. .. . .. .. . .. .. . .. .. . .. .. . .. .. . .. .. . .. .. . .. .. . .. .. . .. .. . .. .. . .. .. . .. .. . .. .. . .. .. . .. .. . .. .. . .. .. . .. .. . .. .. . .. .. . .. .. . .. .. . .. .. . .. .. . .. .. . .. .. . .. .. . .. .. . .. .. . .. .. . .. .. . .. .. . .. .. . .. .. . .. .. . .. .. . .. .. . .. .. . .. .. . .. .. . .. .. . .. .. . .. .. . .. .. . .. .. . .. .. . .. .. . .. .. . .. .. . .. .. . .. .. . .. .. . .. .. . .. .. . .. .. . .. .. . .. .. . .. .. . .. .. . .. .. . .. .. . .. .. . .. .. . .. .. . .. .. . .. .. . .. .. . .. .. . .. .. . .. .. . .. .. . .. .. . .. .. . .. .. . .. .. . .. .. . .. .. . .. .. . .. .. . .. .. . .. .. . .. .. . .. .. . .. .. . .. .. . .. .. . .. .. . .. .. . .. .. . .. .. . .. .. . .. .. . .. .. . .. .",
". .. .. . .. .. . .. .. . .. .. . .. .. . .. .. . .. .. . .. .. . .. .. . .. .. . .. .. . .. .. . .. .. . .. .. . .. .. . .. .. . .. .. . .. .. . .. .. . .. .. . .. .. . .. .. . .. .. . .. .. . .. .. . .. .. . .. .. . .. .. . .. .. . .. .. . .. .. . .. .. . .. .. . .. .. . .. .. . .. .. . .. .. . .. .. . .. .. . .. .. . .. .. . .. .. . .. .. . .. .. . .. .. . .. .. . .. .. . .. .. . .. .. . .. .. . .. .. . .. .. . .. .. . .. .. . .. .. . .. .. . .. .. . .. .. . .. .. . .. .. . .. .. . .. .. . .. .. . .. .. . .. .. . .. .. . .. .. . .. .. . .. .. . .. .. . .. .. . .. .. . .. .. . .. .. . .. .. . .. .. . .. .. . .. .. . .. .. . .. .. . .. .. . .. .. . .. .. . .. .. . .. .. . .. .. . .. .. . .. .. . .. .. . .. .. . .. .. . .. .. . .. .. . .. .. . .. .. . .. .. . .. .. . .. .. . .. .. . .. .. . .. .. . .. .. . .. .. . .. .. . .. .. . .. .. . .. .. . .. .. . .. .. . .. .. . .. .. . .. .. . .. .. . .. .. . .. .. . .. .. . .. .. . .. .. . .. .. . .. .. . .. .. . .. .. . .. .. . .. .. . .. .. . .. .. . .. .. . .. .. ",
".. .. . .. .. . .. .. . .. .. . .. .. . .. .. . .. .. . .. .. . .. .. . .. .. . .. .. . .. .. . .. .. . .. .. . .. .. . .. .. . .. .. . .. .. . .. .. . .. .. . .. .. . .. .. . .. .. . .. .. . .. .. . .. .. . .. .. . .. .. . .. .. . .. .. . .. .. . .. .. . .. .. . .. .. . .. .. . .. .. . .. .. . .. .. . .. .. . .. .. . .. .. . .. .. . .. .. . .. .. . .. .. . .. .. . .. .. . .. .. . .. .. . .. .. . .. .. . .. .. . .. .. . .. .. . .. .. . .. .. . .. .. . .. .. . .. .. . .. .. . .. .. . .. .. . .. .. . .. .. . .. .. . .. .. . .. .. . .. .. . .. .. . .. .. . .. .. . .. .. . .. .. . .. .. . .. .. . .. .. . .. .. . .. .. . .. .. . .. .. . .. .. . .. .. . .. .. . .. .. . .. .. . .. .. . .. .. . .. .. . .. .. . .. .. . .. .. . .. .. . .. .. . .. .. . .. .. . .. .. . .. .. . .. .. . .. .. . .. .. . .. .. . .. .. . .. .. . .. .. . .. .. . .. .. . .. .. . .. .. . .. .. . .. .. . .. .. . .. .. . .. .. . .. .. . .. .. . .. .. . .. .. . .. .. . .. .. . .. .. . .. .. . .. .. . .. .. . .. .. . .. .. . .. .. . .. .. . .. .. . ",
" .. . .. .. . .. .. . .. .. . .. .. . .. .. . .. .. . .. .. . .. .. . .. .. . .. .. . .. .. . .. .. . .. .. . .. .. . .. .. . .. .. . .. .. . .. .. . .. .. . .. .. . .. .. . .. .. . .. .. . .. .. . .. .. . .. .. . .. .. . .. .. . .. .. . .. .. . .. .. . .. .. . .. .. . .. .. . .. .. . .. .. . .. .. . .. .. . .. .. . .. .. . .. .. . .. .. . .. .. . .. .. . .. .. . .. .. . .. .. . .. .. . .. .. . .. .. . .. .. . .. .. . .. .. . .. .. . .. .. . .. .. . .. .. . .. .. . .. .. . .. .. . .. .. . .. .. . .. .. . .. .. . .. .. . .. .. . .. .. . .. .. . .. .. . .. .. . .. .. . .. .. . .. .. . .. .. . .. .. . .. .. . .. .. . .. .. . .. .. . .. .. . .. .. . .. .. . .. .. . .. .. . .. .. . .. .. . .. .. . .. .. . .. .. . .. .. . .. .. . .. .. . .. .. . .. .. . .. .. . .. .. . .. .. . .. .. . .. .. . .. .. . .. .. . .. .. . .. .. . .. .. . .. .. . .. .. . .. .. . .. .. . .. .. . .. .. . .. .. . .. .. . .. .. . .. .. . .. .. . .. .. . .. .. . .. .. . .. .. . .. .. . .. .. . .. .. . .. .. . .. .. . .. .. . .. .. . .. .. . ..",
". . .. .. . .. .. . .. .. . .. .. . .. .. . .. .. . .. .. . .. .. . .. .. . .. .. . .. .. . .. .. . .. .. . .. .. . .. .. . .. .. . .. .. . .. .. . .. .. . .. .. . .. .. . .. .. . .. .. . .. .. . .. .. . .. .. . .. .. . .. .. . .. .. . .. .. . .. .. . .. .. . .. .. . .. .. . .. .. . .. .. . .. .. . .. .. . .. .. . .. .. . .. .. . .. .. . .. .. . .. .. . .. .. . .. .. . .. .. . .. .. . .. .. . .. .. . .. .. . .. .. . .. .. . .. .. . .. .. . .. .. . .. .. . .. .. . .. .. . .. .. . .. .. . .. .. . .. .. . .. .. . .. .. . .. .. . .. .. . .. .. . .. .. . .. .. . .. .. . .. .. . .. .. . .. .. . .. .. . .. .. . .. .. . .. .. . .. .. . .. .. . .. .. . .. .. . .. .. . .. .. . .. .. . .. .. . .. .. . .. .. . .. .. . .. .. . .. .. . .. .. . .. .. . .. .. . .. .. . .. .. . .. .. . .. .. . .. .. . .. .. . .. .. . .. .. . .. .. . .. .. . .. .. . .. .. . .. .. . .. .. . .. .. . .. .. . .. .. . .. .. . .. .. . .. .. . .. .. . .. .. . .. .. . .. .. . .. .. . .. .. . .. .. . .. .. . .. .. . .. .. . .. .. . .. .. . .. .. . .. .",
". .. .. . .. .. . .. .. . .. .. . .. .. . .. .. . .. .. . .. .. . .. .. . .. .. . .. .. . .. .. . .. .. . .. .. . .. .. . .. .. . .. .. . .. .. . .. .. . .. .. . .. .. . .. .. . .. .. . .. .. . .. .. . .. .. . .. .. . .. .. . .. .. . .. .. . .. .. . .. .. . .. .. . .. .. . .. .. . .. .. . .. .. . .. .. . .. .. . .. .. . .. .. . .. .. . .. .. . .. .. . .. .. . .. .. . .. .. . .. .. . .. .. . .. .. . .. .. . .. .. . .. .. . .. .. . .. .. . .. .. . .. .. . .. .. . .. .. . .. .. . .. .. . .. .. . .. .. . .. .. . .. .. . .. .. . .. .. . .. .. . .. .. . .. .. . .. .. . .. .. . .. .. . .. .. . .. .. . .. .. . .. .. . .. .. . .. .. . .. .. . .. .. . .. .. . .. .. . .. .. . .. .. . .. .. . .. .. . .. .. . .. .. . .. .. . .. .. . .. .. . .. .. . .. .. . .. .. . .. .. . .. .. . .. .. . .. .. . .. .. . .. .. . .. .. . .. .. . .. .. . .. .. . .. .. . .. .. . .. .. . .. .. . .. .. . .. .. . .. .. . .. .. . .. .. . .. .. . .. .. . .. .. . .. .. . .. .. . .. .. . .. .. . .. .. . .. .. . .. .. . .. .. . .. .. . .. .. . .. .. ",
".. .. . .. .. . .. .. . .. .. . .. .. . .. .. . .. .. . .. .. . .. .. . .. .. . .. .. . .. .. . .. .. . .. .. . .. .. . .. .. . .. .. . .. .. . .. .. . .. .. . .. .. . .. .. . .. .. . .. .. . .. .. . .. .. . .. .. . .. .. . .. .. . .. .. . .. .. . .. .. . .. .. . .. .. . .. .. . .. .. . .. .. . .. .. . .. .. . .. .. . .. .. . .. .. . .. .. . .. .. . .. .. . .. .. . .. .. . .. .. . .. .. . .. .. . .. .. . .. .. . .. .. . .. .. . .. .. . .. .. . .. .. . .. .. . .. .. . .. .. . .. .. . .. .. . .. .. . .. .. . .. .. . .. .. . .. .. . .. .. . .. .. . .. .. . .. .. . .. .. . .. .. . .. .. . .. .. . .. .. . .. .. . .. .. . .. .. . .. .. . .. .. . .. .. . .. .. . .. .. . .. .. . .. .. . .. .. . .. .. . .. .. . .. .. . .. .. . .. .. . .. .. . .. .. . .. .. . .. .. . .. .. . .. .. . .. .. . .. .. . .. .. . .. .. . .. .. . .. .. . .. .. . .. .. . .. .. . .. .. . .. .. . .. .. . .. .. . .. .. . .. .. . .. .. . .. .. . .. .. . .. .. . .. .. . .. .. . .. .. . .. .. . .. .. . .. .. . .. .. . .. .. . .. .. . .. .. . .. .. . ",
" .. . .. .. . .. .. . .. .. . .. .. . .. .. . .. .. . .. .. . .. .. . .. .. . .. .. . .. .. . .. .. . .. .. . .. .. . .. .. . .. .. . .. .. . .. .. . .. .. . .. .. . .. .. . .. .. . .. .. . .. .. . .. .. . .. .. . .. .. . .. .. . .. .. . .. .. . .. .. . .. .. . .. .. . .. .. . .. .. . .. .. . .. .. . .. .. . .. .. . .. .. . .. .. . .. .. . .. .. . .. .. . .. .. . .. .. . .. .. . .. .. . .. .. . .. .. . .. .. . .. .. . .. .. . .. .. . .. .. . .. .. . .. .. . .. .. . .. .. . .. .. . .. .. . .. .. . .. .. . .. .. . .. .. . .. .. . .. .. . .. .. . .. .. . .. .. . .. .. . .. .. . .. .. . .. .. . .. .. . .. .. . .. .. . .. .. . .. .. . .. .. . .. .. . .. .. . .. .. . .. .. . .. .. . .. .. . .. .. . .. .. . .. .. . .. .. . .. .. . .. .. . .. .. . .. .. . .. .. . .. .. . .. .. . .. .. . .. .. . .. .. . .. .. . .. .. . .. .. . .. .. . .. .. . .. .. . .. .. . .. .. . .. .. . .. .. . .. .. . .. .. . .. .. . .. .. . .. .. . .. .. . .. .. . .. .. . .. .. . .. .. . .. .. . .. .. . .. .. . .. .. . .. .. . .. .. . .. .. . ..",
". . .. .. . .. .. . .. .. . .. .. . .. .. . .. .. . .. .. . .. .. . .. .. . .. .. . .. .. . .. .. . .. .. . .. .. . .. .. . .. .. . .. .. . .. .. . .. .. . .. .. . .. .. . .. .. . .. .. . .. .. . .. .. . .. .. . .. .. . .. .. . .. .. . .. .. . .. .. . .. .. . .. .. . .. .. . .. .. . .. .. . .. .. . .. .. . .. .. . .. .. . .. .. . .. .. . .. .. . .. .. . .. .. . .. .. . .. .. . .. .. . .. .. . .. .. . .. .. . .. .. . .. .. . .. .. . .. .. . .. .. . .. .. . .. .. . .. .. . .. .. . .. .. . .. .. . .. .. . .. .. . .. .. . .. .. . .. .. . .. .. . .. .. . .. .. . .. .. . .. .. . .. .. . .. .. . .. .. . .. .. . .. .. . .. .. . .. .. . .. .. . .. .. . .. .. . .. .. . .. .. . .. .. . .. .. . .. .. . .. .. . .. .. . .. .. . .. .. . .. .. . .. .. . .. .. . .. .. . .. .. . .. .. . .. .. . .. .. . .. .. . .. .. . .. .. . .. .. . .. .. . .. .. . .. .. . .. .. . .. .. . .. .. . .. .. . .. .. . .. .. . .. .. . .. .. . .. .. . .. .. . .. .. . .. .. . .. .. . .. .. . .. .. . .. .. . .. .. . .. .. . .. .. . .. .. . .. .. . .. .",
". .. .. . .. .. . .. .. . .. .. . .. .. . .. .. . .. .. . .. .. . .. .. . .. .. . .. .. . .. .. . .. .. . .. .. . .. .. . .. .. . .. .. . .. .. . .. .. . .. .. . .. .. . .. .. . .. .. . .. .. . .. .. . .. .. . .. .. . .. .. . .. .. . .. .. . .. .. . .. .. . .. .. . .. .. . .. .. . .. .. . .. .. . .. .. . .. .. . .. .. . .. .. . .. .. . .. .. . .. .. . .. .. . .. .. . .. .. . .. .. . .. .. . .. .. . .. .. . .. .. . .. .. . .. .. . .. .. . .. .. . .. .. . .. .. . .. .. . .. .. . .. .. . .. .. . .. .. . .. .. . .. .. . .. .. . .. .. . .. .. . .. .. . .. .. . .. .. . .. .. . .. .. . .. .. . .. .. . .. .. . .. .. . .. .. . .. .. . .. .. . .. .. . .. .. . .. .. . .. .. . .. .. . .. .. . .. .. . .. .. . .. .. . .. .. . .. .. . .. .. . .. .. . .. .. . .. .. . .. .. . .. .. . .. .. . .. .. . .. .. . .. .. . .. .. . .. .. . .. .. . .. .. . .. .. . .. .. . .. .. . .. .. . .. .. . .. .. . .. .. . .. .. . .. .. . .. .. . .. .. . .. .. . .. .. . .. .. . .. .. . .. .. . .. .. . .. .. . .. .. . .. .. . .. .. . .. .. . .. .. ",
".. .. . .. .. . .. .. . .. .. . .. .. . .. .. . .. .. . .. .. . .. .. . .. .. . .. .. . .. .. . .. .. . .. .. . .. .. . .. .. . .. .. . .. .. . .. .. . .. .. . .. .. . .. .. . .. .. . .. .. . .. .. . .. .. . .. .. . .. .. . .. .. . .. .. . .. .. . .. .. . .. .. . .. .. . .. .. . .. .. . .. .. . .. .. . .. .. . .. .. . .. .. . .. .. . .. .. . .. .. . .. .. . .. .. . .. .. . .. .. . .. .. . .. .. . .. .. . .. .. . .. .. . .. .. . .. .. . .. .. . .. .. . .. .. . .. .. . .. .. . .. .. . .. .. . .. .. . .. .. . .. .. . .. .. . .. .. . .. .. . .. .. . .. .. . .. .. . .. .. . .. .. . .. .. . .. .. . .. .. . .. .. . .. .. . .. .. . .. .. . .. .. . .. .. . .. .. . .. .. . .. .. . .. .. . .. .. . .. .. . .. .. . .. .. . .. .. . .. .. . .. .. . .. .. . .. .. . .. .. . .. .. . .. .. . .. .. . .. .. . .. .. . .. .. . .. .. . .. .. . .. .. . .. .. . .. .. . .. .. . .. .. . .. .. . .. .. . .. .. . .. .. . .. .. . .. .. . .. .. . .. .. . .. .. . .. .. . .. .. . .. .. . .. .. . .. .. . .. .. . .. .. . .. .. . .. .. . .. .. . ",
" .. . .. .. . .. .. . .. .. . .. .. . .. .. . .. .. . .. .. . .. .. . .. .. . .. .. . .. .. . .. .. . .. .. . .. .. . .. .. . .. .. . .. .. . .. .. . .. .. . .. .. . .. .. . .. .. . .. .. . .. .. . .. .. . .. .. . .. .. . .. .. . .. .. . .. .. . .. .. . .. .. . .. .. . .. .. . .. .. . .. .. . .. .. . .. .. . .. .. . .. .. . .. .. . .. .. . .. .. . .. .. . .. .. . .. .. . .. .. . .. .. . .. .. . .. .. . .. .. . .. .. . .. .. . .. .. . .. .. . .. .. . .. .. . .. .. . .. .. . .. .. . .. .. . .. .. . .. .. . .. .. . .. .. . .. .. . .. .. . .. .. . .. .. . .. .. . .. .. . .. .. . .. .. . .. .. . .. .. . .. .. . .. .. . .. .. . .. .. . .. .. . .. .. . .. .. . .. .. . .. .. . .. .. . .. .. . .. .. . .. .. . .. .. . .. .. . .. .. . .. .. . .. .. . .. .. . .. .. . .. .. . .. .. . .. .. . .. .. . .. .. . .. .. . .. .. . .. .. . .. .. . .. .. . .. .. . .. .. . .. .. . .. .. . .. .. . .. .. . .. .. . .. .. . .. .. . .. .. . .. .. . .. .. . .. .. . .. .. . .. .. . .. .. . .. .. . .. .. . .. .. . .. .. . .. .. . .. .. . ..",
". . .. .. . .. .. . .. .. . .. .. . .. .. . .. .. . .. .. . .. .. . .. .. . .. .. . .. .. . .. .. . .. .. . .. .. . .. .. . .. .. . .. .. . .. .. . .. .. . .. .. . .. .. . .. .. . .. .. . .. .. . .. .. . .. .. . .. .. . .. .. . .. .. . .. .. . .. .. . .. .. . .. .. . .. .. . .. .. . .. .. . .. .. . .. .. . .. .. . .. .. . .. .. . .. .. . .. .. . .. .. . .. .. . .. .. . .. .. . .. .. . .. .. . .. .. . .. .. . .. .. . .. .. . .. .. . .. .. . .. .. . .. .. . .. .. . .. .. . .. .. . .. .. . .. .. . .. .. . .. .. . .. .. . .. .. . .. .. . .. .. . .. .. . .. .. . .. .. . .. .. . .. .. . .. .. . .. .. . .. .. . .. .. . .. .. . .. .. . .. .. . .. .. . .. .. . .. .. . .. .. . .. .. . .. .. . .. .. . .. .. . .. .. . .. .. . .. .. . .. .. . .. .. . .. .. . .. .. . .. .. . .. .. . .. .. . .. .. . .. .. . .. .. . .. .. . .. .. . .. .. . .. .. . .. .. . .. .. . .. .. . .. .. . .. .. . .. .. . .. .. . .. .. . .. .. . .. .. . .. .. . .. .. . .. .. . .. .. . .. .. . .. .. . .. .. . .. .. . .. .. . .. .. . .. .. . .. .. . .. .",
". .. .. . .. .. . .. .. . .. .. . .. .. . .. .. . .. .. . .. .. . .. .. . .. .. . .. .. . .. .. . .. .. . .. .. . .. .. . .. .. . .. .. . .. .. . .. .. . .. .. . .. .. . .. .. . .. .. . .. .. . .. .. . .. .. . .. .. . .. .. . .. .. . .. .. . .. .. . .. .. . .. .. . .. .. . .. .. . .. .. . .. .. . .. .. . .. .. . .. .. . .. .. . .. .. . .. .. . .. .. . .. .. . .. .. . .. .. . .. .. . .. .. . .. .. . .. .. . .. .. . .. .. . .. .. . .. .. . .. .. . .. .. . .. .. . .. .. . .. .. . .. .. . .. .. . .. .. . .. .. . .. .. . .. .. . .. .. . .. .. . .. .. . .. .. . .. .. . .. .. . .. .. . .. .. . .. .. . .. .. . .. .. . .. .. . .. .. . .. .. . .. .. . .. .. . .. .. . .. .. . .. .. . .. .. . .. .. . .. .. . .. .. . .. .. . .. .. . .. .. . .. .. . .. .. . .. .. . .. .. . .. .. . .. .. . .. .. . .. .. . .. .. . .. .. . .. .. . .. .. . .. .. . .. .. . .. .. . .. .. . .. .. . .. .. . .. .. . .. .. . .. .. . .. .. . .. .. . .. .. . .. .. . .. .. . .. .. . .. .. . .. .. . .. .. . .. .. . .. .. . .. .. . .. .. . .. .. . .. .. ",
".. .. . .. .. . .. .. . .. .. . .. .. . .. .. . .. .. . .. .. . .. .. . .. .. . .. .. . .. .. . .. .. . .. .. . .. .. . .. .. . .. .. . .. .. . .. .. . .. .. . .. .. . .. .. . .. .. . .. .. . .. .. . .. .. . .. .. . .. .. . .. .. . .. .. . .. .. . .. .. . .. .. . .. .. . .. .. . .. .. . .. .. . .. .. . .. .. . .. .. . .. .. . .. .. . .. .. . .. .. . .. .. . .. .. . .. .. . .. .. . .. .. . .. .. . .. .. . .. .. . .. .. . .. .. . .. .. . .. .. . .. .. . .. .. . .. .. . .. .. . .. .. . .. .. . .. .. . .. .. . .. .. . .. .. . .. .. . .. .. . .. .. . .. .. . .. .. . .. .. . .. .. . .. .. . .. .. . .. .. . .. .. . .. .. . .. .. . .. .. . .. .. . .. .. . .. .. . .. .. . .. .. . .. .. . .. .. . .. .. . .. .. . .. .. . .. .. . .. .. . .. .. . .. .. . .. .. . .. .. . .. .. . .. .. . .. .. . .. .. . .. .. . .. .. . .. .. . .. .. . .. .. . .. .. . .. .. . .. .. . .. .. . .. .. . .. .. . .. .. . .. .. . .. .. . .. .. . .. .. . .. .. . .. .. . .. .. . .. .. . .. .. . .. .. . .. .. . .. .. . .. .. . .. .. . .. .. . .. .. . ",
" .. . .. .. . .. .. . .. .. . .. .. . .. .. . .. .. . .. .. . .. .. . .. .. . .. .. . .. .. . .. .. . .. .. . .. .. . .. .. . .. .. . .. .. . .. .. . .. .. . .. .. . .. .. . .. .. . .. .. . .. .. . .. .. . .. .. . .. .. . .. .. . .. .. . .. .. . .. .. . .. .. . .. .. . .. .. . .. .. . .. .. . .. .. . .. .. . .. .. . .. .. . .. .. . .. .. . .. .. . .. .. . .. .. . .. .. . .. .. . .. .. . .. .. . .. .. . .. .. . .. .. . .. .. . .. .. . .. .. . .. .. . .. .. . .. .. . .. .. . .. .. . .. .. . .. .. . .. .. . .. .. . .. .. . .. .. . .. .. . .. .. . .. .. . .. .. . .. .. . .. .. . .. .. . .. .. . .. .. . .. .. . .. .. . .. .. . .. .. . .. .. . .. .. . .. .. . .. .. . .. .. . .. .. . .. .. . .. .. . .. .. . .. .. . .. .. . .. .. . .. .. . .. .. . .. .. . .. .. . .. .. . .. .. . .. .. . .. .. . .. .. . .. .. . .. .. . .. .. . .. .. . .. .. . .. .. . .. .. . .. .. . .. .. . .. .. . .. .. . .. .. . .. .. . .. .. . .. .. . .. .. . .. .. . .. .. . .. .. . .. .. . .. .. . .. .. . .. .. . .. .. . .. .. . .. .. . .. .. . ..",
". . .. .. . .. .. . .. .. . .. .. . .. .. . .. .. . .. .. . .. .. . .. .. . .. .. . .. .. . .. .. . .. .. . .. .. . .. .. . .. .. . .. .. . .. .. . .. .. . .. .. . .. .. . .. .. . .. .. . .. .. . .. .. . .. .. . .. .. . .. .. . .. .. . .. .. . .. .. . .. .. . .. .. . .. .. . .. .. . .. .. . .. .. . .. .. . .. .. . .. .. . .. .. . .. .. . .. .. . .. .. . .. .. . .. .. . .. .. . .. .. . .. .. . .. .. . .. .. . .. .. . .. .. . .. .. . .. .. . .. .. . .. .. . .. .. . .. .. . .. .. . .. .. . .. .. . .. .. . .. .. . .. .. . .. .. . .. .. . .. .. . .. .. . .. .. . .. .. . .. .. . .. .. . .. .. . .. .. . .. .. . .. .. . .. .. . .. .. . .. .. . .. .. . .. .. . .. .. . .. .. . .. .. . .. .. . .. .. . .. .. . .. .. . .. .. . .. .. . .. .. . .. .. . .. .. . .. .. . .. .. . .. .. . .. .. . .. .. . .. .. . .. .. . .. .. . .. .. . .. .. . .. .. . .. .. . .. .. . .. .. . .. .. . .. .. . .. .. . .. .. . .. .. . .. .. . .. .. . .. .. . .. .. . .. .. . .. .. . .. .. . .. .. . .. .. . .. .. . .. .. . .. .. . .. .. . .. .. . .. .",
". .. .  . .. .  . .. .  . .. .  . .. .  . .. .  . .. .  . .. .  . .. .  . .. .  . .. .  . .. .  . .. .  . .. .  . .. .  . .. .  . .. .  . .. .  . .. .  . .. .  . .. .  . .. .  . .. .  . .. .  . .. .  . .. .  . .. .  . .. .  . .. .  . .. .  . .. .  . .. .  . .. .  . .. .  . .. .  . .. .  . .. .  . .. .  . .. .  . .. .  . .. .  . .. .  . .. .  . .. .  . .. .  . .. .  . .. .  . .. .  . .. .  . .. .  . .. .  . .. .  . .. .  . .. .  . .. .  . .. .  . .. .  . .. .  . .. .  . .. .  . .. .  . .. .  . .. .  . .. .  . .. .  . .. .  . .. .  . .. .  . .. .  . .. .  . .. .  . .. .  . .. .  . .. .  . .. .  . .. .  . .. .  . .. .  . .. .  . .. .  . .. .  . .. .  . .. .  . .. .  . .. .  . .. .  . .. .  . .. .  . .. .  . .. .  . .. .  . .. .  . .. .  . .. .  . .. .  . .. .  . .. .  . .. .  . .. .  . .. .  . .. .  . .. .  . .. .  . .. .  . .. .  . .. .  . .. .  . .. .  . .. .  . .. .  . .. .  . .. .  . .. .  . .. .  . .. .  . .. .  . .. .  . .. .  . .. .  . .. .  . .. .  . .. .  . .. .  . .. .  . .. .  . .. .  . .. .  . .. .  ",
".. ..   .. ..   .. ..   .. ..   .. ..   .. ..   .. ..   .. ..   .. ..   .. ..   .. ..   .. ..   .. ..   .. ..   .. ..   .. ..   .. ..   .. ..   .. ..   .. ..   .. ..   .. ..   .. ..   .. ..   .. ..   .. ..   .. ..   .. ..   .. ..   .. ..   .. ..   .. ..   .. ..   .. ..   .. ..   .. ..   .. ..   .. ..   .. ..   .. ..   .. ..   .. ..   .. ..   .. ..   .. ..   .. ..   .. ..   .. ..   .. ..   .. ..   .. ..   .. ..   .. ..   .. ..   .. ..   .. ..   .. ..   .. ..   .. ..   .. ..   .. ..   .. ..   .. ..   .. ..   .. ..   .. ..   .. ..   .. ..   .. ..   .. ..   .. ..   .. ..   .. ..   .. ..   .. ..   .. ..   .. ..   .. ..   .. ..   .. ..   .. ..   .. ..   .. ..   .. ..   .. ..   .. ..   .. ..   .. ..   .. ..   .. ..   .. ..   .. ..   .. ..   .. ..   .. ..   .. ..   .. ..   .. ..   .. ..   .. ..   .. ..   .. ..   .. ..   .. ..   .. ..   .. ..   .. ..   .. ..   .. ..   .. ..   .. ..   .. ..   .. ..   .. ..   .. ..   .. ..   .. ..   .. ..   .. ..   .. ..   .. ..   .. ..   .. ..   .. ..   .. ..   .. ..   .. ..   .. ..   ",
" .. . .. .. . .. .. . .. .. . .. .. . .. .. . .. .. . .. .. . .. .. . .. .. . .. .. . .. .. . .. .. . .. .. . .. .. . .. .. . .. .. . .. .. . .. .. . .. .. . .. .. . .. .. . .. .. . .. .. . .. .. . .. .. . .. .. . .. .. . .. .. . .. .. . .. .. . .. .. . .. .. . .. .. . .. .. . .. .. . .. .. . .. .. . .. .. . .. .. . .. .. . .. .. . .. .. . .. .. . .. .. . .. .. . .. .. . .. .. . .. .. . .. .. . .. .. . .. .. . .. .. . .. .. . .. .. . .. .. . .. .. . .. .. . .. .. . .. .. . .. .. . .. .. . .. .. . .. .. . .. .. . .. .. . .. .. . .. .. . .. .. . .. .. . .. .. . .. .. . .. .. . .. .. . .. .. . .. .. . .. .. . .. .. . .. .. . .. .. . .. .. . .. .. . .. .. . .. .. . .. .. . .. .. . .. .. . .. .. . .. .. . .. .. . .. .. . .. .. . .. .. . .. .. . .. .. . .. .. . .. .. . .. .. . .. .. . .. .. . .. .. . .. .. . .. .. . .. .. . .. .. . .. .. . .. .. . .. .. . .. .. . .. .. . .. .. . .. .. . .. .. . .. .. . .. .. . .. .. . .. .. . .. .. . .. .. . .. .. . .. .. . .. .. . .. .. . .. .. . .. .. . .. .. . .. .. . .. .. . ..",
". . .. .. . .. .. . .. .. . .. .. . .. .. . .. .. . .. .. . .. .. . .. .. . .. .. . .. .. . .. .. . .. .. . .. .. . .. .. . .. .. . .. .. . .. .. . .. .. . .. .. . .. .. . .. .. . .. .. . .. .. . .. .. . .. .. . .. .. . .. .. . .. .. . .. .. . .. .. . .. .. . .. .. . .. .. . .. .. . .. .. . .. .. . .. .. . .. .. . .. .. . .. .. . .. .. . .. .. . .. .. . .. .. . .. .. . .. .. . .. .. . .. .. . .. .. . .. .. . .. .. . .. .. . .. .. . .. .. . .. .. . .. .. . .. .. . .. .. . .. .. . .. .. . .. .. . .. .. . .. .. . .. .. . .. .. . .. .. . .. .. . .. .. . .. .. . .. .. . .. .. . .. .. . .. .. . .. .. . .. .. . .. .. . .. .. . .. .. . .. .. . .. .. . .. .. . .. .. . .. .. . .. .. . .. .. . .. .. . .. .. . .. .. . .. .. . .. .. . .. .. . .. .. . .. .. . .. .. . .. .. . .. .. . .. .. . .. .. . .. .. . .. .. . .. .. . .. .. . .. .. . .. .. . .. .. . .. .. . .. .. . .. .. . .. .. . .. .. . .. .. . .. .. . .. .. . .. .. . .. .. . .. .. . .. .. . .. .. . .. .. . .. .. . .. .. . .. .. . .. .. . .. .. . .. .. . .. .. . .. .",
". .. .. . .. .. . .. .. . .. .. . .. .. . .. .. . .. .. . .. .. . .. .. . .. .. . .. .. . .. .. . .. .. . .. .. . .. .. . .. .. . .. .. . .. .. . .. .. . .. .. . .. .. . .. .. . .. .. . .. .. . .. .. . .. .. . .. .. . .. .. . .. .. . .. .. . .. .. . .. .. . .. .. . .. .. . .. .. . .. .. . .. .. . .. .. . .. .. . .. .. . .. .. . .. .. . .. .. . .. .. . .. .. . .. .. . .. .. . .. .. . .. .. . .. .. . .. .. . .. .. . .. .. . .. .. . .. .. . .. .. . .. .. . .. .. . .. .. . .. .. . .. .. . .. .. . .. .. . .. .. . .. .. . .. .. . .. .. . .. .. . .. .. . .. .. . .. .. . .. .. . .. .. . .. .. . .. .. . .. .. . .. .. . .. .. . .. .. . .. .. . .. .. . .. .. . .. .. . .. .. . .. .. . .. .. . .. .. . .. .. . .. .. . .. .. . .. .. . .. .. . .. .. . .. .. . .. .. . .. .. . .. .. . .. .. . .. .. . .. .. . .. .. . .. .. . .. .. . .. .. . .. .. . .. .. . .. .. . .. .. . .. .. . .. .. . .. .. . .. .. . .. .. . .. .. . .. .. . .. .. . .. .. . .. .. . .. .. . .. .. . .. .. . .. .. . .. .. . .. .. . .. .. . .. .. . .. .. . .. .. ",
".. .. . .. .. . .. .. . .. .. . .. .. . .. .. . .. .. . .. .. . .. .. . .. .. . .. .. . .. .. . .. .. . .. .. . .. .. . .. .. . .. .. . .. .. . .. .. . .. .. . .. .. . .. .. . .. .. . .. .. . .. .. . .. .. . .. .. . .. .. . .. .. . .. .. . .. .. . .. .. . .. .. . .. .. . .. .. . .. .. . .. .. . .. .. . .. .. . .. .. . .. .. . .. .. . .. .. . .. .. . .. .. . .. .. . .. .. . .. .. . .. .. . .. .. . .. .. . .. .. . .. .. . .. .. . .. .. . .. .. . .. .. . .. .. . .. .. . .. .. . .. .. . .. .. . .. .. . .. .. . .. .. . .. .. . .. .. . .. .. . .. .. . .. .. . .. .. . .. .. . .. .. . .. .. . .. .. . .. .. . .. .. . .. .. . .. .. . .. .. . .. .. . .. .. . .. .. . .. .. . .. .. . .. .. . .. .. . .. .. . .. .. . .. .. . .. .. . .. .. . .. .. . .. .. . .. .. . .. .. . .. .. . .. .. . .. .. . .. .. . .. .. . .. .. . .. .. . .. .. . .. .. . .. .. . .. .. . .. .. . .. .. . .. .. . .. .. . .. .. . .. .. . .. .. . .. .. . .. .. . .. .. . .. .. . .. .. . .. .. . .. .. . .. .. . .. .. . .. .. . .. .. . .. .. . .. .. . .. .. . ",
" ..   .. ..   .. ..   .. ..   .. ..   .. ..   .. ..   .. ..   .. ..   .. ..   .. ..   .. ..   .. ..   .. ..   .. ..   .. ..   .. ..   .. ..   .. ..   .. ..   .. ..   .. ..   .. ..   .. ..   .. ..   .. ..   .. ..   .. ..   .. ..   .. ..   .. ..   .. ..   .. ..   .. ..   .. ..   .. ..   .. ..   .. ..   .. ..   .. ..   .. ..   .. ..   .. ..   .. ..   .. ..   .. ..   .. ..   .. ..   .. ..   .. ..   .. ..   .. ..   .. ..   .. ..   .. ..   .. ..   .. ..   .. ..   .. ..   .. ..   .. ..   .. ..   .. ..   .. ..   .. ..   .. ..   .. ..   .. ..   .. ..   .. ..   .. ..   .. ..   .. ..   .. ..   .. ..   .. ..   .. ..   .. ..   .. ..   .. ..   .. ..   .. ..   .. ..   .. ..   .. ..   .. ..   .. ..   .. ..   .. ..   .. ..   .. ..   .. ..   .. ..   .. ..   .. ..   .. ..   .. ..   .. ..   .. ..   .. ..   .. ..   .. ..   .. ..   .. ..   .. ..   .. ..   .. ..   .. ..   .. ..   .. ..   .. ..   .. ..   .. ..   .. ..   .. ..   .. ..   .. ..   .. ..   .. ..   .. ..   .. ..   .. ..   .. ..   .. ..   .. ..   .. ..   .. ..   .. ..   ..",
". . .  .. . .  .. . .  .. . .  .. . .  .. . .  .. . .  .. . .  .. . .  .. . .  .. . .  .. . .  .. . .  .. . .  .. . .  .. . .  .. . .  .. . .  .. . .  .. . .  .. . .  .. . .  .. . .  .. . .  .. . .  .. . .  .. . .  .. . .  .. . .  .. . .  .. . .  .. . .  .. . .  .. . .  .. . .  .. . .  .. . .  .. . .  .. . .  .. . .  .. . .  .. . .  .. . .  .. . .  .. . .  .. . .  .. . .  .. . .  .. . .  .. . .  .. . .  .. . .  .. . .  .. . .  .. . .  .. . .  .. . .  .. . .  .. . .  .. . .  .. . .  .. . .  .. . .  .. . .  .. . .  .. . .  .. . .  .. . .  .. . .  .. . .  .. . .  .. . .  .. . .  .. . .  .. . .  .. . .  .. . .  .. . .  .. . .  .. . .  .. . .  .. . .  .. . .  .. . .  .. . .  .. . .  .. . .  .. . .  .. . .  .. . .  .. . .  .. . .  .. . .  .. . .  .. . .  .. . .  .. . .  .. . .  .. . .  .. . .  .. . .  .. . .  .. . .  .. . .  .. . .  .. . .  .. . .  .. . .  .. . .  .. . .  .. . .  .. . .  .. . .  .. . .  .. . .  .. . .  .. . .  .. . .  .. . .  .. . .  .. . .  .. . .  .. . .  .. . .  .. . .  .. . .  .. . .  .. . .  .",
". .. .  . .. .  . .. .  . .. .  . .. .  . .. .  . .. .  . .. .  . .. .  . .. .  . .. .  . .. .  . .. .  . .. .  . .. .  . .. .  . .. .  . .. .  . .. .  . .. .  . .. .  . .. .  . .. .  . .. .  . .. .  . .. .  . .. .  . .. .  . .. .  . .. .  . .. .  . .. .  . .. .  . .. .  . .. .  . .. .  . .. .  . .. .  . .. .  . .. .  . .. .  . .. .  . .. .  . .. .  . .. .  . .. .  . .. .  . .. .  . .. .  . .. .  . .. .  . .. .  . .. .  . .. .  . .. .  . .. .  . .. .  . .. .  . .. .  . .. .  . .. .  . .. .  . .. .  . .. .  . .. .  . .. .  . .. .  . .. .  . .. .  . .. .  . .. .  . .. .  . .. .  . .. .  . .. .  . .. .  . .. .  . .. .  . .. .  . .. .  . .. .  . .. .  . .. .  . .. .  . .. .  . .. .  . .. .  . .. .  . .. .  . .. .  . .. .  . .. .  . .. .  . .. .  . .. .  . .. .  . .. .  . .. .  . .. .  . .. .  . .. .  . .. .  . .. .  . .. .  . .. .  . .. .  . .. .  . .. .  . .. .  . .. .  . .. .  . .. .  . .. .  . .. .  . .. .  . .. .  . .. .  . .. .  . .. .  . .. .  . .. .  . .. .  . .. .  . .. .  . .. .  . .. .  . .. .  . .. .  ",
".. ..   .. ..   .. ..   .. ..   .. ..   .. ..   .. ..   .. ..   .. ..   .. ..   .. ..   .. ..   .. ..   .. ..   .. ..   .. ..   .. ..   .. ..   .. ..   .. ..   .. ..   .. ..   .. ..   .. ..   .. ..   .. ..   .. ..   .. ..   .. ..   .. ..   .. ..   .. ..   .. ..   .. ..   .. ..   .. ..   .. ..   .. ..   .. ..   .. ..   .. ..   .. ..   .. ..   .. ..   .. ..   .. ..   .. ..   .. ..   .. ..   .. ..   .. ..   .. ..   .. ..   .. ..   .. ..   .. ..   .. ..   .. ..   .. ..   .. ..   .. ..   .. ..   .. ..   .. ..   .. ..   .. ..   .. ..   .. ..   .. ..   .. ..   .. ..   .. ..   .. ..   .. ..   .. ..   .. ..   .. ..   .. ..   .. ..   .. ..   .. ..   .. ..   .. ..   .. ..   .. ..   .. ..   .. ..   .. ..   .. ..   .. ..   .. ..   .. ..   .. ..   .. ..   .. ..   .. ..   .. ..   .. ..   .. ..   .. ..   .. ..   .. ..   .. ..   .. ..   .. ..   .. ..   .. ..   .. ..   .. ..   .. ..   .. ..   .. ..   .. ..   .. ..   .. ..   .. ..   .. ..   .. ..   .. ..   .. ..   .. ..   .. ..   .. ..   .. ..   .. ..   .. ..   .. ..   .. ..   ",
" .. . .. .. . .. .. . .. .. . .. .. . .. .. . .. .. . .. .. . .. .. . .. .. . .. .. . .. .. . .. .. . .. .. . .. .. . .. .. . .. .. . .. .. . .. .. . .. .. . .. .. . .. .. . .. .. . .. .. . .. .. . .. .. . .. .. . .. .. . .. .. . .. .. . .. .. . .. .. . .. .. . .. .. . .. .. . .. .. . .. .. . .. .. . .. .. . .. .. . .. .. . .. .. . .. .. . .. .. . .. .. . .. .. . .. .. . .. .. . .. .. . .. .. . .. .. . .. .. . .. .. . .. .. . .. .. . .. .. . .. .. . .. .. . .. .. . .. .. . .. .. . .. .. . .. .. . .. .. . .. .. . .. .. . .. .. . .. .. . .. .. . .. .. . .. .. . .. .. . .. .. . .. .. . .. .. . .. .. . .. .. . .. .. . .. .. . .. .. . .. .. . .. .. . .. .. . .. .. . .. .. . .. .. . .. .. . .. .. . .. .. . .. .. . .. .. . .. .. . .. .. . .. .. . .. .. . .. .. . .. .. . .. .. . .. .. . .. .. . .. .. . .. .. . .. .. . .. .. . .. .. . .. .. . .. .. . .. .. . .. .. . .. .. . .. .. . .. .. . .. .. . .. .. . .. .. . .. .. . .. .. . .. .. . .. .. . .. .. . .. .. . .. .. . .. .. . .. .. . .. .. . .. .. . .. .. . .. .. . ..",
". . .. .. . .. .. . .. .. . .. .. . .. .. . .. .. . .. .. . .. .. . .. .. . .. .. . .. .. . .. .. . .. .. . .. .. . .. .. . .. .. . .. .. . .. .. . .. .. . .. .. . .. .. . .. .. . .. .. . .. .. . .. .. . .. .. . .. .. . .. .. . .. .. . .. .. . .. .. . .. .. . .. .. . .. .. . .. .. . .. .. . .. .. . .. .. . .. .. . .. .. . .. .. . .. .. . .. .. . .. .. . .. .. . .. .. . .. .. . .. .. . .. .. . .. .. . .. .. . .. .. . .. .. . .. .. . .. .. . .. .. . .. .. . .. .. . .. .. . .. .. . .. .. . .. .. . .. .. . .. .. . .. .. . .. .. . .. .. . .. .. . .. .. . .. .. . .. .. . .. .. . .. .. . .. .. . .. .. . .. .. . .. .. . .. .. . .. .. . .. .. . .. .. . .. .. . .. .. . .. .. . .. .. . .. .. . .. .. . .. .. . .. .. . .. .. . .. .. . .. .. . .. .. . .. .. . .. .. . .. .. . .. .. . .. .. . .. .. . .. .. . .. .. . .. .. . .. .. . .. .. . .. .. . .. .. . .. .. . .. .. . .. .. . .. .. . .. .. . .. .. . .. .. . .. .. . .. .. . .. .. . .. .. . .. .. . .. .. . .. .. . .. .. . .. .. . .. .. . .. .. . .. .. . .. .. . .. .. . .. .",
". .. .. . .. .. . .. .. . .. .. . .. .. . .. .. . .. .. . .. .. . .. .. . .. .. . .. .. . .. .. . .. .. . .. .. . .. .. . .. .. . .. .. . .. .. . .. .. . .. .. . .. .. . .. .. . .. .. . .. .. . .. .. . .. .. . .. .. . .. .. . .. .. . .. .. . .. .. . .. .. . .. .. . .. .. . .. .. . .. .. . .. .. . .. .. . .. .. . .. .. . .. .. . .. .. . .. .. . .. .. . .. .. . .. .. . .. .. . .. .. . .. .. . .. .. . .. .. . .. .. . .. .. . .. .. . .. .. . .. .. . .. .. . .. .. . .. .. . .. .. . .. .. . .. .. . .. .. . .. .. . .. .. . .. .. . .. .. . .. .. . .. .. . .. .. . .. .. . .. .. . .. .. . .. .. . .. .. . .. .. . .. .. . .. .. . .. .. . .. .. . .. .. . .. .. . .. .. . .. .. . .. .. . .. .. . .. .. . .. .. . .. .. . .. .. . .. .. . .. .. . .. .. . .. .. . .. .. . .. .. . .. .. . .. .. . .. .. . .. .. . .. .. . .. .. . .. .. . .. .. . .. .. . .. .. . .. .. . .. .. . .. .. . .. .. . .. .. . .. .. . .. .. . .. .. . .. .. . .. .. . .. .. . .. .. . .. .. . .. .. . .. .. . .. .. . .. .. . .. .. . .. .. . .. .. . .. .. . .. .. ",
".. .. . .. .. . .. .. . .. .. . .. .. . .. .. . .. .. . .. .. . .. .. . .. .. . .. .. . .. .. . .. .. . .. .. . .. .. . .. .. . .. .. . .. .. . .. .. . .. .. . .. .. . .. .. . .. .. . .. .. . .. .. . .. .. . .. .. . .. .. . .. .. . .. .. . .. .. . .. .. . .. .. . .. .. . .. .. . .. .. . .. .. . .. .. . .. .. . .. .. . .. .. . .. .. . .. .. . .. .. . .. .. . .. .. . .. .. . .. .. . .. .. . .. .. . .. .. . .. .. . .. .. . .. .. . .. .. . .. .. . .. .. . .. .. . .. .. . .. .. . .. .. . .. .. . .. .. . .. .. . .. .. . .. .. . .. .. . .. .. . .. .. . .. .. . .. .. . .. .. . .. .. . .. .. . .. .. . .. .. . .. .. . .. .. . .. .. . .. .. . .. .. . .. .. . .. .. . .. .. . .. .. . .. .. . .. .. . .. .. . .. .. . .. .. . .. .. . .. .. . .. .. . .. .. . .. .. . .. .. . .. .. . .. .. . .. .. . .. .. . .. .. . .. .. . .. .. . .. .. . .. .. . .. .. . .. .. . .. .. . .. .. . .. .. . .. .. . .. .. . .. .. . .. .. . .. .. . .. .. . .. .. . .. .. . .. .. . .. .. . .. .. . .. .. . .. .. . .. .. . .. .. . .. .. . .. .. . .. .. . ",
" ..   .. ..   .. ..   .. ..   .. ..   .. ..   .. ..   .. ..   .. ..   .. ..   .. ..   .. ..   .. ..   .. ..   .. ..   .. ..   .. ..   .. ..   .. ..   .. ..   .. ..   .. ..   .. ..   .. ..   .. ..   .. ..   .. ..   .. ..   .. ..   .. ..   .. ..   .. ..   .. ..   .. ..   .. ..   .. ..   .. ..   .. ..   .. ..   .. ..   .. ..   .. ..   .. ..   .. ..   .. ..   .. ..   .. ..   .. ..   .. ..   .. ..   .. ..   .. ..   .. ..   .. ..   .. ..   .. ..   .. ..   .. ..   .. ..   .. ..   .. ..   .. ..   .. ..   .. ..   .. ..   .. ..   .. ..   .. ..   .. ..   .. ..   .. ..   .. ..   .. ..   .. ..   .. ..   .. ..   .. ..   .. ..   .. ..   .. ..   .. ..   .. ..   .. ..   .. ..   .. ..   .. ..   .. ..   .. ..   .. ..   .. ..   .. ..   .. ..   .. ..   .. ..   .. ..   .. ..   .. ..   .. ..   .. ..   .. ..   .. ..   .. ..   .. ..   .. ..   .. ..   .. ..   .. ..   .. ..   .. ..   .. ..   .. ..   .. ..   .. ..   .. ..   .. ..   .. ..   .. ..   .. ..   .. ..   .. ..   .. ..   .. ..   .. ..   .. ..   .. ..   .. ..   .. ..   .. ..   ..",
". . .  .. . .  .. . .  .. . .  .. . .  .. . .  .. . .  .. . .  .. . .  .. . .  .. . .  .. . .  .. . .  .. . .  .. . .  .. . .  .. . .  .. . .  .. . .  .. . .  .. . .  .. . .  .. . .  .. . .  .. . .  .. . .  .. . .  .. . .  .. . .  .. . .  .. . .  .. . .  .. . .  .. . .  .. . .  .. . .  .. . .  .. . .  .. . .  .. . .  .. . .  .. . .  .. . .  .. . .  .. . .  .. . .  .. . .  .. . .  .. . .  .. . .  .. . .  .. . .  .. . .  .. . .  .. . .  .. . .  .. . .  .. . .  .. . .  .. . .  .. . .  .. . .  .. . .  .. . .  .. . .  .. . .  .. . .  .. . .  .. . .  .. . .  .. . .  .. . .  .. . .  .. . .  .. . .  .. . .  .. . .  .. . .  .. . .  .. . .  .. . .  .. . .  .. . .  .. . .  .. . .  .. . .  .. . .  .. . .  .. . .  .. . .  .. . .  .. . .  .. . .  .. . .  .. . .  .. . .  .. . .  .. . .  .. . .  .. . .  .. . .  .. . .  .. . .  .. . .  .. . .  .. . .  .. . .  .. . .  .. . .  .. . .  .. . .  .. . .  .. . .  .. . .  .. . .  .. . .  .. . .  .. . .  .. . .  .. . .  .. . .  .. . .  .. . .  .. . .  .. . .  .. . .  .. . .  .. . .  .",
". .. .  . .. .  . .. .  . .. .  . .. .  . .. .  . .. .  . .. .  . .. .  . .. .  . .. .  . .. .  . .. .  . .. .  . .. .  . .. .  . .. .  . .. .  . .. .  . .. .  . .. .  . .. .  . .. .  . .. .  . .. .  . .. .  . .. .  . .. .  . .. .  . .. .  . .. .  . .. .  . .. .  . .. .  . .. .  . .. .  . .. .  . .. .  . .. .  . .. .  . .. .  . .. .  . .. .  . .. .  . .. .  . .. .  . .. .  . .. .  . .. .  . .. .  . .. .  . .. .  . .. .  . .. .  . .. .  . .. .  . .. .  . .. .  . .. .  . .. .  . .. .  . .. .  . .. .  . .. .  . .. .  . .. .  . .. .  . .. .  . .. .  . .. .  . .. .  . .. .  . .. .  . .. .  . .. .  . .. .  . .. .  . .. .  . .. .  . .. .  . .. .  . .. .  . .. .  . .. .  . .. .  . .. .  . .. .  . .. .  . .. .  . .. .  . .. .  . .. .  . .. .  . .. .  . .. .  . .. .  . .. .  . .. .  . .. .  . .. .  . .. .  . .. .  . .. .  . .. .  . .. .  . .. .  . .. .  . .. .  . .. .  . .. .  . .. .  . .. .  . .. .  . .. .  . .. .  . .. .  . .. .  . .. .  . .. .  . .. .  . .. .  . .. .  . .. .  . .. .  . .. .  . .. .  . .. .  . .. .  ",
".. ..   .. ..   .. ..   .. ..   .. ..   .. ..   .. ..   .. ..   .. ..   .. ..   .. ..   .. ..   .. ..   .. ..   .. ..   .. ..   .. ..   .. ..   .. ..   .. ..   .. ..   .. ..   .. ..   .. ..   .. ..   .. ..   .. ..   .. ..   .. ..   .. ..   .. ..   .. ..   .. ..   .. ..   .. ..   .. ..   .. ..   .. ..   .. ..   .. ..   .. ..   .. ..   .. ..   .. ..   .. ..   .. ..   .. ..   .. ..   .. ..   .. ..   .. ..   .. ..   .. ..   .. ..   .. ..   .. ..   .. ..   .. ..   .. ..   .. ..   .. ..   .. ..   .. ..   .. ..   .. ..   .. ..   .. ..   .. ..   .. ..   .. ..   .. ..   .. ..   .. ..   .. ..   .. ..   .. ..   .. ..   .. ..   .. ..   .. ..   .. ..   .. ..   .. ..   .. ..   .. ..   .. ..   .. ..   .. ..   .. ..   .. ..   .. ..   .. ..   .. ..   .. ..   .. ..   .. ..   .. ..   .. ..   .. ..   .. ..   .. ..   .. ..   .. ..   .. ..   .. ..   .. ..   .. ..   .. ..   .. ..   .. ..   .. ..   .. ..   .. ..   .. ..   .. ..   .. ..   .. ..   .. ..   .. ..   .. ..   .. ..   .. ..   .. ..   .. ..   .. ..   .. ..   .. ..   .. ..   ",
" .. . .. .. . .. .. . .. .. . .. .. . .. .. . .. .. . .. .. . .. .. . .. .. . .. .. . .. .. . .. .. . .. .. . .. .. . .. .. . .. .. . .. .. . .. .. . .. .. . .. .. . .. .. . .. .. . .. .. . .. .. . .. .. . .. .. . .. .. . .. .. . .. .. . .. .. . .. .. . .. .. . .. .. . .. .. . .. .. . .. .. . .. .. . .. .. . .. .. . .. .. . .. .. . .. .. . .. .. . .. .. . .. .. . .. .. . .. .. . .. .. . .. .. . .. .. . .. .. . .. .. . .. .. . .. .. . .. .. . .. .. . .. .. . .. .. . .. .. . .. .. . .. .. . .. .. . .. .. . .. .. . .. .. . .. .. . .. .. . .. .. . .. .. . .. .. . .. .. . .. .. . .. .. . .. .. . .. .. . .. .. . .. .. . .. .. . .. .. . .. .. . .. .. . .. .. . .. .. . .. .. . .. .. . .. .. . .. .. . .. .. . .. .. . .. .. . .. .. . .. .. . .. .. . .. .. . .. .. . .. .. . .. .. . .. .. . .. .. . .. .. . .. .. . .. .. . .. .. . .. .. . .. .. . .. .. . .. .. . .. .. . .. .. . .. .. . .. .. . .. .. . .. .. . .. .. . .. .. . .. .. . .. .. . .. .. . .. .. . .. .. . .. .. . .. .. . .. .. . .. .. . .. .. . .. .. . .. .. . ..",
". . .. .. . .. .. . .. .. . .. .. . .. .. . .. .. . .. .. . .. .. . .. .. . .. .. . .. .. . .. .. . .. .. . .. .. . .. .. . .. .. . .. .. . .. .. . .. .. . .. .. . .. .. . .. .. . .. .. . .. .. . .. .. . .. .. . .. .. . .. .. . .. .. . .. .. . .. .. . .. .. . .. .. . .. .. . .. .. . .. .. . .. .. . .. .. . .. .. . .. .. . .. .. . .. .. . .. .. . .. .. . .. .. . .. .. . .. .. . .. .. . .. .. . .. .. . .. .. . .. .. . .. .. . .. .. . .. .. . .. .. . .. .. . .. .. . .. .. . .. .. . .. .. . .. .. . .. .. . .. .. . .. .. . .. .. . .. .. . .. .. . .. .. . .. .. . .. .. . .. .. . .. .. . .. .. . .. .. . .. .. . .. .. . .. .. . .. .. . .. .. . .. .. . .. .. . .. .. . .. .. . .. .. . .. .. . .. .. . .. .. . .. .. . .. .. . .. .. . .. .. . .. .. . .. .. . .. .. . .. .. . .. .. . .. .. . .. .. . .. .. . .. .. . .. .. . .. .. . .. .. . .. .. . .. .. . .. .. . .. .. . .. .. . .. .. . .. .. . .. .. . .. .. . .. .. . .. .. . .. .. . .. .. . .. .. . .. .. . .. .. . .. .. . .. .. . .. .. . .. .. . .. .. . .. .. . .. .. . .. .",
". .. .. . .. .. . .. .. . .. .. . .. .. . .. .. . .. .. . .. .. . .. .. . .. .. . .. .. . .. .. . .. .. . .. .. . .. .. . .. .. . .. .. . .. .. . .. .. . .. .. . .. .. . .. .. . .. .. . .. .. . .. .. . .. .. . .. .. . .. .. . .. .. . .. .. . .. .. . .. .. . .. .. . .. .. . .. .. . .. .. . .. .. . .. .. . .. .. . .. .. . .. .. . .. .. . .. .. . .. .. . .. .. . .. .. . .. .. . .. .. . .. .. . .. .. . .. .. . .. .. . .. .. . .. .. . .. .. . .. .. . .. .. . .. .. . .. .. . .. .. . .. .. . .. .. . .. .. . .. .. . .. .. . .. .. . .. .. . .. .. . .. .. . .. .. . .. .. . .. .. . .. .. . .. .. . .. .. . .. .. . .. .. . .. .. . .. .. . .. .. . .. .. . .. .. . .. .. . .. .. . .. .. . .. .. . .. .. . .. .. . .. .. . .. .. . .. .. . .. .. . .. .. . .. .. . .. .. . .. .. . .. .. . .. .. . .. .. . .. .. . .. .. . .. .. . .. .. . .. .. . .. .. . .. .. . .. .. . .. .. . .. .. . .. .. . .. .. . .. .. . .. .. . .. .. . .. .. . .. .. . .. .. . .. .. . .. .. . .. .. . .. .. . .. .. . .. .. . .. .. . .. .. . .. .. . .. .. . .. .. ",
".. .. . .. .. . .. .. . .. .. . .. .. . .. .. . .. .. . .. .. . .. .. . .. .. . .. .. . .. .. . .. .. . .. .. . .. .. . .. .. . .. .. . .. .. . .. .. . .. .. . .. .. . .. .. . .. .. . .. .. . .. .. . .. .. . .. .. . .. .. . .. .. . .. .. . .. .. . .. .. . .. .. . .. .. . .. .. . .. .. . .. .. . .. .. . .. .. . .. .. . .. .. . .. .. . .. .. . .. .. . .. .. . .. .. . .. .. . .. .. . .. .. . .. .. . .. .. . .. .. . .. .. . .. .. . .. .. . .. .. . .. .. . .. .. . .. .. . .. .. . .. .. . .. .. . .. .. . .. .. . .. .. . .. .. . .. .. . .. .. . .. .. . .. .. . .. .. . .. .. . .. .. . .. .. . .. .. . .. .. . .. .. . .. .. . .. .. . .. .. . .. .. . .. .. . .. .. . .. .. . .. .. . .. .. . .. .. . .. .. . .. .. . .. .. . .. .. . .. .. . .. .. . .. .. . .. .. . .. .. . .. .. . .. .. . .. .. . .. .. . .. .. . .. .. . .. .. . .. .. . .. .. . .. .. . .. .. . .. .. . .. .. . .. .. . .. .. . .. .. . .. .. . .. .. . .. .. . .. .. . .. .. . .. .. . .. .. . .. .. . .. .. . .. .. . .. .. . .. .. . .. .. . .. .. . .. .. . .. .. . ",
" ..   .. ..   .. ..   .. ..   .. ..   .. ..   .. ..   .. ..   .. ..   .. ..   .. ..   .. ..   .. ..   .. ..   .. ..   .. ..   .. ..   .. ..   .. ..   .. ..   .. ..   .. ..   .. ..   .. ..   .. ..   .. ..   .. ..   .. ..   .. ..   .. ..   .. ..   .. ..   .. ..   .. ..   .. ..   .. ..   .. ..   .. ..   .. ..   .. ..   .. ..   .. ..   .. ..   .. ..   .. ..   .. ..   .. ..   .. ..   .. ..   .. ..   .. ..   .. ..   .. ..   .. ..   .. ..   .. ..   .. ..   .. ..   .. ..   .. ..   .. ..   .. ..   .. ..   .. ..   .. ..   .. ..   .. ..   .. ..   .. ..   .. ..   .. ..   .. ..   .. ..   .. ..   .. ..   .. ..   .. ..   .. ..   .. ..   .. ..   .. ..   .. ..   .. ..   .. ..   .. ..   .. ..   .. ..   .. ..   .. ..   .. ..   .. ..   .. ..   .. ..   .. ..   .. ..   .. ..   .. ..   .. ..   .. ..   .. ..   .. ..   .. ..   .. ..   .. ..   .. ..   .. ..   .. ..   .. ..   .. ..   .. ..   .. ..   .. ..   .. ..   .. ..   .. ..   .. ..   .. ..   .. ..   .. ..   .. ..   .. ..   .. ..   .. ..   .. ..   .. ..   .. ..   .. ..   .. ..   ..",
". . .  .. . .  .. . .  .. . .  .. . .  .. . .  .. . .  .. . .  .. . .  .. . .  .. . .  .. . .  .. . .  .. . .  .. . .  .. . .  .. . .  .. . .  .. . .  .. . .  .. . .  .. . .  .. . .  .. . .  .. . .  .. . .  .. . .  .. . .  .. . .  .. . .  .. . .  .. . .  .. . .  .. . .  .. . .  .. . .  .. . .  .. . .  .. . .  .. . .  .. . .  .. . .  .. . .  .. . .  .. . .  .. . .  .. . .  .. . .  .. . .  .. . .  .. . .  .. . .  .. . .  .. . .  .. . .  .. . .  .. . .  .. . .  .. . .  .. . .  .. . .  .. . .  .. . .  .. . .  .. . .  .. . .  .. . .  .. . .  .. . .  .. . .  .. . .  .. . .  .. . .  .. . .  .. . .  .. . .  .. . .  .. . .  .. . .  .. . .  .. . .  .. . .  .. . .  .. . .  .. . .  .. . .  .. . .  .. . .  .. . .  .. . .  .. . .  .. . .  .. . .  .. . .  .. . .  .. . .  .. . .  .. . .  .. . .  .. . .  .. . .  .. . .  .. . .  .. . .  .. . .  .. . .  .. . .  .. . .  .. . .  .. . .  .. . .  .. . .  .. . .  .. . .  .. . .  .. . .  .. . .  .. . .  .. . .  .. . .  .. . .  .. . .  .. . .  .. . .  .. . .  .. . .  .. . .  .. . .  .",
". .. .  . .. .  . .. .  . .. .  . .. .  . .. .  . .. .  . .. .  . .. .  . .. .  . .. .  . .. .  . .. .  . .. .  . .. .  . .. .  . .. .  . .. .  . .. .  . .. .  . .. .  . .. .  . .. .  . .. .  . .. .  . .. .  . .. .  . .. .  . .. .  . .. .  . .. .  . .. .  . .. .  . .. .  . .. .  . .. .  . .. .  . .. .  . .. .  . .. .  . .. .  . .. .  . .. .  . .. .  . .. .  . .. .  . .. .  . .. .  . .. .  . .. .  . .. .  . .. .  . .. .  . .. .  . .. .  . .. .  . .. .  . .. .  . .. .  . .. .  . .. .  . .. .  . .. .  . .. .  . .. .  . .. .  . .. .  . .. .  . .. .  . .. .  . .. .  . .. .  . .. .  . .. .  . .. .  . .. .  . .. .  . .. .  . .. .  . .. .  . .. .  . .. .  . .. .  . .. .  . .. .  . .. .  . .. .  . .. .  . .. .  . .. .  . .. .  . .. .  . .. .  . .. .  . .. .  . .. .  . .. .  . .. .  . .. .  . .. .  . .. .  . .. .  . .. .  . .. .  . .. .  . .. .  . .. .  . .. .  . .. .  . .. .  . .. .  . .. .  . .. .  . .. .  . .. .  . .. .  . .. .  . .. .  . .. .  . .. .  . .. .  . .. .  . .. .  . .. .  . .. .  . .. .  . .. .  . .. .  ",
".. ..   .. ..   .. ..   .. ..   .. ..   .. ..   .. ..   .. ..   .. ..   .. ..   .. ..   .. ..   .. ..   .. ..   .. ..   .. ..   .. ..   .. ..   .. ..   .. ..   .. ..   .. ..   .. ..   .. ..   .. ..   .. ..   .. ..   .. ..   .. ..   .. ..   .. ..   .. ..   .. ..   .. ..   .. ..   .. ..   .. ..   .. ..   .. ..   .. ..   .. ..   .. ..   .. ..   .. ..   .. ..   .. ..   .. ..   .. ..   .. ..   .. ..   .. ..   .. ..   .. ..   .. ..   .. ..   .. ..   .. ..   .. ..   .. ..   .. ..   .. ..   .. ..   .. ..   .. ..   .. ..   .. ..   .. ..   .. ..   .. ..   .. ..   .. ..   .. ..   .. ..   .. ..   .. ..   .. ..   .. ..   .. ..   .. ..   .. ..   .. ..   .. ..   .. ..   .. ..   .. ..   .. ..   .. ..   .. ..   .. ..   .. ..   .. ..   .. ..   .. ..   .. ..   .. ..   .. ..   .. ..   .. ..   .. ..   .. ..   .. ..   .. ..   .. ..   .. ..   .. ..   .. ..   .. ..   .. ..   .. ..   .. ..   .. ..   .. ..   .. ..   .. ..   .. ..   .. ..   .. ..   .. ..   .. ..   .. ..   .. ..   .. ..   .. ..   .. ..   .. ..   .. ..   .. ..   .. ..   ",
" .  . .. .  . .. .  . .. .  . .. .  . .. .  . .. .  . .. .  . .. .  . .. .  . .. .  . .. .  . .. .  . .. .  . .. .  . .. .  . .. .  . .. .  . .. .  . .. .  . .. .  . .. .  . .. .  . .. .  . .. .  . .. .  . .. .  . .. .  . .. .  . .. .  . .. .  . .. .  . .. .  . .. .  . .. .  . .. .  . .. .  . .. .  . .. .  . .. .  . .. .  . .. .  . .. .  . .. .  . .. .  . .. .  . .. .  . .. .  . .. .  . .. .  . .. .  . .. .  . .. .  . .. .  . .. .  . .. .  . .. .  . .. .  . .. .  . .. .  . .. .  . .. .  . .. .  . .. .  . .. .  . .. .  . .. .  . .. .  . .. .  . .. .  . .. .  . .. .  . .. .  . .. .  . .. .  . .. .  . .. .  . .. .  . .. .  . .. .  . .. .  . .. .  . .. .  . .. .  . .. .  . .. .  . .. .  . .. .  . .. .  . .. .  . .. .  . .. .  . .. .  . .. .  . .. .  . .. .  . .. .  . .. .  . .. .  . .. .  . .. .  . .. .  . .. .  . .. .  . .. .  . .. .  . .. .  . .. .  . .. .  . .. .  . .. .  . .. .  . .. .  . .. .  . .. .  . .. .  . .. .  . .. .  . .. .  . .. .  . .. .  . .. .  . .. .  . .. .  . .. .  . .. .  . .. .  . .. .  . ..",
".   .. ..   .. ..   .. ..   .. ..   .. ..   .. ..   .. ..   .. ..   .. ..   .. ..   .. ..   .. ..   .. ..   .. ..   .. ..   .. ..   .. ..   .. ..   .. ..   .. ..   .. ..   .. ..   .. ..   .. ..   .. ..   .. ..   .. ..   .. ..   .. ..   .. ..   .. ..   .. ..   .. ..   .. ..   .. ..   .. ..   .. ..   .. ..   .. ..   .. ..   .. ..   .. ..   .. ..   .. ..   .. ..   .. ..   .. ..   .. ..   .. ..   .. ..   .. ..   .. ..   .. ..   .. ..   .. ..   .. ..   .. ..   .. ..   .. ..   .. ..   .. ..   .. ..   .. ..   .. ..   .. ..   .. ..   .. ..   .. ..   .. ..   .. ..   .. ..   .. ..   .. ..   .. ..   .. ..   .. ..   .. ..   .. ..   .. ..   .. ..   .. ..   .. ..   .. ..   .. ..   .. ..   .. ..   .. ..   .. ..   .. ..   .. ..   .. ..   .. ..   .. ..   .. ..   .. ..   .. ..   .. ..   .. ..   .. ..   .. ..   .. ..   .. ..   .. ..   .. ..   .. ..   .. ..   .. ..   .. ..   .. ..   .. ..   .. ..   .. ..   .. ..   .. ..   .. ..   .. ..   .. ..   .. ..   .. ..   .. ..   .. ..   .. ..   .. ..   .. ..   .. ..   .. ..   .. ..   .. .",
". .  .. . .  .. . .  .. . .  .. . .  .. . .  .. . .  .. . .  .. . .  .. . .  .. . .  .. . .  .. . .  .. . .  .. . .  .. . .  .. . .  .. . .  .. . .  .. . .  .. . .  .. . .  .. . .  .. . .  .. . .  .. . .  .. . .  .. . .  .. . .  .. . .  .. . .  .. . .  .. . .  .. . .  .. . .  .. . .  .. . .  .. . .  .. . .  .. . .  .. . .  .. . .  .. . .  .. . .  .. . .  .. . .  .. . .  .. . .  .. . .  .. . .  .. . .  .. . .  .. . .  .. . .  .. . .  .. . .  .. . .  .. . .  .. . .  .. . .  .. . .  .. . .  .. . .  .. . .  .. . .  .. . .  .. . .  .. . .  .. . .  .. . .  .. . .  .. . .  .. . .  .. . .  .. . .  .. . .  .. . .  .. . .  .. . .  .. . .  .. . .  .. . .  .. . .  .. . .  .. . .  .. . .  .. . .  .. . .  .. . .  .. . .  .. . .  .. . .  .. . .  .. . .  .. . .  .. . .  .. . .  .. . .  .. . .  .. . .  .. . .  .. . .  .. . .  .. . .  .. . .  .. . .  .. . .  .. . .  .. . .  .. . .  .. . .  .. . .  .. . .  .. . .  .. . .  .. . .  .. . .  .. . .  .. . .  .. . .  .. . .  .. . .  .. . .  .. . .  .. . .  .. . .  .. . .  .. . .  .. ",
".. .  . .. .  . .. .  . .. .  . .. .  . .. .  . .. .  . .. .  . .. .  . .. .  . .. .  . .. .  . .. .  . .. .  . .. .  . .. .  . .. .  . .. .  . .. .  . .. .  . .. .  . .. .  . .. .  . .. .  . .. .  . .. .  . .. .  . .. .  . .. .  . .. .  . .. .  . .. .  . .. .  . .. .  . .. .  . .. .  . .. .  . .. .  . .. .  . .. .  . .. .  . .. .  . .. .  . .. .  . .. .  . .. .  . .. .  . .. .  . .. .  . .. .  . .. .  . .. .  . .. .  . .. .  . .. .  . .. .  . .. .  . .. .  . .. .  . .. .  . .. .  . .. .  . .. .  . .. .  . .. .  . .. .  . .. .  . .. .  . .. .  . .. .  . .. .  . .. .  . .. .  . .. .  . .. .  . .. .  . .. .  . .. .  . .. .  . .. .  . .. .  . .. .  . .. .  . .. .  . .. .  . .. .  . .. .  . .. .  . .. .  . .. .  . .. .  . .. .  . .. .  . .. .  . .. .  . .. .  . .. .  . .. .  . .. .  . .. .  . .. .  . .. .  . .. .  . .. .  . .. .  . .. .  . .. .  . .. .  . .. .  . .. .  . .. .  . .. .  . .. .  . .. .  . .. .  . .. .  . .. .  . .. .  . .. .  . .. .  . .. .  . .. .  . .. .  . .. .  . .. .  . .. .  . .. .  . .. .  . ",
" ..   .. ..   .. ..   .. ..   .. ..   .. ..   .. ..   .. ..   .. ..   .. ..   .. ..   .. ..   .. ..   .. ..   .. ..   .. ..   .. ..   .. ..   .. ..   .. ..   .. ..   .. ..   .. ..   .. ..   .. ..   .. ..   .. ..   .. ..   .. ..   .. ..   .. ..   .. ..   .. ..   .. ..   .. ..   .. ..   .. ..   .. ..   .. ..   .. ..   .. ..   .. ..   .. ..   .. ..   .. ..   .. ..   .. ..   .. ..   .. ..   .. ..   .. ..   .. ..   .. ..   .. ..   .. ..   .. ..   .. ..   .. ..   .. ..   .. ..   .. ..   .. ..   .. ..   .. ..   .. ..   .. ..   .. ..   .. ..   .. ..   .. ..   .. ..   .. ..   .. ..   .. ..   .. ..   .. ..   .. ..   .. ..   .. ..   .. ..   .. ..   .. ..   .. ..   .. ..   .. ..   .. ..   .. ..   .. ..   .. ..   .. ..   .. ..   .. ..   .. ..   .. ..   .. ..   .. ..   .. ..   .. ..   .. ..   .. ..   .. ..   .. ..   .. ..   .. ..   .. ..   .. ..   .. ..   .. ..   .. ..   .. ..   .. ..   .. ..   .. ..   .. ..   .. ..   .. ..   .. ..   .. ..   .. ..   .. ..   .. ..   .. ..   .. ..   .. ..   .. ..   .. ..   .. ..   .. ..   ..",
". . .  .. . .  .. . .  .. . .  .. . .  .. . .  .. . .  .. . .  .. . .  .. . .  .. . .  .. . .  .. . .  .. . .  .. . .  .. . .  .. . .  .. . .  .. . .  .. . .  .. . .  .. . .  .. . .  .. . .  .. . .  .. . .  .. . .  .. . .  .. . .  .. . .  .. . .  .. . .  .. . .  .. . .  .. . .  .. . .  .. . .  .. . .  .. . .  .. . .  .. . .  .. . .  .. . .  .. . .  .. . .  .. . .  .. . .  .. . .  .. . .  .. . .  .. . .  .. . .  .. . .  .. . .  .. . .  .. . .  .. . .  .. . .  .. . .  .. . .  .. . .  .. . .  .. . .  .. . .  .. . .  .. . .  .. . .  .. . .  .. . .  .. . .  .. . .  .. . .  .. . .  .. . .  .. . .  .. . .  .. . .  .. . .  .. . .  .. . .  .. . .  .. . .  .. . .  .. . .  .. . .  .. . .  .. . .  .. . .  .. . .  .. . .  .. . .  .. . .  .. . .  .. . .  .. . .  .. . .  .. . .  .. . .  .. . .  .. . .  .. . .  .. . .  .. . .  .. . .  .. . .  .. . .  .. . .  .. . .  .. . .  .. . .  .. . .  .. . .  .. . .  .. . .  .. . .  .. . .  .. . .  .. . .  .. . .  .. . .  .. . .  .. . .  .. . .  .. . .  .. . .  .. . .  .. . .  .. . .  .",
". .. .  . .. .  . .. .  . .. .  . .. .  . .. .  . .. .  . .. .  . .. .  . .. .  . .. .  . .. .  . .. .  . .. .  . .. .  . .. .  . .. .  . .. .  . .. .  . .. .  . .. .  . .. .  . .. .  . .. .  . .. .  . .. .  . .. .  . .. .  . .. .  . .. .  . .. .  . .. .  . .. .  . .. .  . .. .  . .. .  . .. .  . .. .  . .. .  . .. .  . .. .  . .. .  . .. .  . .. .  . .. .  . .. .  . .. .  . .. .  . .. .  . .. .  . .. .  . .. .  . .. .  . .. .  . .. .  . .. .  . .. .  . .. .  . .. .  . .. .  . .. .  . .. .  . .. .  . .. .  . .. .  . .. .  . .. .  . .. .  . .. .  . .. .  . .. .  . .. .  . .. .  . .. .  . .. .  . .. .  . .. .  . .. .  . .. .  . .. .  . .. .  . .. .  . .. .  . .. .  . .. .  . .. .  . .. .  . .. .  . .. .  . .. .  . .. .  . .. .  . .. .  . .. .  . .. .  . .. .  . .. .  . .. .  . .. .  . .. .  . .. .  . .. .  . .. .  . .. .  . .. .  . .. .  . .. .  . .. .  . .. .  . .. .  . .. .  . .. .  . .. .  . .. .  . .. .  . .. .  . .. .  . .. .  . .. .  . .. .  . .. .  . .. .  . .. .  . .. .  . .. .  . .. .  . .. .  . .. .  ",
".. ..   .. ..   .. ..   .. ..   .. ..   .. ..   .. ..   .. ..   .. ..   .. ..   .. ..   .. ..   .. ..   .. ..   .. ..   .. ..   .. ..   .. ..   .. ..   .. ..   .. ..   .. ..   .. ..   .. ..   .. ..   .. ..   .. ..   .. ..   .. ..   .. ..   .. ..   .. ..   .. ..   .. ..   .. ..   .. ..   .. ..   .. ..   .. ..   .. ..   .. ..   .. ..   .. ..   .. ..   .. ..   .. ..   .. ..   .. ..   .. ..   .. ..   .. ..   .. ..   .. ..   .. ..   .. ..   .. ..   .. ..   .. ..   .. ..   .. ..   .. ..   .. ..   .. ..   .. ..   .. ..   .. ..   .. ..   .. ..   .. ..   .. ..   .. ..   .. ..   .. ..   .. ..   .. ..   .. ..   .. ..   .. ..   .. ..   .. ..   .. ..   .. ..   .. ..   .. ..   .. ..   .. ..   .. ..   .. ..   .. ..   .. ..   .. ..   .. ..   .. ..   .. ..   .. ..   .. ..   .. ..   .. ..   .. ..   .. ..   .. ..   .. ..   .. ..   .. ..   .. ..   .. ..   .. ..   .. ..   .. ..   .. ..   .. ..   .. ..   .. ..   .. ..   .. ..   .. ..   .. ..   .. ..   .. ..   .. ..   .. ..   .. ..   .. ..   .. ..   .. ..   .. ..   .. ..   .. ..   ",
" .  . .. .  . .. .  . .. .  . .. .  . .. .  . .. .  . .. .  . .. .  . .. .  . .. .  . .. .  . .. .  . .. .  . .. .  . .. .  . .. .  . .. .  . .. .  . .. .  . .. .  . .. .  . .. .  . .. .  . .. .  . .. .  . .. .  . .. .  . .. .  . .. .  . .. .  . .. .  . .. .  . .. .  . .. .  . .. .  . .. .  . .. .  . .. .  . .. .  . .. .  . .. .  . .. .  . .. .  . .. .  . .. .  . .. .  . .. .  . .. .  . .. .  . .. .  . .. .  . .. .  . .. .  . .. .  . .. .  . .. .  . .. .  . .. .  . .. .  . .. .  . .. .  . .. .  . .. .  . .. .  . .. .  . .. .  . .. .  . .. .  . .. .  . .. .  . .. .  . .. .  . .. .  . .. .  . .. .  . .. .  . .. .  . .. .  . .. .  . .. .  . .. .  . .. .  . .. .  . .. .  . .. .  . .. .  . .. .  . .. .  . .. .  . .. .  . .. .  . .. .  . .. .  . .. .  . .. .  . .. .  . .. .  . .. .  . .. .  . .. .  . .. .  . .. .  . .. .  . .. .  . .. .  . .. .  . .. .  . .. .  . .. .  . .. .  . .. .  . .. .  . .. .  . .. .  . .. .  . .. .  . .. .  . .. .  . .. .  . .. .  . .. .  . .. .  . .. .  . .. .  . .. .  . .. .  . .. .  . ..",
".   .. ..   .. ..   .. ..   .. ..   .. ..   .. ..   .. ..   .. ..   .. ..   .. ..   .. ..   .. ..   .. ..   .. ..   .. ..   .. ..   .. ..   .. ..   .. ..   .. ..   .. ..   .. ..   .. ..   .. ..   .. ..   .. ..   .. ..   .. ..   .. ..   .. ..   .. ..   .. ..   .. ..   .. ..   .. ..   .. ..   .. ..   .. ..   .. ..   .. ..   .. ..   .. ..   .. ..   .. ..   .. ..   .. ..   .. ..   .. ..   .. ..   .. ..   .. ..   .. ..   .. ..   .. ..   .. ..   .. ..   .. ..   .. ..   .. ..   .. ..   .. ..   .. ..   .. ..   .. ..   .. ..   .. ..   .. ..   .. ..   .. ..   .. ..   .. ..   .. ..   .. ..   .. ..   .. ..   .. ..   .. ..   .. ..   .. ..   .. ..   .. ..   .. ..   .. ..   .. ..   .. ..   .. ..   .. ..   .. ..   .. ..   .. ..   .. ..   .. ..   .. ..   .. ..   .. ..   .. ..   .. ..   .. ..   .. ..   .. ..   .. ..   .. ..   .. ..   .. ..   .. ..   .. ..   .. ..   .. ..   .. ..   .. ..   .. ..   .. ..   .. ..   .. ..   .. ..   .. ..   .. ..   .. ..   .. ..   .. ..   .. ..   .. ..   .. ..   .. ..   .. ..   .. ..   .. ..   .. .",
". .  .. . .  .. . .  .. . .  .. . .  .. . .  .. . .  .. . .  .. . .  .. . .  .. . .  .. . .  .. . .  .. . .  .. . .  .. . .  .. . .  .. . .  .. . .  .. . .  .. . .  .. . .  .. . .  .. . .  .. . .  .. . .  .. . .  .. . .  .. . .  .. . .  .. . .  .. . .  .. . .  .. . .  .. . .  .. . .  .. . .  .. . .  .. . .  .. . .  .. . .  .. . .  .. . .  .. . .  .. . .  .. . .  .. . .  .. . .  .. . .  .. . .  .. . .  .. . .  .. . .  .. . .  .. . .  .. . .  .. . .  .. . .  .. . .  .. . .  .. . .  .. . .  .. . .  .. . .  .. . .  .. . .  .. . .  .. . .  .. . .  .. . .  .. . .  .. . .  .. . .  .. . .  .. . .  .. . .  .. . .  .. . .  .. . .  .. . .  .. . .  .. . .  .. . .  .. . .  .. . .  .. . .  .. . .  .. . .  .. . .  .. . .  .. . .  .. . .  .. . .  .. . .  .. . .  .. . .  .. . .  .. . .  .. . .  .. . .  .. . .  .. . .  .. . .  .. . .  .. . .  .. . .  .. . .  .. . .  .. . .  .. . .  .. . .  .. . .  .. . .  .. . .  .. . .  .. . .  .. . .  .. . .  .. . .  .. . .  .. . .  .. . .  .. . .  .. . .  .. . .  .. . .  .. . .  .. . .  .. ",
".. .  . .. .  . .. .  . .. .  . .. .  . .. .  . .. .  . .. .  . .. .  . .. .  . .. .  . .. .  . .. .  . .. .  . .. .  . .. .  . .. .  . .. .  . .. .  . .. .  . .. .  . .. .  . .. .  . .. .  . .. .  . .. .  . .. .  . .. .  . .. .  . .. .  . .. .  . .. .  . .. .  . .. .  . .. .  . .. .  . .. .  . .. .  . .. .  . .. .  . .. .  . .. .  . .. .  . .. .  . .. .  . .. .  . .. .  . .. .  . .. .  . .. .  . .. .  . .. .  . .. .  . .. .  . .. .  . .. .  . .. .  . .. .  . .. .  . .. .  . .. .  . .. .  . .. .  . .. .  . .. .  . .. .  . .. .  . .. .  . .. .  . .. .  . .. .  . .. .  . .. .  . .. .  . .. .  . .. .  . .. .  . .. .  . .. .  . .. .  . .. .  . .. .  . .. .  . .. .  . .. .  . .. .  . .. .  . .. .  . .. .  . .. .  . .. .  . .. .  . .. .  . .. .  . .. .  . .. .  . .. .  . .. .  . .. .  . .. .  . .. .  . .. .  . .. .  . .. .  . .. .  . .. .  . .. .  . .. .  . .. .  . .. .  . .. .  . .. .  . .. .  . .. .  . .. .  . .. .  . .. .  . .. .  . .. .  . .. .  . .. .  . .. .  . .. .  . .. .  . .. .  . .. .  . .. .  . .. .  . ",
" ..   .. ..   .. ..   .. ..   .. ..   .. ..   .. ..   .. ..   .. ..   .. ..   .. ..   .. ..   .. ..   .. ..   .. ..   .. ..   .. ..   .. ..   .. ..   .. ..   .. ..   .. ..   .. ..   .. ..   .. ..   .. ..   .. ..   .. ..   .. ..   .. ..   .. ..   .. ..   .. ..   .. ..   .. ..   .. ..   .. ..   .. ..   .. ..   .. ..   .. ..   .. ..   .. ..   .. ..   .. ..   .. ..   .. ..   .. ..   .. ..   .. ..   .. ..   .. ..   .. ..   .. ..   .. ..   .. ..   .. ..   .. ..   .. ..   .. ..   .. ..   .. ..   .. ..   .. ..   .. ..   .. ..   .. ..   .. ..   .. ..   .. ..   .. ..   .. ..   .. ..   .. ..   .. ..   .. ..   .. ..   .. ..   .. ..   .. ..   .. ..   .. ..   .. ..   .. ..   .. ..   .. ..   .. ..   .. ..   .. ..   .. ..   .. ..   .. ..   .. ..   .. ..   .. ..   .. ..   .. ..   .. ..   .. ..   .. ..   .. ..   .. ..   .. ..   .. ..   .. ..   .. ..   .. ..   .. ..   .. ..   .. ..   .. ..   .. ..   .. ..   .. ..   .. ..   .. ..   .. ..   .. ..   .. ..   .. ..   .. ..   .. ..   .. ..   .. ..   .. ..   .. ..   .. ..   .. ..   ..",
". . .  .. . .  .. . .  .. . .  .. . .  .. . .  .. . .  .. . .  .. . .  .. . .  .. . .  .. . .  .. . .  .. . .  .. . .  .. . .  .. . .  .. . .  .. . .  .. . .  .. . .  .. . .  .. . .  .. . .  .. . .  .. . .  .. . .  .. . .  .. . .  .. . .  .. . .  .. . .  .. . .  .. . .  .. . .  .. . .  .. . .  .. . .  .. . .  .. . .  .. . .  .. . .  .. . .  .. . .  .. . .  .. . .  .. . .  .. . .  .. . .  .. . .  .. . .  .. . .  .. . .  .. . .  .. . .  .. . .  .. . .  .. . .  .. . .  .. . .  .. . .  .. . .  .. . .  .. . .  .. . .  .. . .  .. . .  .. . .  .. . .  .. . .  .. . .  .. . .  .. . .  .. . .  .. . .  .. . .  .. . .  .. . .  .. . .  .. . .  .. . .  .. . .  .. . .  .. . .  .. . .  .. . .  .. . .  .. . .  .. . .  .. . .  .. . .  .. . .  .. . .  .. . .  .. . .  .. . .  .. . .  .. . .  .. . .  .. . .  .. . .  .. . .  .. . .  .. . .  .. . .  .. . .  .. . .  .. . .  .. . .  .. . .  .. . .  .. . .  .. . .  .. . .  .. . .  .. . .  .. . .  .. . .  .. . .  .. . .  .. . .  .. . .  .. . .  .. . .  .. . .  .. . .  .. . .  .. . .  .",
". .. .  . .. .  . .. .  . .. .  . .. .  . .. .  . .. .  . .. .  . .. .  . .. .  . .. .  . .. .  . .. .  . .. .  . .. .  . .. .  . .. .  . .. .  . .. .  . .. .  . .. .  . .. .  . .. .  . .. .  . .. .  . .. .  . .. .  . .. .  . .. .  . .. .  . .. .  . .. .  . .. .  . .. .  . .. .  . .. .  . .. .  . .. .  . .. .  . .. .  . .. .  . .. .  . .. .  . .. .  . .. .  . .. .  . .. .  . .. .  . .. .  . .. .  . .. .  . .. .  . .. .  . .. .  . .. .  . .. .  . .. .  . .. .  . .. .  . .. .  . .. .  . .. .  . .. .  . .. .  . .. .  . .. .  . .. .  . .. .  . .. .  . .. .  . .. .  . .. .  . .. .  . .. .  . .. .  . .. .  . .. .  . .. .  . .. .  . .. .  . .. .  . .. .  . .. .  . .. .  . .. .  . .. .  . .. .  . .. .  . .. .  . .. .  . .. .  . .. .  . .. .  . .. .  . .. .  . .. .  . .. .  . .. .  . .. .  . .. .  . .. .  . .. .  . .. .  . .. .  . .. .  . .. .  . .. .  . .. .  . .. .  . .. .  . .. .  . .. .  . .. .  . .. .  . .. .  . .. .  . .. .  . .. .  . .. .  . .. .  . .. .  . .. .  . .. .  . .. .  . .. .  . .. .  . .. .  . .. .  ",
".. ..   .. ..   .. ..   .. ..   .. ..   .. ..   .. ..   .. ..   .. ..   .. ..   .. ..   .. ..   .. ..   .. ..   .. ..   .. ..   .. ..   .. ..   .. ..   .. ..   .. ..   .. ..   .. ..   .. ..   .. ..   .. ..   .. ..   .. ..   .. ..   .. ..   .. ..   .. ..   .. ..   .. ..   .. ..   .. ..   .. ..   .. ..   .. ..   .. ..   .. ..   .. ..   .. ..   .. ..   .. ..   .. ..   .. ..   .. ..   .. ..   .. ..   .. ..   .. ..   .. ..   .. ..   .. ..   .. ..   .. ..   .. ..   .. ..   .. ..   .. ..   .. ..   .. ..   .. ..   .. ..   .. ..   .. ..   .. ..   .. ..   .. ..   .. ..   .. ..   .. ..   .. ..   .. ..   .. ..   .. ..   .. ..   .. ..   .. ..   .. ..   .. ..   .. ..   .. ..   .. ..   .. ..   .. ..   .. ..   .. ..   .. ..   .. ..   .. ..   .. ..   .. ..   .. ..   .. ..   .. ..   .. ..   .. ..   .. ..   .. ..   .. ..   .. ..   .. ..   .. ..   .. ..   .. ..   .. ..   .. ..   .. ..   .. ..   .. ..   .. ..   .. ..   .. ..   .. ..   .. ..   .. ..   .. ..   .. ..   .. ..   .. ..   .. ..   .. ..   .. ..   .. ..   .. ..   .. ..   ",
" .  . .. .  . .. .  . .. .  . .. .  . .. .  . .. .  . .. .  . .. .  . .. .  . .. .  . .. .  . .. .  . .. .  . .. .  . .. .  . .. .  . .. .  . .. .  . .. .  . .. .  . .. .  . .. .  . .. .  . .. .  . .. .  . .. .  . .. .  . .. .  . .. .  . .. .  . .. .  . .. .  . .. .  . .. .  . .. .  . .. .  . .. .  . .. .  . .. .  . .. .  . .. .  . .. .  . .. .  . .. .  . .. .  . .. .  . .. .  . .. .  . .. .  . .. .  . .. .  . .. .  . .. .  . .. .  . .. .  . .. .  . .. .  . .. .  . .. .  . .. .  . .. .  . .. .  . .. .  . .. .  . .. .  . .. .  . .. .  . .. .  . .. .  . .. .  . .. .  . .. .  . .. .  . .. .  . .. .  . .. .  . .. .  . .. .  . .. .  . .. .  . .. .  . .. .  . .. .  . .. .  . .. .  . .. .  . .. .  . .. .  . .. .  . .. .  . .. .  . .. .  . .. .  . .. .  . .. .  . .. .  . .. .  . .. .  . .. .  . .. .  . .. .  . .. .  . .. .  . .. .  . .. .  . .. .  . .. .  . .. .  . .. .  . .. .  . .. .  . .. .  . .. .  . .. .  . .. .  . .. .  . .. .  . .. .  . .. .  . .. .  . .. .  . .. .  . .. .  . .. .  . .. .  . .. .  . .. .  . ..",
".   .. ..   .. ..   .. ..   .. ..   .. ..   .. ..   .. ..   .. ..   .. ..   .. ..   .. ..   .. ..   .. ..   .. ..   .. ..   .. ..   .. ..   .. ..   .. ..   .. ..   .. ..   .. ..   .. ..   .. ..   .. ..   .. ..   .. ..   .. ..   .. ..   .. ..   .. ..   .. ..   .. ..   .. ..   .. ..   .. ..   .. ..   .. ..   .. ..   .. ..   .. ..   .. ..   .. ..   .. ..   .. ..   .. ..   .. ..   .. ..   .. ..   .. ..   .. ..   .. ..   .. ..   .. ..   .. ..   .. ..   .. ..   .. ..   .. ..   .. ..   .. ..   .. ..   .. ..   .. ..   .. ..   .. ..   .. ..   .. ..   .. ..   .. ..   .. ..   .. ..   .. ..   .. ..   .. ..   .. ..   .. ..   .. ..   .. ..   .. ..   .. ..   .. ..   .. ..   .. ..   .. ..   .. ..   .. ..   .. ..   .. ..   .. ..   .. ..   .. ..   .. ..   .. ..   .. ..   .. ..   .. ..   .. ..   .. ..   .. ..   .. ..   .. ..   .. ..   .. ..   .. ..   .. ..   .. ..   .. ..   .. ..   .. ..   .. ..   .. ..   .. ..   .. ..   .. ..   .. ..   .. ..   .. ..   .. ..   .. ..   .. ..   .. ..   .. ..   .. ..   .. ..   .. ..   .. ..   .. .",
". .  .. . .  .. . .  .. . .  .. . .  .. . .  .. . .  .. . .  .. . .  .. . .  .. . .  .. . .  .. . .  .. . .  .. . .  .. . .  .. . .  .. . .  .. . .  .. . .  .. . .  .. . .  .. . .  .. . .  .. . .  .. . .  .. . .  .. . .  .. . .  .. . .  .. . .  .. . .  .. . .  .. . .  .. . .  .. . .  .. . .  .. . .  .. . .  .. . .  .. . .  .. . .  .. . .  .. . .  .. . .  .. . .  .. . .  .. . .  .. . .  .. . .  .. . .  .. . .  .. . .  .. . .  .. . .  .. . .  .. . .  .. . .  .. . .  .. . .  .. . .  .. . .  .. . .  .. . .  .. . .  .. . .  .. . .  .. . .  .. . .  .. . .  .. . .  .. . .  .. . .  .. . .  .. . .  .. . .  .. . .  .. . .  .. . .  .. . .  .. . .  .. . .  .. . .  .. . .  .. . .  .. . .  .. . .  .. . .  .. . .  .. . .  .. . .  .. . .  .. . .  .. . .  .. . .  .. . .  .. . .  .. . .  .. . .  .. . .  .. . .  .. . .  .. . .  .. . .  .. . .  .. . .  .. . .  .. . .  .. . .  .. . .  .. . .  .. . .  .. . .  .. . .  .. . .  .. . .  .. . .  .. . .  .. . .  .. . .  .. . .  .. . .  .. . .  .. . .  .. . .  .. . .  .. . .  .. . .  .. ",
".. .  . .. .  . .. .  . .. .  . .. .  . .. .  . .. .  . .. .  . .. .  . .. .  . .. .  . .. .  . .. .  . .. .  . .. .  . .. .  . .. .  . .. .  . .. .  . .. .  . .. .  . .. .  . .. .  . .. .  . .. .  . .. .  . .. .  . .. .  . .. .  . .. .  . .. .  . .. .  . .. .  . .. .  . .. .  . .. .  . .. .  . .. .  . .. .  . .. .  . .. .  . .. .  . .. .  . .. .  . .. .  . .. .  . .. .  . .. .  . .. .  . .. .  . .. .  . .. .  . .. .  . .. .  . .. .  . .. .  . .. .  . .. .  . .. .  . .. .  . .. .  . .. .  . .. .  . .. .  . .. .  . .. .  . .. .  . .. .  . .. .  . .. .  . .. .  . .. .  . .. .  . .. .  . .. .  . .. .  . .. .  . .. .  . .. .  . .. .  . .. .  . .. .  . .. .  . .. .  . .. .  . .. .  . .. .  . .. .  . .. .  . .. .  . .. .  . .. .  . .. .  . .. .  . .. .  . .. .  . .. .  . .. .  . .. .  . .. .  . .. .  . .. .  . .. .  . .. .  . .. .  . .. .  . .. .  . .. .  . .. .  . .. .  . .. .  . .. .  . .. .  . .. .  . .. .  . .. .  . .. .  . .. .  . .. .  . .. .  . .. .  . .. .  . .. .  . .. .  . .. .  . .. .  . .. .  . .. .  . ",
" ..   .  ..   .  ..   .  ..   .  ..   .  ..   .  ..   .  ..   .  ..   .  ..   .  ..   .  ..   .  ..   .  ..   .  ..   .  ..   .  ..   .  ..   .  ..   .  ..   .  ..   .  ..   .  ..   .  ..   .  ..   .  ..   .  ..   .  ..   .  ..   .  ..   .  ..   .  ..   .  ..   .  ..   .  ..   .  ..   .  ..   .  ..   .  ..   .  ..   .  ..   .  ..   .  ..   .  ..   .  ..   .  ..   .  ..   .  ..   .  ..   .  ..   .  ..   .  ..   .  ..   .  ..   .  ..   .  ..   .  ..   .  ..   .  ..   .  ..   .  ..   .  ..   .  ..   .  ..   .  ..   .  ..   .  ..   .  ..   .  ..   .  ..   .  ..   .  ..   .  ..   .  ..   .  ..   .  ..   .  ..   .  ..   .  ..   .  ..   .  ..   .  ..   .  ..   .  ..   .  ..   .  ..   .  ..   .  ..   .  ..   .  ..   .  ..   .  ..   .  ..   .  ..   .  ..   .  ..   .  ..   .  ..   .  ..   .  ..   .  ..   .  ..   .  ..   .  ..   .  ..   .  ..   .  ..   .  ..   .  ..   .  ..   .  ..   .  ..   .  ..   .  ..   .  ..   .  ..   .  ..   .  ..   .  ..   .  ..   .  ..   .  ..   .  ..   .  ..   .  ..   .  ..   .  ..   .  ..   . ",
"  . .  .  . .  .  . .  .  . .  .  . .  .  . .  .  . .  .  . .  .  . .  .  . .  .  . .  .  . .  .  . .  .  . .  .  . .  .  . .  .  . .  .  . .  .  . .  .  . .  .  . .  .  . .  .  . .  .  . .  .  . .  .  . .  .  . .  .  . .  .  . .  .  . .  .  . .  .  . .  .  . .  .  . .  .  . .  .  . .  .  . .  .  . .  .  . .  .  . .  .  . .  .  . .  .  . .  .  . .  .  . .  .  . .  .  . .  .  . .  .  . .  .  . .  .  . .  .  . .  .  . .  .  . .  .  . .  .  . .  .  . .  .  . .  .  . .  .  . .  .  . .  .  . .  .  . .  .  . .  .  . .  .  . .  .  . .  .  . .  .  . .  .  . .  .  . .  .  . .  .  . .  .  . .  .  . .  .  . .  .  . .  .  . .  .  . .  .  . .  .  . .  .  . .  .  . .  .  . .  .  . .  .  . .  .  . .  .  . .  .  . .  .  . .  .  . .  .  . .  .  . .  .  . .  .  . .  .  . .  .  . .  .  . .  .  . .  .  . .  .  . .  .  . .  .  . .  .  . .  .  . .  .  . .  .  . .  .  . .  .  . .  .  . .  .  . .  .  . .  .  . .  .  . .  .  . .  .  . .  .  . .  .  . .  .  . .  .  . .  .  . .  .  . .  .  . .  .  . .  .  . .  .  . .  .  . .  .  . .  .",
"  .. .    .. .    .. .    .. .    .. .    .. .    .. .    .. .    .. .    .. .    .. .    .. .    .. .    .. .    .. .    .. .    .. .    .. .    .. .    .. .    .. .    .. .    .. .    .. .    .. .    .. .    .. .    .. .    .. .    .. .    .. .    .. .    .. .    .. .    .. .    .. .    .. .    .. .    .. .    .. .    .. .    .. .    .. .    .. .    .. .    .. .    .. .    .. .    .. .    .. .    .. .    .. .    .. .    .. .    .. .    .. .    .. .    .. .    .. .    .. .    .. .    .. .    .. .    .. .    .. .    .. .    .. .    .. .    .. .    .. .    .. .    .. .    .. .    .. .    .. .    .. .    .. .    .. .    .. .    .. .    .. .    .. .    .. .    .. .    .. .    .. .    .. .    .. .    .. .    .. .    .. .    .. .    .. .    .. .    .. .    .. .    .. .    .. .    .. .    .. .    .. .    .. .    .. .    .. .    .. .    .. .    .. .    .. .    .. .    .. .    .. .    .. .    .. .    .. .    .. .    .. .    .. .    .. .    .. .    .. .    .. .    .. .    .. .    .. .    .. .    .. .    .. .    .. .  ",
".  ..   .  ..   .  ..   .  ..   .  ..   .  ..   .  ..   .  ..   .  ..   .  ..   .  ..   .  ..   .  ..   .  ..   .  ..   .  ..   .  ..   .  ..   .  ..   .  ..   .  ..   .  ..   .  ..   .  ..   .  ..   .  ..   .  ..   .  ..   .  ..   .  ..   .  ..   .  ..   .  ..   .  ..   .  ..   .  ..   .  ..   .  ..   .  ..   .  ..   .  ..   .  ..   .  ..   .  ..   .  ..   .  ..   .  ..   .  ..   .  ..   .  ..   .  ..   .  ..   .  ..   .  ..   .  ..   .  ..   .  ..   .  ..   .  ..   .  ..   .  ..   .  ..   .  ..   .  ..   .  ..   .  ..   .  ..   .  ..   .  ..   .  ..   .  ..   .  ..   .  ..   .  ..   .  ..   .  ..   .  ..   .  ..   .  ..   .  ..   .  ..   .  ..   .  ..   .  ..   .  ..   .  ..   .  ..   .  ..   .  ..   .  ..   .  ..   .  ..   .  ..   .  ..   .  ..   .  ..   .  ..   .  ..   .  ..   .  ..   .  ..   .  ..   .  ..   .  ..   .  ..   .  ..   .  ..   .  ..   .  ..   .  ..   .  ..   .  ..   .  ..   .  ..   .  ..   .  ..   .  ..   .  ..   .  ..   .  ..   .  ..   .  ..   .  ..   .  ..   .  ..   .  ..   .  ..   .  ..   ",
" .  . .. .  . .. .  . .. .  . .. .  . .. .  . .. .  . .. .  . .. .  . .. .  . .. .  . .. .  . .. .  . .. .  . .. .  . .. .  . .. .  . .. .  . .. .  . .. .  . .. .  . .. .  . .. .  . .. .  . .. .  . .. .  . .. .  . .. .  . .. .  . .. .  . .. .  . .. .  . .. .  . .. .  . .. .  . .. .  . .. .  . .. .  . .. .  . .. .  . .. .  . .. .  . .. .  . .. .  . .. .  . .. .  . .. .  . .. .  . .. .  . .. .  . .. .  . .. .  . .. .  . .. .  . .. .  . .. .  . .. .  . .. .  . .. .  . .. .  . .. .  . .. .  . .. .  . .. .  . .. .  . .. .  . .. .  . .. .  . .. .  . .. .  . .. .  . .. .  . .. .  . .. .  . .. .  . .. .  . .. .  . .. .  . .. .  . .. .  . .. .  . .. .  . .. .  . .. .  . .. .  . .. .  . .. .  . .. .  . .. .  . .. .  . .. .  . .. .  . .. .  . .. .  . .. .  . .. .  . .. .  . .. .  . .. .  . .. .  . .. .  . .. .  . .. .  . .. .  . .. .  . .. .  . .. .  . .. .  . .. .  . .. .  . .. .  . .. .  . .. .  . .. .  . .. .  . .. .  . .. .  . .. .  . .. .  . .. .  . .. .  . .. .  . .. .  . .. .  . .. .  . .. .  . .. .  . .. .  . ..",
".   .. ..   .. ..   .. ..   .. ..   .. ..   .. ..   .. ..   .. ..   .. ..   .. ..   .. ..   .. ..   .. ..   .. ..   .. ..   .. ..   .. ..   .. ..   .. ..   .. ..   .. ..   .. ..   .. ..   .. ..   .. ..   .. ..   .. ..   .. ..   .. ..   .. ..   .. ..   .. ..   .. ..   .. ..   .. ..   .. ..   .. ..   .. ..   .. ..   .. ..   .. ..   .. ..   .. ..   .. ..   .. ..   .. ..   .. ..   .. ..   .. ..   .. ..   .. ..   .. ..   .. ..   .. ..   .. ..   .. ..   .. ..   .. ..   .. ..   .. ..   .. ..   .. ..   .. ..   .. ..   .. ..   .. ..   .. ..   .. ..   .. ..   .. ..   .. ..   .. ..   .. ..   .. ..   .. ..   .. ..   .. ..   .. ..   .. ..   .. ..   .. ..   .. ..   .. ..   .. ..   .. ..   .. ..   .. ..   .. ..   .. ..   .. ..   .. ..   .. ..   .. ..   .. ..   .. ..   .. ..   .. ..   .. ..   .. ..   .. ..   .. ..   .. ..   .. ..   .. ..   .. ..   .. ..   .. ..   .. ..   .. ..   .. ..   .. ..   .. ..   .. ..   .. ..   .. ..   .. ..   .. ..   .. ..   .. ..   .. ..   .. ..   .. ..   .. ..   .. ..   .. ..   .. ..   .. ..   .. .",
". .  .. . .  .. . .  .. . .  .. . .  .. . .  .. . .  .. . .  .. . .  .. . .  .. . .  .. . .  .. . .  .. . .  .. . .  .. . .  .. . .  .. . .  .. . .  .. . .  .. . .  .. . .  .. . .  .. . .  .. . .  .. . .  .. . .  .. . .  .. . .  .. . .  .. . .  .. . .  .. . .  .. . .  .. . .  .. . .  .. . .  .. . .  .. . .  .. . .  .. . .  .. . .  .. . .  .. . .  .. . .  .. . .  .. . .  .. . .  .. . .  .. . .  .. . .  .. . .  .. . .  .. . .  .. . .  .. . .  .. . .  .. . .  .. . .  .. . .  .. . .  .. . .  .. . .  .. . .  .. . .  .. . .  .. . .  .. . .  .. . .  .. . .  .. . .  .. . .  .. . .  .. . .  .. . .  .. . .  .. . .  .. . .  .. . .  .. . .  .. . .  .. . .  .. . .  .. . .  .. . .  .. . .  .. . .  .. . .  .. . .  .. . .  .. . .  .. . .  .. . .  .. . .  .. . .  .. . .  .. . .  .. . .  .. . .  .. . .  .. . .  .. . .  .. . .  .. . .  .. . .  .. . .  .. . .  .. . .  .. . .  .. . .  .. . .  .. . .  .. . .  .. . .  .. . .  .. . .  .. . .  .. . .  .. . .  .. . .  .. . .  .. . .  .. . .  .. . .  .. . .  .. . .  .. . .  .. . .  .. ",
".. .  . .. .  . .. .  . .. .  . .. .  . .. .  . .. .  . .. .  . .. .  . .. .  . .. .  . .. .  . .. .  . .. .  . .. .  . .. .  . .. .  . .. .  . .. .  . .. .  . .. .  . .. .  . .. .  . .. .  . .. .  . .. .  . .. .  . .. .  . .. .  . .. .  . .. .  . .. .  . .. .  . .. .  . .. .  . .. .  . .. .  . .. .  . .. .  . .. .  . .. .  . .. .  . .. .  . .. .  . .. .  . .. .  . .. .  . .. .  . .. .  . .. .  . .. .  . .. .  . .. .  . .. .  . .. .  . .. .  . .. .  . .. .  . .. .  . .. .  . .. .  . .. .  . .. .  . .. .  . .. .  . .. .  . .. .  . .. .  . .. .  . .. .  . .. .  . .. .  . .. .  . .. .  . .. .  . .. .  . .. .  . .. .  . .. .  . .. .  . .. .  . .. .  . .. .  . .. .  . .. .  . .. .  . .. .  . .. .  . .. .  . .. .  . .. .  . .. .  . .. .  . .. .  . .. .  . .. .  . .. .  . .. .  . .. .  . .. .  . .. .  . .. .  . .. .  . .. .  . .. .  . .. .  . .. .  . .. .  . .. .  . .. .  . .. .  . .. .  . .. .  . .. .  . .. .  . .. .  . .. .  . .. .  . .. .  . .. .  . .. .  . .. .  . .. .  . .. .  . .. .  . .. .  . .. .  . .. .  . ",
" ..   .  ..   .  ..   .  ..   .  ..   .  ..   .  ..   .  ..   .  ..   .  ..   .  ..   .  ..   .  ..   .  ..   .  ..   .  ..   .  ..   .  ..   .  ..   .  ..   .  ..   .  ..   .  ..   .  ..   .  ..   .  ..   .  ..   .  ..   .  ..   .  ..   .  ..   .  ..   .  ..   .  ..   .  ..   .  ..   .  ..   .  ..   .  ..   .  ..   .  ..   .  ..   .  ..   .  ..   .  ..   .  ..   .  ..   .  ..   .  ..   .  ..   .  ..   .  ..   .  ..   .  ..   .  ..   .  ..   .  ..   .  ..   .  ..   .  ..   .  ..   .  ..   .  ..   .  ..   .  ..   .  ..   .  ..   .  ..   .  ..   .  ..   .  ..   .  ..   .  ..   .  ..   .  ..   .  ..   .  ..   .  ..   .  ..   .  ..   .  ..   .  ..   .  ..   .  ..   .  ..   .  ..   .  ..   .  ..   .  ..   .  ..   .  ..   .  ..   .  ..   .  ..   .  ..   .  ..   .  ..   .  ..   .  ..   .  ..   .  ..   .  ..   .  ..   .  ..   .  ..   .  ..   .  ..   .  ..   .  ..   .  ..   .  ..   .  ..   .  ..   .  ..   .  ..   .  ..   .  ..   .  ..   .  ..   .  ..   .  ..   .  ..   .  ..   .  ..   .  ..   .  ..   .  ..   .  ..   . ",
"  . .  .  . .  .  . .  .  . .  .  . .  .  . .  .  . .  .  . .  .  . .  .  . .  .  . .  .  . .  .  . .  .  . .  .  . .  .  . .  .  . .  .  . .  .  . .  .  . .  .  . .  .  . .  .  . .  .  . .  .  . .  .  . .  .  . .  .  . .  .  . .  .  . .  .  . .  .  . .  .  . .  .  . .  .  . .  .  . .  .  . .  .  . .  .  . .  .  . .  .  . .  .  . .  .  . .  .  . .  .  . .  .  . .  .  . .  .  . .  .  . .  .  . .  .  . .  .  . .  .  . .  .  . .  .  . .  .  . .  .  . .  .  . .  .  . .  .  . .  .  . .  .  . .  .  . .  .  . .  .  . .  .  . .  .  . .  .  . .  .  . .  .  . .  .  . .  .  . .  .  . .  .  . .  .  . .  .  . .  .  . .  .  . .  .  . .  .  . .  .  . .  .  . .  .  . .  .  . .  .  . .  .  . .  .  . .  .  . .  .  . .  .  . .  .  . .  .  . .  .  . .  .  . .  .  . .  .  . .  .  . .  .  . .  .  . .  .  . .  .  . .  .  . .  .  . .  .  . .  .  . .  .  . .  .  . .  .  . .  .  . .  .  . .  .  . .  .  . .  .  . .  .  . .  .  . .  .  . .  .  . .  .  . .  .  . .  .  . .  .  . .  .  . .  .  . .  .  . .  .  . .  .  . .  .  . .  .  . .  .",
"  .. .    .. .    .. .    .. .    .. .    .. .    .. .    .. .    .. .    .. .    .. .    .. .    .. .    .. .    .. .    .. .    .. .    .. .    .. .    .. .    .. .    .. .    .. .    .. .    .. .    .. .    .. .    .. .    .. .    .. .    .. .    .. .    .. .    .. .    .. .    .. .    .. .    .. .    .. .    .. .    .. .    .. .    .. .    .. .    .. .    .. .    .. .    .. .    .. .    .. .    .. .    .. .    .. .    .. .    .. .    .. .    .. .    .. .    .. .    .. .    .. .    .. .    .. .    .. .    .. .    .. .    .. .    .. .    .. .    .. .    .. .    .. .    .. .    .. .    .. .    .. .    .. .    .. .    .. .    .. .    .. .    .. .    .. .    .. .    .. .    .. .    .. .    .. .    .. .    .. .    .. .    .. .    .. .    .. .    .. .    .. .    .. .    .. .    .. .    .. .    .. .    .. .    .. .    .. .    .. .    .. .    .. .    .. .    .. .    .. .    .. .    .. .    .. .    .. .    .. .    .. .    .. .    .. .    .. .    .. .    .. .    .. .    .. .    .. .    .. .    .. .    .. .    .. .  ",
".  ..   .  ..   .  ..   .  ..   .  ..   .  ..   .  ..   .  ..   .  ..   .  ..   .  ..   .  ..   .  ..   .  ..   .  ..   .  ..   .  ..   .  ..   .  ..   .  ..   .  ..   .  ..   .  ..   .  ..   .  ..   .  ..   .  ..   .  ..   .  ..   .  ..   .  ..   .  ..   .  ..   .  ..   .  ..   .  ..   .  ..   .  ..   .  ..   .  ..   .  ..   .  ..   .  ..   .  ..   .  ..   .  ..   .  ..   .  ..   .  ..   .  ..   .  ..   .  ..   .  ..   .  ..   .  ..   .  ..   .  ..   .  ..   .  ..   .  ..   .  ..   .  ..   .  ..   .  ..   .  ..   .  ..   .  ..   .  ..   .  ..   .  ..   .  ..   .  ..   .  ..   .  ..   .  ..   .  ..   .  ..   .  ..   .  ..   .  ..   .  ..   .  ..   .  ..   .  ..   .  ..   .  ..   .  ..   .  ..   .  ..   .  ..   .  ..   .  ..   .  ..   .  ..   .  ..   .  ..   .  ..   .  ..   .  ..   .  ..   .  ..   .  ..   .  ..   .  ..   .  ..   .  ..   .  ..   .  ..   .  ..   .  ..   .  ..   .  ..   .  ..   .  ..   .  ..   .  ..   .  ..   .  ..   .  ..   .  ..   .  ..   .  ..   .  ..   .  ..   .  ..   .  ..   .  ..   .  ..   ",
" .  . .. .  . .. .  . .. .  . .. .  . .. .  . .. .  . .. .  . .. .  . .. .  . .. .  . .. .  . .. .  . .. .  . .. .  . .. .  . .. .  . .. .  . .. .  . .. .  . .. .  . .. .  . .. .  . .. .  . .. .  . .. .  . .. .  . .. .  . .. .  . .. .  . .. .  . .. .  . .. .  . .. .  . .. .  . .. .  . .. .  . .. .  . .. .  . .. .  . .. .  . .. .  . .. .  . .. .  . .. .  . .. .  . .. .  . .. .  . .. .  . .. .  . .. .  . .. .  . .. .  . .. .  . .. .  . .. .  . .. .  . .. .  . .. .  . .. .  . .. .  . .. .  . .. .  . .. .  . .. .  . .. .  . .. .  . .. .  . .. .  . .. .  . .. .  . .. .  . .. .  . .. .  . .. .  . .. .  . .. .  . .. .  . .. .  . .. .  . .. .  . .. .  . .. .  . .. .  . .. .  . .. .  . .. .  . .. .  . .. .  . .. .  . .. .  . .. .  . .. .  . .. .  . .. .  . .. .  . .. .  . .. .  . .. .  . .. .  . .. .  . .. .  . .. .  . .. .  . .. .  . .. .  . .. .  . .. .  . .. .  . .. .  . .. .  . .. .  . .. .  . .. .  . .. .  . .. .  . .. .  . .. .  . .. .  . .. .  . .. .  . .. .  . .. .  . .. .  . .. .  . .. .  . .. .  . .. .  . ..",
".   .. ..   .. ..   .. ..   .. ..   .. ..   .. ..   .. ..   .. ..   .. ..   .. ..   .. ..   .. ..   .. ..   .. ..   .. ..   .. ..   .. ..   .. ..   .. ..   .. ..   .. ..   .. ..   .. ..   .. ..   .. ..   .. ..   .. ..   .. ..   .. ..   .. ..   .. ..   .. ..   .. ..   .. ..   .. ..   .. ..   .. ..   .. ..   .. ..   .. ..   .. ..   .. ..   .. ..   .. ..   .. ..   .. ..   .. ..   .. ..   .. ..   .. ..   .. ..   .. ..   .. ..   .. ..   .. ..   .. ..   .. ..   .. ..   .. ..   .. ..   .. ..   .. ..   .. ..   .. ..   .. ..   .. ..   .. ..   .. ..   .. ..   .. ..   .. ..   .. ..   .. ..   .. ..   .. ..   .. ..   .. ..   .. ..   .. ..   .. ..   .. ..   .. ..   .. ..   .. ..   .. ..   .. ..   .. ..   .. ..   .. ..   .. ..   .. ..   .. ..   .. ..   .. ..   .. ..   .. ..   .. ..   .. ..   .. ..   .. ..   .. ..   .. ..   .. ..   .. ..   .. ..   .. ..   .. ..   .. ..   .. ..   .. ..   .. ..   .. ..   .. ..   .. ..   .. ..   .. ..   .. ..   .. ..   .. ..   .. ..   .. ..   .. ..   .. ..   .. ..   .. ..   .. ..   .. ..   .. .",
". .  .. . .  .. . .  .. . .  .. . .  .. . .  .. . .  .. . .  .. . .  .. . .  .. . .  .. . .  .. . .  .. . .  .. . .  .. . .  .. . .  .. . .  .. . .  .. . .  .. . .  .. . .  .. . .  .. . .  .. . .  .. . .  .. . .  .. . .  .. . .  .. . .  .. . .  .. . .  .. . .  .. . .  .. . .  .. . .  .. . .  .. . .  .. . .  .. . .  .. . .  .. . .  .. . .  .. . .  .. . .  .. . .  .. . .  .. . .  .. . .  .. . .  .. . .  .. . .  .. . .  .. . .  .. . .  .. . .  .. . .  .. . .  .. . .  .. . .  .. . .  .. . .  .. . .  .. . .  .. . .  .. . .  .. . .  .. . .  .. . .  .. . .  .. . .  .. . .  .. . .  .. . .  .. . .  .. . .  .. . .  .. . .  .. . .  .. . .  .. . .  .. . .  .. . .  .. . .  .. . .  .. . .  .. . .  .. . .  .. . .  .. . .  .. . .  .. . .  .. . .  .. . .  .. . .  .. . .  .. . .  .. . .  .. . .  .. . .  .. . .  .. . .  .. . .  .. . .  .. . .  .. . .  .. . .  .. . .  .. . .  .. . .  .. . .  .. . .  .. . .  .. . .  .. . .  .. . .  .. . .  .. . .  .. . .  .. . .  .. . .  .. . .  .. . .  .. . .  .. . .  .. . .  .. . .  .. . .  .. ",
".. .  . .. .  . .. .  . .. .  . .. .  . .. .  . .. .  . .. .  . .. .  . .. .  . .. .  . .. .  . .. .  . .. .  . .. .  . .. .  . .. .  . .. .  . .. .  . .. .  . .. .  . .. .  . .. .  . .. .  . .. .  . .. .  . .. .  . .. .  . .. .  . .. .  . .. .  . .. .  . .. .  . .. .  . .. .  . .. .  . .. .  . .. .  . .. .  . .. .  . .. .  . .. .  . .. .  . .. .  . .. .  . .. .  . .. .  . .. .  . .. .  . .. .  . .. .  . .. .  . .. .  . .. .  . .. .  . .. .  . .. .  . .. .  . .. .  . .. .  . .. .  . .. .  . .. .  . .. .  . .. .  . .. .  . .. .  . .. .  . .. .  . .. .  . .. .  . .. .  . .. .  . .. .  . .. .  . .. .  . .. .  . .. .  . .. .  . .. .  . .. .  . .. .  . .. .  . .. .  . .. .  . .. .  . .. .  . .. .  . .. .  . .. .  . .. .  . .. .  . .. .  . .. .  . .. .  . .. .  . .. .  . .. .  . .. .  . .. .  . .. .  . .. .  . .. .  . .. .  . .. .  . .. .  . .. .  . .. .  . .. .  . .. .  . .. .  . .. .  . .. .  . .. .  . .. .  . .. .  . .. .  . .. .  . .. .  . .. .  . .. .  . .. .  . .. .  . .. .  . .. .  . .. .  . .. .  . .. .  . ",
" ..   .  ..   .  ..   .  ..   .  ..   .  ..   .  ..   .  ..   .  ..   .  ..   .  ..   .  ..   .  ..   .  ..   .  ..   .  ..   .  ..   .  ..   .  ..   .  ..   .  ..   .  ..   .  ..   .  ..   .  ..   .  ..   .  ..   .  ..   .  ..   .  ..   .  ..   .  ..   .  ..   .  ..   .  ..   .  ..   .  ..   .  ..   .  ..   .  ..   .  ..   .  ..   .  ..   .  ..   .  ..   .  ..   .  ..   .  ..   .  ..   .  ..   .  ..   .  ..   .  ..   .  ..   .  ..   .  ..   .  ..   .  ..   .  ..   .  ..   .  ..   .  ..   .  ..   .  ..   .  ..   .  ..   .  ..   .  ..   .  ..   .  ..   .  ..   .  ..   .  ..   .  ..   .  ..   .  ..   .  ..   .  ..   .  ..   .  ..   .  ..   .  ..   .  ..   .  ..   .  ..   .  ..   .  ..   .  ..   .  ..   .  ..   .  ..   .  ..   .  ..   .  ..   .  ..   .  ..   .  ..   .  ..   .  ..   .  ..   .  ..   .  ..   .  ..   .  ..   .  ..   .  ..   .  ..   .  ..   .  ..   .  ..   .  ..   .  ..   .  ..   .  ..   .  ..   .  ..   .  ..   .  ..   .  ..   .  ..   .  ..   .  ..   .  ..   .  ..   .  ..   .  ..   .  ..   .  ..   . ",
"  . .  .  . .  .  . .  .  . .  .  . .  .  . .  .  . .  .  . .  .  . .  .  . .  .  . .  .  . .  .  . .  .  . .  .  . .  .  . .  .  . .  .  . .  .  . .  .  . .  .  . .  .  . .  .  . .  .  . .  .  . .  .  . .  .  . .  .  . .  .  . .  .  . .  .  . .  .  . .  .  . .  .  . .  .  . .  .  . .  .  . .  .  . .  .  . .  .  . .  .  . .  .  . .  .  . .  .  . .  .  . .  .  . .  .  . .  .  . .  .  . .  .  . .  .  . .  .  . .  .  . .  .  . .  .  . .  .  . .  .  . .  .  . .  .  . .  .  . .  .  . .  .  . .  .  . .  .  . .  .  . .  .  . .  .  . .  .  . .  .  . .  .  . .  .  . .  .  . .  .  . .  .  . .  .  . .  .  . .  .  . .  .  . .  .  . .  .  . .  .  . .  .  . .  .  . .  .  . .  .  . .  .  . .  .  . .  .  . .  .  . .  .  . .  .  . .  .  . .  .  . .  .  . .  .  . .  .  . .  .  . .  .  . .  .  . .  .  . .  .  . .  .  . .  .  . .  .  . .  .  . .  .  . .  .  . .  .  . .  .  . .  .  . .  .  . .  .  . .  .  . .  .  . .  .  . .  .  . .  .  . .  .  . .  .  . .  .  . .  .  . .  .  . .  .  . .  .  . .  .  . .  .  . .  .  . .  .  . .  .",
"  .. .    .. .    .. .    .. .    .. .    .. .    .. .    .. .    .. .    .. .    .. .    .. .    .. .    .. .    .. .    .. .    .. .    .. .    .. .    .. .    .. .    .. .    .. .    .. .    .. .    .. .    .. .    .. .    .. .    .. .    .. .    .. .    .. .    .. .    .. .    .. .    .. .    .. .    .. .    .. .    .. .    .. .    .. .    .. .    .. .    .. .    .. .    .. .    .. .    .. .    .. .    .. .    .. .    .. .    .. .    .. .    .. .    .. .    .. .    .. .    .. .    .. .    .. .    .. .    .. .    .. .    .. .    .. .    .. .    .. .    .. .    .. .    .. .    .. .    .. .    .. .    .. .    .. .    .. .    .. .    .. .    .. .    .. .    .. .    .. .    .. .    .. .    .. .    .. .    .. .    .. .    .. .    .. .    .. .    .. .    .. .    .. .    .. .    .. .    .. .    .. .    .. .    .. .    .. .    .. .    .. .    .. .    .. .    .. .    .. .    .. .    .. .    .. .    .. .    .. .    .. .    .. .    .. .    .. .    .. .    .. .    .. .    .. .    .. .    .. .    .. .    .. .    .. .  ",
".  ..   .  ..   .  ..   .  ..   .  ..   .  ..   .  ..   .  ..   .  ..   .  ..   .  ..   .  ..   .  ..   .  ..   .  ..   .  ..   .  ..   .  ..   .  ..   .  ..   .  ..   .  ..   .  ..   .  ..   .  ..   .  ..   .  ..   .  ..   .  ..   .  ..   .  ..   .  ..   .  ..   .  ..   .  ..   .  ..   .  ..   .  ..   .  ..   .  ..   .  ..   .  ..   .  ..   .  ..   .  ..   .  ..   .  ..   .  ..   .  ..   .  ..   .  ..   .  ..   .  ..   .  ..   .  ..   .  ..   .  ..   .  ..   .  ..   .  ..   .  ..   .  ..   .  ..   .  ..   .  ..   .  ..   .  ..   .  ..   .  ..   .  ..   .  ..   .  ..   .  ..   .  ..   .  ..   .  ..   .  ..   .  ..   .  ..   .  ..   .  ..   .  ..   .  ..   .  ..   .  ..   .  ..   .  ..   .  ..   .  ..   .  ..   .  ..   .  ..   .  ..   .  ..   .  ..   .  ..   .  ..   .  ..   .  ..   .  ..   .  ..   .  ..   .  ..   .  ..   .  ..   .  ..   .  ..   .  ..   .  ..   .  ..   .  ..   .  ..   .  ..   .  ..   .  ..   .  ..   .  ..   .  ..   .  ..   .  ..   .  ..   .  ..   .  ..   .  ..   .  ..   .  ..   .  ..   .  ..   ",
" .  . .. .  . .. .  . .. .  . .. .  . .. .  . .. .  . .. .  . .. .  . .. .  . .. .  . .. .  . .. .  . .. .  . .. .  . .. .  . .. .  . .. .  . .. .  . .. .  . .. .  . .. .  . .. .  . .. .  . .. .  . .. .  . .. .  . .. .  . .. .  . .. .  . .. .  . .. .  . .. .  . .. .  . .. .  . .. .  . .. .  . .. .  . .. .  . .. .  . .. .  . .. .  . .. .  . .. .  . .. .  . .. .  . .. .  . .. .  . .. .  . .. .  . .. .  . .. .  . .. .  . .. .  . .. .  . .. .  . .. .  . .. .  . .. .  . .. .  . .. .  . .. .  . .. .  . .. .  . .. .  . .. .  . .. .  . .. .  . .. .  . .. .  . .. .  . .. .  . .. .  . .. .  . .. .  . .. .  . .. .  . .. .  . .. .  . .. .  . .. .  . .. .  . .. .  . .. .  . .. .  . .. .  . .. .  . .. .  . .. .  . .. .  . .. .  . .. .  . .. .  . .. .  . .. .  . .. .  . .. .  . .. .  . .. .  . .. .  . .. .  . .. .  . .. .  . .. .  . .. .  . .. .  . .. .  . .. .  . .. .  . .. .  . .. .  . .. .  . .. .  . .. .  . .. .  . .. .  . .. .  . .. .  . .. .  . .. .  . .. .  . .. .  . .. .  . .. .  . .. .  . .. .  . .. .  . .. .  . ..",
".   .  ..   .  ..   .  ..   .  ..   .  ..   .  ..   .  ..   .  ..   .  ..   .  ..   .  ..   .  ..   .  ..   .  ..   .  ..   .  ..   .  ..   .  ..   .  ..   .  ..   .  ..   .  ..   .  ..   .  ..   .  ..   .  ..   .  ..   .  ..   .  ..   .  ..   .  ..   .  ..   .  ..   .  ..   .  ..   .  ..   .  ..   .  ..   .  ..   .  ..   .  ..   .  ..   .  ..   .  ..   .  ..   .  ..   .  ..   .  ..   .  ..   .  ..   .  ..   .  ..   .  ..   .  ..   .  ..   .  ..   .  ..   .  ..   .  ..   .  ..   .  ..   .  ..   .  ..   .  ..   .  ..   .  ..   .  ..   .  ..   .  ..   .  ..   .  ..   .  ..   .  ..   .  ..   .  ..   .  ..   .  ..   .  ..   .  ..   .  ..   .  ..   .  ..   .  ..   .  ..   .  ..   .  ..   .  ..   .  ..   .  ..   .  ..   .  ..   .  ..   .  ..   .  ..   .  ..   .  ..   .  ..   .  ..   .  ..   .  ..   .  ..   .  ..   .  ..   .  ..   .  ..   .  ..   .  ..   .  ..   .  ..   .  ..   .  ..   .  ..   .  ..   .  ..   .  ..   .  ..   .  ..   .  ..   .  ..   .  ..   .  ..   .  ..   .  ..   .  ..   .  ..   .  ..   .  ..   .  .",
". .  .  . .  .  . .  .  . .  .  . .  .  . .  .  . .  .  . .  .  . .  .  . .  .  . .  .  . .  .  . .  .  . .  .  . .  .  . .  .  . .  .  . .  .  . .  .  . .  .  . .  .  . .  .  . .  .  . .  .  . .  .  . .  .  . .  .  . .  .  . .  .  . .  .  . .  .  . .  .  . .  .  . .  .  . .  .  . .  .  . .  .  . .  .  . .  .  . .  .  . .  .  . .  .  . .  .  . .  .  . .  .  . .  .  . .  .  . .  .  . .  .  . .  .  . .  .  . .  .  . .  .  . .  .  . .  .  . .  .  . .  .  . .  .  . .  .  . .  .  . .  .  . .  .  . .  .  . .  .  . .  .  . .  .  . .  .  . .  .  . .  .  . .  .  . .  .  . .  .  . .  .  . .  .  . .  .  . .  .  . .  .  . .  .  . .  .  . .  .  . .  .  . .  .  . .  .  . .  .  . .  .  . .  .  . .  .  . .  .  . .  .  . .  .  . .  .  . .  .  . .  .  . .  .  . .  .  . .  .  . .  .  . .  .  . .  .  . .  .  . .  .  . .  .  . .  .  . .  .  . .  .  . .  .  . .  .  . .  .  . .  .  . .  .  . .  .  . .  .  . .  .  . .  .  . .  .  . .  .  . .  .  . .  .  . .  .  . .  .  . .  .  . .  .  . .  .  . .  .  . .  .  . .  .  . .  .  . .  .  ",
".. .    .. .    .. .    .. .    .. .    .. .    .. .    .. .    .. .    .. .    .. .    .. .    .. .    .. .    .. .    .. .    .. .    .. .    .. .    .. .    .. .    .. .    .. .    .. .    .. .    .. .    .. .    .. .    .. .    .. .    .. .    .. .    .. .    .. .    .. .    .. .    .. .    .. .    .. .    .. .    .. .    .. .    .. .    .. .    .. .    .. .    .. .    .. .    .. .    .. .    .. .    .. .    .. .    .. .    .. .    .. .    .. .    .. .    .. .    .. .    .. .    .. .    .. .    .. .    .. .    .. .    .. .    .. .    .. .    .. .    .. .    .. .    .. .    .. .    .. .    .. .    .. .    .. .    .. .    .. .    .. .    .. .    .. .    .. .    .. .    .. .    .. .    .. .    .. .    .. .    .. .    .. .    .. .    .. .    .. .    .. .    .. .    .. .    .. .    .. .    .. .    .. .    .. .    .. .    .. .    .. .    .. .    .. .    .. .    .. .    .. .    .. .    .. .    .. .    .. .    .. .    .. .    .. .    .. .    .. .    .. .    .. .    .. .    .. .    .. .    .. .    .. .    .. .    ",
" ..   .  ..   .  ..   .  ..   .  ..   .  ..   .  ..   .  ..   .  ..   .  ..   .  ..   .  ..   .  ..   .  ..   .  ..   .  ..   .  ..   .  ..   .  ..   .  ..   .  ..   .  ..   .  ..   .  ..   .  ..   .  ..   .  ..   .  ..   .  ..   .  ..   .  ..   .  ..   .  ..   .  ..   .  ..   .  ..   .  ..   .  ..   .  ..   .  ..   .  ..   .  ..   .  ..   .  ..   .  ..   .  ..   .  ..   .  ..   .  ..   .  ..   .  ..   .  ..   .  ..   .  ..   .  ..   .  ..   .  ..   .  ..   .  ..   .  ..   .  ..   .  ..   .  ..   .  ..   .  ..   .  ..   .  ..   .  ..   .  ..   .  ..   .  ..   .  ..   .  ..   .  ..   .  ..   .  ..   .  ..   .  ..   .  ..   .  ..   .  ..   .  ..   .  ..   .  ..   .  ..   .  ..   .  ..   .  ..   .  ..   .  ..   .  ..   .  ..   .  ..   .  ..   .  ..   .  ..   .  ..   .  ..   .  ..   .  ..   .  ..   .  ..   .  ..   .  ..   .  ..   .  ..   .  ..   .  ..   .  ..   .  ..   .  ..   .  ..   .  ..   .  ..   .  ..   .  ..   .  ..   .  ..   .  ..   .  ..   .  ..   .  ..   .  ..   .  ..   .  ..   .  ..   .  ..   .  ..   . ",
"  . .  .  . .  .  . .  .  . .  .  . .  .  . .  .  . .  .  . .  .  . .  .  . .  .  . .  .  . .  .  . .  .  . .  .  . .  .  . .  .  . .  .  . .  .  . .  .  . .  .  . .  .  . .  .  . .  .  . .  .  . .  .  . .  .  . .  .  . .  .  . .  .  . .  .  . .  .  . .  .  . .  .  . .  .  . .  .  . .  .  . .  .  . .  .  . .  .  . .  .  . .  .  . .  .  . .  .  . .  .  . .  .  . .  .  . .  .  . .  .  . .  .  . .  .  . .  .  . .  .  . .  .  . .  .  . .  .  . .  .  . .  .  . .  .  . .  .  . .  .  . .  .  . .  .  . .  .  . .  .  . .  .  . .  .  . .  .  . .  .  . .  .  . .  .  . .  .  . .  .  . .  .  . .  .  . .  .  . .  .  . .  .  . .  .  . .  .  . .  .  . .  .  . .  .  . .  .  . .  .  . .  .  . .  .  . .  .  . .  .  . .  .  . .  .  . .  .  . .  .  . .  .  . .  .  . .  .  . .  .  . .  .  . .  .  . .  .  . .  .  . .  .  . .  .  . .  .  . .  .  . .  .  . .  .  . .  .  . .  .  . .  .  . .  .  . .  .  . .  .  . .  .  . .  .  . .  .  . .  .  . .  .  . .  .  . .  .  . .  .  . .  .  . .  .  . .  .  . .  .  . .  .  . .  .  . .  .  . .  .",
"  .. .    .. .    .. .    .. .    .. .    .. .    .. .    .. .    .. .    .. .    .. .    .. .    .. .    .. .    .. .    .. .    .. .    .. .    .. .    .. .    .. .    .. .    .. .    .. .    .. .    .. .    .. .    .. .    .. .    .. .    .. .    .. .    .. .    .. .    .. .    .. .    .. .    .. .    .. .    .. .    .. .    .. .    .. .    .. .    .. .    .. .    .. .    .. .    .. .    .. .    .. .    .. .    .. .    .. .    .. .    .. .    .. .    .. .    .. .    .. .    .. .    .. .    .. .    .. .    .. .    .. .    .. .    .. .    .. .    .. .    .. .    .. .    .. .    .. .    .. .    .. .    .. .    .. .    .. .    .. .    .. .    .. .    .. .    .. .    .. .    .. .    .. .    .. .    .. .    .. .    .. .    .. .    .. .    .. .    .. .    .. .    .. .    .. .    .. .    .. .    .. .    .. .    .. .    .. .    .. .    .. .    .. .    .. .    .. .    .. .    .. .    .. .    .. .    .. .    .. .    .. .    .. .    .. .    .. .    .. .    .. .    .. .    .. .    .. .    .. .    .. .    .. .    .. .  ",
".  ..   .  ..   .  ..   .  ..   .  ..   .  ..   .  ..   .  ..   .  ..   .  ..   .  ..   .  ..   .  ..   .  ..   .  ..   .  ..   .  ..   .  ..   .  ..   .  ..   .  ..   .  ..   .  ..   .  ..   .  ..   .  ..   .  ..   .  ..   .  ..   .  ..   .  ..   .  ..   .  ..   .  ..   .  ..   .  ..   .  ..   .  ..   .  ..   .  ..   .  ..   .  ..   .  ..   .  ..   .  ..   .  ..   .  ..   .  ..   .  ..   .  ..   .  ..   .  ..   .  ..   .  ..   .  ..   .  ..   .  ..   .  ..   .  ..   .  ..   .  ..   .  ..   .  ..   .  ..   .  ..   .  ..   .  ..   .  ..   .  ..   .  ..   .  ..   .  ..   .  ..   .  ..   .  ..   .  ..   .  ..   .  ..   .  ..   .  ..   .  ..   .  ..   .  ..   .  ..   .  ..   .  ..   .  ..   .  ..   .  ..   .  ..   .  ..   .  ..   .  ..   .  ..   .  ..   .  ..   .  ..   .  ..   .  ..   .  ..   .  ..   .  ..   .  ..   .  ..   .  ..   .  ..   .  ..   .  ..   .  ..   .  ..   .  ..   .  ..   .  ..   .  ..   .  ..   .  ..   .  ..   .  ..   .  ..   .  ..   .  ..   .  ..   .  ..   .  ..   .  ..   .  ..   .  ..   .  ..   ",
" .    .. .    .. .    .. .    .. .    .. .    .. .    .. .    .. .    .. .    .. .    .. .    .. .    .. .    .. .    .. .    .. .    .. .    .. .    .. .    .. .    .. .    .. .    .. .    .. .    .. .    .. .    .. .    .. .    .. .    .. .    .. .    .. .    .. .    .. .    .. .    .. .    .. .    .. .    .. .    .. .    .. .    .. .    .. .    .. .    .. .    .. .    .. .    .. .    .. .    .. .    .. .    .. .    .. .    .. .    .. .    .. .    .. .    .. .    .. .    .. .    .. .    .. .    .. .    .. .    .. .    .. .    .. .    .. .    .. .    .. .    .. .    .. .    .. .    .. .    .. .    .. .    .. .    .. .    .. .    .. .    .. .    .. .    .. .    .. .    .. .    .. .    .. .    .. .    .. .    .. .    .. .    .. .    .. .    .. .    .. .    .. .    .. .    .. .    .. .    .. .    .. .    .. .    .. .    .. .    .. .    .. .    .. .    .. .    .. .    .. .    .. .    .. .    .. .    .. .    .. .    .. .    .. .    .. .    .. .    .. .    .. .    .. .    .. .    .. .    .. .    .. .    .. .    ..",
".   .  ..   .  ..   .  ..   .  ..   .  ..   .  ..   .  ..   .  ..   .  ..   .  ..   .  ..   .  ..   .  ..   .  ..   .  ..   .  ..   .  ..   .  ..   .  ..   .  ..   .  ..   .  ..   .  ..   .  ..   .  ..   .  ..   .  ..   .  ..   .  ..   .  ..   .  ..   .  ..   .  ..   .  ..   .  ..   .  ..   .  ..   .  ..   .  ..   .  ..   .  ..   .  ..   .  ..   .  ..   .  ..   .  ..   .  ..   .  ..   .  ..   .  ..   .  ..   .  ..   .  ..   .  ..   .  ..   .  ..   .  ..   .  ..   .  ..   .  ..   .  ..   .  ..   .  ..   .  ..   .  ..   .  ..   .  ..   .  ..   .  ..   .  ..   .  ..   .  ..   .  ..   .  ..   .  ..   .  ..   .  ..   .  ..   .  ..   .  ..   .  ..   .  ..   .  ..   .  ..   .  ..   .  ..   .  ..   .  ..   .  ..   .  ..   .  ..   .  ..   .  ..   .  ..   .  ..   .  ..   .  ..   .  ..   .  ..   .  ..   .  ..   .  ..   .  ..   .  ..   .  ..   .  ..   .  ..   .  ..   .  ..   .  ..   .  ..   .  ..   .  ..   .  ..   .  ..   .  ..   .  ..   .  ..   .  ..   .  ..   .  ..   .  ..   .  ..   .  ..   .  ..   .  ..   .  ..   .  .",
". .  .  . .  .  . .  .  . .  .  . .  .  . .  .  . .  .  . .  .  . .  .  . .  .  . .  .  . .  .  . .  .  . .  .  . .  .  . .  .  . .  .  . .  .  . .  .  . .  .  . .  .  . .  .  . .  .  . .  .  . .  .  . .  .  . .  .  . .  .  . .  .  . .  .  . .  .  . .  .  . .  .  . .  .  . .  .  . .  .  . .  .  . .  .  . .  .  . .  .  . .  .  . .  .  . .  .  . .  .  . .  .  . .  .  . .  .  . .  .  . .  .  . .  .  . .  .  . .  .  . .  .  . .  .  . .  .  . .  .  . .  .  . .  .  . .  .  . .  .  . .  .  . .  .  . .  .  . .  .  . .  .  . .  .  . .  .  . .  .  . .  .  . .  .  . .  .  . .  .  . .  .  . .  .  . .  .  . .  .  . .  .  . .  .  . .  .  . .  .  . .  .  . .  .  . .  .  . .  .  . .  .  . .  .  . .  .  . .  .  . .  .  . .  .  . .  .  . .  .  . .  .  . .  .  . .  .  . .  .  . .  .  . .  .  . .  .  . .  .  . .  .  . .  .  . .  .  . .  .  . .  .  . .  .  . .  .  . .  .  . .  .  . .  .  . .  .  . .  .  . .  .  . .  .  . .  .  . .  .  . .  .  . .  .  . .  .  . .  .  . .  .  . .  .  . .  .  . .  .  . .  .  . .  .  . .  .  . .  .  ",
".. .    .. .    .. .    .. .    .. .    .. .    .. .    .. .    .. .    .. .    .. .    .. .    .. .    .. .    .. .    .. .    .. .    .. .    .. .    .. .    .. .    .. .    .. .    .. .    .. .    .. .    .. .    .. .    .. .    .. .    .. .    .. .    .. .    .. .    .. .    .. .    .. .    .. .    .. .    .. .    .. .    .. .    .. .    .. .    .. .    .. .    .. .    .. .    .. .    .. .    .. .    .. .    .. .    .. .    .. .    .. .    .. .    .. .    .. .    .. .    .. .    .. .    .. .    .. .    .. .    .. .    .. .    .. .    .. .    .. .    .. .    .. .    .. .    .. .    .. .    .. .    .. .    .. .    .. .    .. .    .. .    .. .    .. .    .. .    .. .    .. .    .. .    .. .    .. .    .. .    .. .    .. .    .. .    .. .    .. .    .. .    .. .    .. .    .. .    .. .    .. .    .. .    .. .    .. .    .. .    .. .    .. .    .. .    .. .    .. .    .. .    .. .    .. .    .. .    .. .    .. .    .. .    .. .    .. .    .. .    .. .    .. .    .. .    .. .    .. .    .. .    .. .    .. .    ",
" ..   .  ..   .  ..   .  ..   .  ..   .  ..   .  ..   .  ..   .  ..   .  ..   .  ..   .  ..   .  ..   .  ..   .  ..   .  ..   .  ..   .  ..   .  ..   .  ..   .  ..   .  ..   .  ..   .  ..   .  ..   .  ..   .  ..   .  ..   .  ..   .  ..   .  ..   .  ..   .  ..   .  ..   .  ..   .  ..   .  ..   .  ..   .  ..   .  ..   .  ..   .  ..   .  ..   .  ..   .  ..   .  ..   .  ..   .  ..   .  ..   .  ..   .  ..   .  ..   .  ..   .  ..   .  ..   .  ..   .  ..   .  ..   .  ..   .  ..   .  ..   .  ..   .  ..   .  ..   .  ..   .  ..   .  ..   .  ..   .  ..   .  ..   .  ..   .  ..   .  ..   .  ..   .  ..   .  ..   .  ..   .  ..   .  ..   .  ..   .  ..   .  ..   .  ..   .  ..   .  ..   .  ..   .  ..   .  ..   .  ..   .  ..   .  ..   .  ..   .  ..   .  ..   .  ..   .  ..   .  ..   .  ..   .  ..   .  ..   .  ..   .  ..   .  ..   .  ..   .  ..   .  ..   .  ..   .  ..   .  ..   .  ..   .  ..   .  ..   .  ..   .  ..   .  ..   .  ..   .  ..   .  ..   .  ..   .  ..   .  ..   .  ..   .  ..   .  ..   .  ..   .  ..   .  ..   .  ..   . ",
"  . .  .  . .  .  . .  .  . .  .  . .  .  . .  .  . .  .  . .  .  . .  .  . .  .  . .  .  . .  .  . .  .  . .  .  . .  .  . .  .  . .  .  . .  .  . .  .  . .  .  . .  .  . .  .  . .  .  . .  .  . .  .  . .  .  . .  .  . .  .  . .  .  . .  .  . .  .  . .  .  . .  .  . .  .  . .  .  . .  .  . .  .  . .  .  . .  .  . .  .  . .  .  . .  .  . .  .  . .  .  . .  .  . .  .  . .  .  . .  .  . .  .  . .  .  . .  .  . .  .  . .  .  . .  .  . .  .  . .  .  . .  .  . .  .  . .  .  . .  .  . .  .  . .  .  . .  .  . .  .  . .  .  . .  .  . .  .  . .  .  . .  .  . .  .  . .  .  . .  .  . .  .  . .  .  . .  .  . .  .  . .  .  . .  .  . .  .  . .  .  . .  .  . .  .  . .  .  . .  .  . .  .  . .  .  . .  .  . .  .  . .  .  . .  .  . .  .  . .  .  . .  .  . .  .  . .  .  . .  .  . .  .  . .  .  . .  .  . .  .  . .  .  . .  .  . .  .  . .  .  . .  .  . .  .  . .  .  . .  .  . .  .  . .  .  . .  .  . .  .  . .  .  . .  .  . .  .  . .  .  . .  .  . .  .  . .  .  . .  .  . .  .  . .  .  . .  .  . .  .  . .  .  . .  .  . .  .  . .  .",
"  .. .    .. .    .. .    .. .    .. .    .. .    .. .    .. .    .. .    .. .    .. .    .. .    .. .    .. .    .. .    .. .    .. .    .. .    .. .    .. .    .. .    .. .    .. .    .. .    .. .    .. .    .. .    .. .    .. .    .. .    .. .    .. .    .. .    .. .    .. .    .. .    .. .    .. .    .. .    .. .    .. .    .. .    .. .    .. .    .. .    .. .    .. .    .. .    .. .    .. .    .. .    .. .    .. .    .. .    .. .    .. .    .. .    .. .    .. .    .. .    .. .    .. .    .. .    .. .    .. .    .. .    .. .    .. .    .. .    .. .    .. .    .. .    .. .    .. .    .. .    .. .    .. .    .. .    .. .    .. .    .. .    .. .    .. .    .. .    .. .    .. .    .. .    .. .    .. .    .. .    .. .    .. .    .. .    .. .    .. .    .. .    .. .    .. .    .. .    .. .    .. .    .. .    .. .    .. .    .. .    .. .    .. .    .. .    .. .    .. .    .. .    .. .    .. .    .. .    .. .    .. .    .. .    .. .    .. .    .. .    .. .    .. .    .. .    .. .    .. .    .. .    .. .    .. .  ",
".  ..   .  ..   .  ..   .  ..   .  ..   .  ..   .  ..   .  ..   .  ..   .  ..   .  ..   .  ..   .  ..   .  ..   .  ..   .  ..   .  ..   .  ..   .  ..   .  ..   .  ..   .  ..   .  ..   .  ..   .  ..   .  ..   .  ..   .  ..   .  ..   .  ..   .  ..   .  ..   .  ..   .  ..   .  ..   .  ..   .  ..   .  ..   .  ..   .  ..   .  ..   .  ..   .  ..   .  ..   .  ..   .  ..   .  ..   .  ..   .  ..   .  ..   .  ..   .  ..   .  ..   .  ..   .  ..   .  ..   .  ..   .  ..   .  ..   .  ..   .  ..   .  ..   .  ..   .  ..   .  ..   .  ..   .  ..   .  ..   .  ..   .  ..   .  ..   .  ..   .  ..   .  ..   .  ..   .  ..   .  ..   .  ..   .  ..   .  ..   .  ..   .  ..   .  ..   .  ..   .  ..   .  ..   .  ..   .  ..   .  ..   .  ..   .  ..   .  ..   .  ..   .  ..   .  ..   .  ..   .  ..   .  ..   .  ..   .  ..   .  ..   .  ..   .  ..   .  ..   .  ..   .  ..   .  ..   .  ..   .  ..   .  ..   .  ..   .  ..   .  ..   .  ..   .  ..   .  ..   .  ..   .  ..   .  ..   .  ..   .  ..   .  ..   .  ..   .  ..   .  ..   .  ..   .  ..   .  ..   ",
" .    .. .    .. .    .. .    .. .    .. .    .. .    .. .    .. .    .. .    .. .    .. .    .. .    .. .    .. .    .. .    .. .    .. .    .. .    .. .    .. .    .. .    .. .    .. .    .. .    .. .    .. .    .. .    .. .    .. .    .. .    .. .    .. .    .. .    .. .    .. .    .. .    .. .    .. .    .. .    .. .    .. .    .. .    .. .    .. .    .. .    .. .    .. .    .. .    .. .    .. .    .. .    .. .    .. .    .. .    .. .    .. .    .. .    .. .    .. .    .. .    .. .    .. .    .. .    .. .    .. .    .. .    .. .    .. .    .. .    .. .    .. .    .. .    .. .    .. .    .. .    .. .    .. .    .. .    .. .    .. .    .. .    .. .    .. .    .. .    .. .    .. .    .. .    .. .    .. .    .. .    .. .    .. .    .. .    .. .    .. .    .. .    .. .    .. .    .. .    .. .    .. .    .. .    .. .    .. .    .. .    .. .    .. .    .. .    .. .    .. .    .. .    .. .    .. .    .. .    .. .    .. .    .. .    .. .    .. .    .. .    .. .    .. .    .. .    .. .    .. .    .. .    .. .    ..",
".   .  ..   .  ..   .  ..   .  ..   .  ..   .  ..   .  ..   .  ..   .  ..   .  ..   .  ..   .  ..   .  ..   .  ..   .  ..   .  ..   .  ..   .  ..   .  ..   .  ..   .  ..   .  ..   .  ..   .  ..   .  ..   .  ..   .  ..   .  ..   .  ..   .  ..   .  ..   .  ..   .  ..   .  ..   .  ..   .  ..   .  ..   .  ..   .  ..   .  ..   .  ..   .  ..   .  ..   .  ..   .  ..   .  ..   .  ..   .  ..   .  ..   .  ..   .  ..   .  ..   .  ..   .  ..   .  ..   .  ..   .  ..   .  ..   .  ..   .  ..   .  ..   .  ..   .  ..   .  ..   .  ..   .  ..   .  ..   .  ..   .  ..   .  ..   .  ..   .  ..   .  ..   .  ..   .  ..   .  ..   .  ..   .  ..   .  ..   .  ..   .  ..   .  ..   .  ..   .  ..   .  ..   .  ..   .  ..   .  ..   .  ..   .  ..   .  ..   .  ..   .  ..   .  ..   .  ..   .  ..   .  ..   .  ..   .  ..   .  ..   .  ..   .  ..   .  ..   .  ..   .  ..   .  ..   .  ..   .  ..   .  ..   .  ..   .  ..   .  ..   .  ..   .  ..   .  ..   .  ..   .  ..   .  ..   .  ..   .  ..   .  ..   .  ..   .  ..   .  ..   .  ..   .  ..   .  ..   .  .",
". .  .  . .  .  . .  .  . .  .  . .  .  . .  .  . .  .  . .  .  . .  .  . .  .  . .  .  . .  .  . .  .  . .  .  . .  .  . .  .  . .  .  . .  .  . .  .  . .  .  . .  .  . .  .  . .  .  . .  .  . .  .  . .  .  . .  .  . .  .  . .  .  . .  .  . .  .  . .  .  . .  .  . .  .  . .  .  . .  .  . .  .  . .  .  . .  .  . .  .  . .  .  . .  .  . .  .  . .  .  . .  .  . .  .  . .  .  . .  .  . .  .  . .  .  . .  .  . .  .  . .  .  . .  .  . .  .  . .  .  . .  .  . .  .  . .  .  . .  .  . .  .  . .  .  . .  .  . .  .  . .  .  . .  .  . .  .  . .  .  . .  .  . .  .  . .  .  . .  .  . .  .  . .  .  . .  .  . .  .  . .  .  . .  .  . .  .  . .  .  . .  .  . .  .  . .  .  . .  .  . .  .  . .  .  . .  .  . .  .  . .  .  . .  .  . .  .  . .  .  . .  .  . .  .  . .  .  . .  .  . .  .  . .  .  . .  .  . .  .  . .  .  . .  .  . .  .  . .  .  . .  .  . .  .  . .  .  . .  .  . .  .  . .  .  . .  .  . .  .  . .  .  . .  .  . .  .  . .  .  . .  .  . .  .  . .  .  . .  .  . .  .  . .  .  . .  .  . .  .  . .  .  . .  .  . .  .  . .  .  ",
".. .    .. .    .. .    .. .    .. .    .. .    .. .    .. .    .. .    .. .    .. .    .. .    .. .    .. .    .. .    .. .    .. .    .. .    .. .    .. .    .. .    .. .    .. .    .. .    .. .    .. .    .. .    .. .    .. .    .. .    .. .    .. .    .. .    .. .    .. .    .. .    .. .    .. .    .. .    .. .    .. .    .. .    .. .    .. .    .. .    .. .    .. .    .. .    .. .    .. .    .. .    .. .    .. .    .. .    .. .    .. .    .. .    .. .    .. .    .. .    .. .    .. .    .. .    .. .    .. .    .. .    .. .    .. .    .. .    .. .    .. .    .. .    .. .    .. .    .. .    .. .    .. .    .. .    .. .    .. .    .. .    .. .    .. .    .. .    .. .    .. .    .. .    .. .    .. .    .. .    .. .    .. .    .. .    .. .    .. .    .. .    .. .    .. .    .. .    .. .    .. .    .. .    .. .    .. .    .. .    .. .    .. .    .. .    .. .    .. .    .. .    .. .    .. .    .. .    .. .    .. .    .. .    .. .    .. .    .. .    .. .    .. .    .. .    .. .    .. .    .. .    .. .    .. .    ",
" ..   .  ..   .  ..   .  ..   .  ..   .  ..   .  ..   .  ..   .  ..   .  ..   .  ..   .  ..   .  ..   .  ..   .  ..   .  ..   .  ..   .  ..   .  ..   .  ..   .  ..   .  ..   .  ..   .  ..   .  ..   .  ..   .  ..   .  ..   .  ..   .  ..   .  ..   .  ..   .  ..   .  ..   .  ..   .  ..   .  ..   .  ..   .  ..   .  ..   .  ..   .  ..   .  ..   .  ..   .  ..   .  ..   .  ..   .  ..   .  ..   .  ..   .  ..   .  ..   .  ..   .  ..   .  ..   .  ..   .  ..   .  ..   .  ..   .  ..   .  ..   .  ..   .  ..   .  ..   .  ..   .  ..   .  ..   .  ..   .  ..   .  ..   .  ..   .  ..   .  ..   .  ..   .  ..   .  ..   .  ..   .  ..   .  ..   .  ..   .  ..   .  ..   .  ..   .  ..   .  ..   .  ..   .  ..   .  ..   .  ..   .  ..   .  ..   .  ..   .  ..   .  ..   .  ..   .  ..   .  ..   .  ..   .  ..   .  ..   .  ..   .  ..   .  ..   .  ..   .  ..   .  ..   .  ..   .  ..   .  ..   .  ..   .  ..   .  ..   .  ..   .  ..   .  ..   .  ..   .  ..   .  ..   .  ..   .  ..   .  ..   .  ..   .  ..   .  ..   .  ..   .  ..   .  ..   .  ..   . ",
"  . .  .  . .  .  . .  .  . .  .  . .  .  . .  .  . .  .  . .  .  . .  .  . .  .  . .  .  . .  .  . .  .  . .  .  . .  .  . .  .  . .  .  . .  .  . .  .  . .  .  . .  .  . .  .  . .  .  . .  .  . .  .  . .  .  . .  .  . .  .  . .  .  . .  .  . .  .  . .  .  . .  .  . .  .  . .  .  . .  .  . .  .  . .  .  . .  .  . .  .  . .  .  . .  .  . .  .  . .  .  . .  .  . .  .  . .  .  . .  .  . .  .  . .  .  . .  .  . .  .  . .  .  . .  .  . .  .  . .  .  . .  .  . .  .  . .  .  . .  .  . .  .  . .  .  . .  .  . .  .  . .  .  . .  .  . .  .  . .  .  . .  .  . .  .  . .  .  . .  .  . .  .  . .  .  . .  .  . .  .  . .  .  . .  .  . .  .  . .  .  . .  .  . .  .  . .  .  . .  .  . .  .  . .  .  . .  .  . .  .  . .  .  . .  .  . .  .  . .  .  . .  .  . .  .  . .  .  . .  .  . .  .  . .  .  . .  .  . .  .  . .  .  . .  .  . .  .  . .  .  . .  .  . .  .  . .  .  . .  .  . .  .  . .  .  . .  .  . .  .  . .  .  . .  .  . .  .  . .  .  . .  .  . .  .  . .  .  . .  .  . .  .  . .  .  . .  .  . .  .  . .  .  . .  .  . .  .  . .  .",
"  .. .    .. .    .. .    .. .    .. .    .. .    .. .    .. .    .. .    .. .    .. .    .. .    .. .    .. .    .. .    .. .    .. .    .. .    .. .    .. .    .. .    .. .    .. .    .. .    .. .    .. .    .. .    .. .    .. .    .. .    .. .    .. .    .. .    .. .    .. .    .. .    .. .    .. .    .. .    .. .    .. .    .. .    .. .    .. .    .. .    .. .    .. .    .. .    .. .    .. .    .. .    .. .    .. .    .. .    .. .    .. .    .. .    .. .    .. .    .. .    .. .    .. .    .. .    .. .    .. .    .. .    .. .    .. .    .. .    .. .    .. .    .. .    .. .    .. .    .. .    .. .    .. .    .. .    .. .    .. .    .. .    .. .    .. .    .. .    .. .    .. .    .. .    .. .    .. .    .. .    .. .    .. .    .. .    .. .    .. .    .. .    .. .    .. .    .. .    .. .    .. .    .. .    .. .    .. .    .. .    .. .    .. .    .. .    .. .    .. .    .. .    .. .    .. .    .. .    .. .    .. .    .. .    .. .    .. .    .. .    .. .    .. .    .. .    .. .    .. .    .. .    .. .    .. .  ",
".  ..   .  ..   .  ..   .  ..   .  ..   .  ..   .  ..   .  ..   .  ..   .  ..   .  ..   .  ..   .  ..   .  ..   .  ..   .  ..   .  ..   .  ..   .  ..   .  ..   .  ..   .  ..   .  ..   .  ..   .  ..   .  ..   .  ..   .  ..   .  ..   .  ..   .  ..   .  ..   .  ..   .  ..   .  ..   .  ..   .  ..   .  ..   .  ..   .  ..   .  ..   .  ..   .  ..   .  ..   .  ..   .  ..   .  ..   .  ..   .  ..   .  ..   .  ..   .  ..   .  ..   .  ..   .  ..   .  ..   .  ..   .  ..   .  ..   .  ..   .  ..   .  ..   .  ..   .  ..   .  ..   .  ..   .  ..   .  ..   .  ..   .  ..   .  ..   .  ..   .  ..   .  ..   .  ..   .  ..   .  ..   .  ..   .  ..   .  ..   .  ..   .  ..   .  ..   .  ..   .  ..   .  ..   .  ..   .  ..   .  ..   .  ..   .  ..   .  ..   .  ..   .  ..   .  ..   .  ..   .  ..   .  ..   .  ..   .  ..   .  ..   .  ..   .  ..   .  ..   .  ..   .  ..   .  ..   .  ..   .  ..   .  ..   .  ..   .  ..   .  ..   .  ..   .  ..   .  ..   .  ..   .  ..   .  ..   .  ..   .  ..   .  ..   .  ..   .  ..   .  ..   .  ..   .  ..   .  ..   ",
" .    .. .    .. .    .. .    .. .    .. .    .. .    .. .    .. .    .. .    .. .    .. .    .. .    .. .    .. .    .. .    .. .    .. .    .. .    .. .    .. .    .. .    .. .    .. .    .. .    .. .    .. .    .. .    .. .    .. .    .. .    .. .    .. .    .. .    .. .    .. .    .. .    .. .    .. .    .. .    .. .    .. .    .. .    .. .    .. .    .. .    .. .    .. .    .. .    .. .    .. .    .. .    .. .    .. .    .. .    .. .    .. .    .. .    .. .    .. .    .. .    .. .    .. .    .. .    .. .    .. .    .. .    .. .    .. .    .. .    .. .    .. .    .. .    .. .    .. .    .. .    .. .    .. .    .. .    .. .    .. .    .. .    .. .    .. .    .. .    .. .    .. .    .. .    .. .    .. .    .. .    .. .    .. .    .. .    .. .    .. .    .. .    .. .    .. .    .. .    .. .    .. .    .. .    .. .    .. .    .. .    .. .    .. .    .. .    .. .    .. .    .. .    .. .    .. .    .. .    .. .    .. .    .. .    .. .    .. .    .. .    .. .    .. .    .. .    .. .    .. .    .. .    .. .    ..",
".   .  ..   .  ..   .  ..   .  ..   .  ..   .  ..   .  ..   .  ..   .  ..   .  ..   .  ..   .  ..   .  ..   .  ..   .  ..   .  ..   .  ..   .  ..   .  ..   .  ..   .  ..   .  ..   .  ..   .  ..   .  ..   .  ..   .  ..   .  ..   .  ..   .  ..   .  ..   .  ..   .  ..   .  ..   .  ..   .  ..   .  ..   .  ..   .  ..   .  ..   .  ..   .  ..   .  ..   .  ..   .  ..   .  ..   .  ..   .  ..   .  ..   .  ..   .  ..   .  ..   .  ..   .  ..   .  ..   .  ..   .  ..   .  ..   .  ..   .  ..   .  ..   .  ..   .  ..   .  ..   .  ..   .  ..   .  ..   .  ..   .  ..   .  ..   .  ..   .  ..   .  ..   .  ..   .  ..   .  ..   .  ..   .  ..   .  ..   .  ..   .  ..   .  ..   .  ..   .  ..   .  ..   .  ..   .  ..   .  ..   .  ..   .  ..   .  ..   .  ..   .  ..   .  ..   .  ..   .  ..   .  ..   .  ..   .  ..   .  ..   .  ..   .  ..   .  ..   .  ..   .  ..   .  ..   .  ..   .  ..   .  ..   .  ..   .  ..   .  ..   .  ..   .  ..   .  ..   .  ..   .  ..   .  ..   .  ..   .  ..   .  ..   .  ..   .  ..   .  ..   .  ..   .  ..   .  ..   .  .",
". .  .  . .  .  . .  .  . .  .  . .  .  . .  .  . .  .  . .  .  . .  .  . .  .  . .  .  . .  .  . .  .  . .  .  . .  .  . .  .  . .  .  . .  .  . .  .  . .  .  . .  .  . .  .  . .  .  . .  .  . .  .  . .  .  . .  .  . .  .  . .  .  . .  .  . .  .  . .  .  . .  .  . .  .  . .  .  . .  .  . .  .  . .  .  . .  .  . .  .  . .  .  . .  .  . .  .  . .  .  . .  .  . .  .  . .  .  . .  .  . .  .  . .  .  . .  .  . .  .  . .  .  . .  .  . .  .  . .  .  . .  .  . .  .  . .  .  . .  .  . .  .  . .  .  . .  .  . .  .  . .  .  . .  .  . .  .  . .  .  . .  .  . .  .  . .  .  . .  .  . .  .  . .  .  . .  .  . .  .  . .  .  . .  .  . .  .  . .  .  . .  .  . .  .  . .  .  . .  .  . .  .  . .  .  . .  .  . .  .  . .  .  . .  .  . .  .  . .  .  . .  .  . .  .  . .  .  . .  .  . .  .  . .  .  . .  .  . .  .  . .  .  . .  .  . .  .  . .  .  . .  .  . .  .  . .  .  . .  .  . .  .  . .  .  . .  .  . .  .  . .  .  . .  .  . .  .  . .  .  . .  .  . .  .  . .  .  . .  .  . .  .  . .  .  . .  .  . .  .  . .  .  . .  .  . .  .  . .  .  ",
".. .    .. .    .. .    .. .    .. .    .. .    .. .    .. .    .. .    .. .    .. .    .. .    .. .    .. .    .. .    .. .    .. .    .. .    .. .    .. .    .. .    .. .    .. .    .. .    .. .    .. .    .. .    .. .    .. .    .. .    .. .    .. .    .. .    .. .    .. .    .. .    .. .    .. .    .. .    .. .    .. .    .. .    .. .    .. .    .. .    .. .    .. .    .. .    .. .    .. .    .. .    .. .    .. .    .. .    .. .    .. .    .. .    .. .    .. .    .. .    .. .    .. .    .. .    .. .    .. .    .. .    .. .    .. .    .. .    .. .    .. .    .. .    .. .    .. .    .. .    .. .    .. .    .. .    .. .    .. .    .. .    .. .    .. .    .. .    .. .    .. .    .. .    .. .    .. .    .. .    .. .    .. .    .. .    .. .    .. .    .. .    .. .    .. .    .. .    .. .    .. .    .. .    .. .    .. .    .. .    .. .    .. .    .. .    .. .    .. .    .. .    .. .    .. .    .. .    .. .    .. .    .. .    .. .    .. .    .. .    .. .    .. .    .. .    .. .    .. .    .. .    .. .    .. .    ",
" .    .  .    .  .    .  .    .  .    .  .    .  .    .  .    .  .    .  .    .  .    .  .    .  .    .  .    .  .    .  .    .  .    .  .    .  .    .  .    .  .    .  .    .  .    .  .    .  .    .  .    .  .    .  .    .  .    .  .    .  .    .  .    .  .    .  .    .  .    .  .    .  .    .  .    .  .    .  .    .  .    .  .    .  .    .  .    .  .    .  .    .  .    .  .    .  .    .  .    .  .    .  .    .  .    .  .    .  .    .  .    .  .    .  .    .  .    .  .    .  .    .  .    .  .    .  .    .  .    .  .    .  .    .  .    .  .    .  .    .  .    .  .    .  .    .  .    .  .    .  .    .  .    .  .    .  .    .  .    .  .    .  .    .  .    .  .    .  .    .  .    .  .    .  .    .  .    .  .    .  .    .  .    .  .    .  .    .  .    .  .    .  .    .  .    .  .    .  .    .  .    .  .    .  .    .  .    .  .    .  .    .  .    .  .    .  .    .  .    .  .    .  .    .  .    .  .    .  .    .  .    .  .    .  .    .  .    .  .    .  .    .  .    .  .    .  .    .  .    .  .    .  .    .  .    . ",
"    .  .    .  .    .  .    .  .    .  .    .  .    .  .    .  .    .  .    .  .    .  .    .  .    .  .    .  .    .  .    .  .    .  .    .  .    .  .    .  .    .  .    .  .    .  .    .  .    .  .    .  .    .  .    .  .    .  .    .  .    .  .    .  .    .  .    .  .    .  .    .  .    .  .    .  .    .  .    .  .    .  .    .  .    .  .    .  .    .  .    .  .    .  .    .  .    .  .    .  .    .  .    .  .    .  .    .  .    .  .    .  .    .  .    .  .    .  .    .  .    .  .    .  .    .  .    .  .    .  .    .  .    .  .    .  .    .  .    .  .    .  .    .  .    .  .    .  .    .  .    .  .    .  .    .  .    .  .    .  .    .  .    .  .    .  .    .  .    .  .    .  .    .  .    .  .    .  .    .  .    .  .    .  .    .  .    .  .    .  .    .  .    .  .    .  .    .  .    .  .    .  .    .  .    .  .    .  .    .  .    .  .    .  .    .  .    .  .    .  .    .  .    .  .    .  .    .  .    .  .    .  .    .  .    .  .    .  .    .  .    .  .    .  .    .  .    .  .    .  .    .  .    .  .    .  .",
"  .  .    .  .    .  .    .  .    .  .    .  .    .  .    .  .    .  .    .  .    .  .    .  .    .  .    .  .    .  .    .  .    .  .    .  .    .  .    .  .    .  .    .  .    .  .    .  .    .  .    .  .    .  .    .  .    .  .    .  .    .  .    .  .    .  .    .  .    .  .    .  .    .  .    .  .    .  .    .  .    .  .    .  .    .  .    .  .    .  .    .  .    .  .    .  .    .  .    .  .    .  .    .  .    .  .    .  .    .  .    .  .    .  .    .  .    .  .    .  .    .  .    .  .    .  .    .  .    .  .    .  .    .  .    .  .    .  .    .  .    .  .    .  .    .  .    .  .    .  .    .  .    .  .    .  .    .  .    .  .    .  .    .  .    .  .    .  .    .  .    .  .    .  .    .  .    .  .    .  .    .  .    .  .    .  .    .  .    .  .    .  .    .  .    .  .    .  .    .  .    .  .    .  .    .  .    .  .    .  .    .  .    .  .    .  .    .  .    .  .    .  .    .  .    .  .    .  .    .  .    .  .    .  .    .  .    .  .    .  .    .  .    .  .    .  .    .  .    .  .    .  .    .  .    .  .  ",
".  .    .  .    .  .    .  .    .  .    .  .    .  .    .  .    .  .    .  .    .  .    .  .    .  .    .  .    .  .    .  .    .  .    .  .    .  .    .  .    .  .    .  .    .  .    .  .    .  .    .  .    .  .    .  .    .  .    .  .    .  .    .  .    .  .    .  .    .  .    .  .    .  .    .  .    .  .    .  .    .  .    .  .    .  .    .  .    .  .    .  .    .  .    .  .    .  .    .  .    .  .    .  .    .  .    .  .    .  .    .  .    .  .    .  .    .  .    .  .    .  .    .  .    .  .    .  .    .  .    .  .    .  .    .  .    .  .    .  .    .  .    .  .    .  .    .  .    .  .    .  .    .  .    .  .    .  .    .  .    .  .    .  .    .  .    .  .    .  .    .  .    .  .    .  .    .  .    .  .    .  .    .  .    .  .    .  .    .  .    .  .    .  .    .  .    .  .    .  .    .  .    .  .    .  .    .  .    .  .    .  .    .  .    .  .    .  .    .  .    .  .    .  .    .  .    .  .    .  .    .  .    .  .    .  .    .  .    .  .    .  .    .  .    .  .    .  .    .  .    .  .    .  .    .  .    ",
" .    .. .    .. .    .. .    .. .    .. .    .. .    .. .    .. .    .. .    .. .    .. .    .. .    .. .    .. .    .. .    .. .    .. .    .. .    .. .    .. .    .. .    .. .    .. .    .. .    .. .    .. .    .. .    .. .    .. .    .. .    .. .    .. .    .. .    .. .    .. .    .. .    .. .    .. .    .. .    .. .    .. .    .. .    .. .    .. .    .. .    .. .    .. .    .. .    .. .    .. .    .. .    .. .    .. .    .. .    .. .    .. .    .. .    .. .    .. .    .. .    .. .    .. .    .. .    .. .    .. .    .. .    .. .    .. .    .. .    .. .    .. .    .. .    .. .    .. .    .. .    .. .    .. .    .. .    .. .    .. .    .. .    .. .    .. .    .. .    .. .    .. .    .. .    .. .    .. .    .. .    .. .    .. .    .. .    .. .    .. .    .. .    .. .    .. .    .. .    .. .    .. .    .. .    .. .    .. .    .. .    .. .    .. .    .. .    .. .    .. .    .. .    .. .    .. .    .. .    .. .    .. .    .. .    .. .    .. .    .. .    .. .    .. .    .. .    .. .    .. .    .. .    .. .    ..",
".   .  ..   .  ..   .  ..   .  ..   .  ..   .  ..   .  ..   .  ..   .  ..   .  ..   .  ..   .  ..   .  ..   .  ..   .  ..   .  ..   .  ..   .  ..   .  ..   .  ..   .  ..   .  ..   .  ..   .  ..   .  ..   .  ..   .  ..   .  ..   .  ..   .  ..   .  ..   .  ..   .  ..   .  ..   .  ..   .  ..   .  ..   .  ..   .  ..   .  ..   .  ..   .  ..   .  ..   .  ..   .  ..   .  ..   .  ..   .  ..   .  ..   .  ..   .  ..   .  ..   .  ..   .  ..   .  ..   .  ..   .  ..   .  ..   .  ..   .  ..   .  ..   .  ..   .  ..   .  ..   .  ..   .  ..   .  ..   .  ..   .  ..   .  ..   .  ..   .  ..   .  ..   .  ..   .  ..   .  ..   .  ..   .  ..   .  ..   .  ..   .  ..   .  ..   .  ..   .  ..   .  ..   .  ..   .  ..   .  ..   .  ..   .  ..   .  ..   .  ..   .  ..   .  ..   .  ..   .  ..   .  ..   .  ..   .  ..   .  ..   .  ..   .  ..   .  ..   .  ..   .  ..   .  ..   .  ..   .  ..   .  ..   .  ..   .  ..   .  ..   .  ..   .  ..   .  ..   .  ..   .  ..   .  ..   .  ..   .  ..   .  ..   .  ..   .  ..   .  ..   .  ..   .  ..   .  ..   .  .",
". .  .  . .  .  . .  .  . .  .  . .  .  . .  .  . .  .  . .  .  . .  .  . .  .  . .  .  . .  .  . .  .  . .  .  . .  .  . .  .  . .  .  . .  .  . .  .  . .  .  . .  .  . .  .  . .  .  . .  .  . .  .  . .  .  . .  .  . .  .  . .  .  . .  .  . .  .  . .  .  . .  .  . .  .  . .  .  . .  .  . .  .  . .  .  . .  .  . .  .  . .  .  . .  .  . .  .  . .  .  . .  .  . .  .  . .  .  . .  .  . .  .  . .  .  . .  .  . .  .  . .  .  . .  .  . .  .  . .  .  . .  .  . .  .  . .  .  . .  .  . .  .  . .  .  . .  .  . .  .  . .  .  . .  .  . .  .  . .  .  . .  .  . .  .  . .  .  . .  .  . .  .  . .  .  . .  .  . .  .  . .  .  . .  .  . .  .  . .  .  . .  .  . .  .  . .  .  . .  .  . .  .  . .  .  . .  .  . .  .  . .  .  . .  .  . .  .  . .  .  . .  .  . .  .  . .  .  . .  .  . .  .  . .  .  . .  .  . .  .  . .  .  . .  .  . .  .  . .  .  . .  .  . .  .  . .  .  . .  .  . .  .  . .  .  . .  .  . .  .  . .  .  . .  .  . .  .  . .  .  . .  .  . .  .  . .  .  . .  .  . .  .  . .  .  . .  .  . .  .  . .  .  . .  .  . .  .  . .  .  ",
".. .    .. .    .. .    .. .    .. .    .. .    .. .    .. .    .. .    .. .    .. .    .. .    .. .    .. .    .. .    .. .    .. .    .. .    .. .    .. .    .. .    .. .    .. .    .. .    .. .    .. .    .. .    .. .    .. .    .. .    .. .    .. .    .. .    .. .    .. .    .. .    .. .    .. .    .. .    .. .    .. .    .. .    .. .    .. .    .. .    .. .    .. .    .. .    .. .    .. .    .. .    .. .    .. .    .. .    .. .    .. .    .. .    .. .    .. .    .. .    .. .    .. .    .. .    .. .    .. .    .. .    .. .    .. .    .. .    .. .    .. .    .. .    .. .    .. .    .. .    .. .    .. .    .. .    .. .    .. .    .. .    .. .    .. .    .. .    .. .    .. .    .. .    .. .    .. .    .. .    .. .    .. .    .. .    .. .    .. .    .. .    .. .    .. .    .. .    .. .    .. .    .. .    .. .    .. .    .. .    .. .    .. .    .. .    .. .    .. .    .. .    .. .    .. .    .. .    .. .    .. .    .. .    .. .    .. .    .. .    .. .    .. .    .. .    .. .    .. .    .. .    .. .    .. .    ",
" .    .  .    .  .    .  .    .  .    .  .    .  .    .  .    .  .    .  .    .  .    .  .    .  .    .  .    .  .    .  .    .  .    .  .    .  .    .  .    .  .    .  .    .  .    .  .    .  .    .  .    .  .    .  .    .  .    .  .    .  .    .  .    .  .    .  .    .  .    .  .    .  .    .  .    .  .    .  .    .  .    .  .    .  .    .  .    .  .    .  .    .  .    .  .    .  .    .  .    .  .    .  .    .  .    .  .    .  .    .  .    .  .    .  .    .  .    .  .    .  .    .  .    .  .    .  .    .  .    .  .    .  .    .  .    .  .    .  .    .  .    .  .    .  .    .  .    .  .    .  .    .  .    .  .    .  .    .  .    .  .    .  .    .  .    .  .    .  .    .  .    .  .    .  .    .  .    .  .    .  .    .  .    .  .    .  .    .  .    .  .    .  .    .  .    .  .    .  .    .  .    .  .    .  .    .  .    .  .    .  .    .  .    .  .    .  .    .  .    .  .    .  .    .  .    .  .    .  .    .  .    .  .    .  .    .  .    .  .    .  .    .  .    .  .    .  .    .  .    .  .    .  .    .  .    . ",
"    .  .    .  .    .  .    .  .    .  .    .  .    .  .    .  .    .  .    .  .    .  .    .  .    .  .    .  .    .  .    .  .    .  .    .  .    .  .    .  .    .  .    .  .    .  .    .  .    .  .    .  .    .  .    .  .    .  .    .  .    .  .    .  .    .  .    .  .    .  .    .  .    .  .    .  .    .  .    .  .    .  .    .  .    .  .    .  .    .  .    .  .    .  .    .  .    .  .    .  .    .  .    .  .    .  .    .  .    .  .    .  .    .  .    .  .    .  .    .  .    .  .    .  .    .  .    .  .    .  .    .  .    .  .    .  .    .  .    .  .    .  .    .  .    .  .    .  .    .  .    .  .    .  .    .  .    .  .    .  .    .  .    .  .    .  .    .  .    .  .    .  .    .  .    .  .    .  .    .  .    .  .    .  .    .  .    .  .    .  .    .  .    .  .    .  .    .  .    .  .    .  .    .  .    .  .    .  .    .  .    .  .    .  .    .  .    .  .    .  .    .  .    .  .    .  .    .  .    .  .    .  .    .  .    .  .    .  .    .  .    .  .    .  .    .  .    .  .    .  .    .  .    .  .    .  .",
"  .  .    .  .    .  .    .  .    .  .    .  .    .  .    .  .    .  .    .  .    .  .    .  .    .  .    .  .    .  .    .  .    .  .    .  .    .  .    .  .    .  .    .  .    .  .    .  .    .  .    .  .    .  .    .  .    .  .    .  .    .  .    .  .    .  .    .  .    .  .    .  .    .  .    .  .    .  .    .  .    .  .    .  .    .  .    .  .    .  .    .  .    .  .    .  .    .  .    .  .    .  .    .  .    .  .    .  .    .  .    .  .    .  .    .  .    .  .    .  .    .  .    .  .    .  .    .  .    .  .    .  .    .  .    .  .    .  .    .  .    .  .    .  .    .  .    .  .    .  .    .  .    .  .    .  .    .  .    .  .    .  .    .  .    .  .    .  .    .  .    .  .    .  .    .  .    .  .    .  .    .  .    .  .    .  .    .  .    .  .    .  .    .  .    .  .    .  .    .  .    .  .    .  .    .  .    .  .    .  .    .  .    .  .    .  .    .  .    .  .    .  .    .  .    .  .    .  .    .  .    .  .    .  .    .  .    .  .    .  .    .  .    .  .    .  .    .  .    .  .    .  .    .  .    .  .  ",
".  .    .  .    .  .    .  .    .  .    .  .    .  .    .  .    .  .    .  .    .  .    .  .    .  .    .  .    .  .    .  .    .  .    .  .    .  .    .  .    .  .    .  .    .  .    .  .    .  .    .  .    .  .    .  .    .  .    .  .    .  .    .  .    .  .    .  .    .  .    .  .    .  .    .  .    .  .    .  .    .  .    .  .    .  .    .  .    .  .    .  .    .  .    .  .    .  .    .  .    .  .    .  .    .  .    .  .    .  .    .  .    .  .    .  .    .  .    .  .    .  .    .  .    .  .    .  .    .  .    .  .    .  .    .  .    .  .    .  .    .  .    .  .    .  .    .  .    .  .    .  .    .  .    .  .    .  .    .  .    .  .    .  .    .  .    .  .    .  .    .  .    .  .    .  .    .  .    .  .    .  .    .  .    .  .    .  .    .  .    .  .    .  .    .  .    .  .    .  .    .  .    .  .    .  .    .  .    .  .    .  .    .  .    .  .    .  .    .  .    .  .    .  .    .  .    .  .    .  .    .  .    .  .    .  .    .  .    .  .    .  .    .  .    .  .    .  .    .  .    .  .    .  .    .  .    ",
" .    .. .    .. .    .. .    .. .    .. .    .. .    .. .    .. .    .. .    .. .    .. .    .. .    .. .    .. .    .. .    .. .    .. .    .. .    .. .    .. .    .. .    .. .    .. .    .. .    .. .    .. .    .. .    .. .    .. .    .. .    .. .    .. .    .. .    .. .    .. .    .. .    .. .    .. .    .. .    .. .    .. .    .. .    .. .    .. .    .. .    .. .    .. .    .. .    .. .    .. .    .. .    .. .    .. .    .. .    .. .    .. .    .. .    .. .    .. .    .. .    .. .    .. .    .. .    .. .    .. .    .. .    .. .    .. .    .. .    .. .    .. .    .. .    .. .    .. .    .. .    .. .    .. .    .. .    .. .    .. .    .. .    .. .    .. .    .. .    .. .    .. .    .. .    .. .    .. .    .. .    .. .    .. .    .. .    .. .    .. .    .. .    .. .    .. .    .. .    .. .    .. .    .. .    .. .    .. .    .. .    .. .    .. .    .. .    .. .    .. .    .. .    .. .    .. .    .. .    .. .    .. .    .. .    .. .    .. .    .. .    .. .    .. .    .. .    .. .    .. .    .. .    .. .    ..",
".   .  ..   .  ..   .  ..   .  ..   .  ..   .  ..   .  ..   .  ..   .  ..   .  ..   .  ..   .  ..   .  ..   .  ..   .  ..   .  ..   .  ..   .  ..   .  ..   .  ..   .  ..   .  ..   .  ..   .  ..   .  ..   .  ..   .  ..   .  ..   .  ..   .  ..   .  ..   .  ..   .  ..   .  ..   .  ..   .  ..   .  ..   .  ..   .  ..   .  ..   .  ..   .  ..   .  ..   .  ..   .  ..   .  ..   .  ..   .  ..   .  ..   .  ..   .  ..   .  ..   .  ..   .  ..   .  ..   .  ..   .  ..   .  ..   .  ..   .  ..   .  ..   .  ..   .  ..   .  ..   .  ..   .  ..   .  ..   .  ..   .  ..   .  ..   .  ..   .  ..   .  ..   .  ..   .  ..   .  ..   .  ..   .  ..   .  ..   .  ..   .  ..   .  ..   .  ..   .  ..   .  ..   .  ..   .  ..   .  ..   .  ..   .  ..   .  ..   .  ..   .  ..   .  ..   .  ..   .  ..   .  ..   .  ..   .  ..   .  ..   .  ..   .  ..   .  ..   .  ..   .  ..   .  ..   .  ..   .  ..   .  ..   .  ..   .  ..   .  ..   .  ..   .  ..   .  ..   .  ..   .  ..   .  ..   .  ..   .  ..   .  ..   .  ..   .  ..   .  ..   .  ..   .  ..   .  ..   .  .",
". .  .  . .  .  . .  .  . .  .  . .  .  . .  .  . .  .  . .  .  . .  .  . .  .  . .  .  . .  .  . .  .  . .  .  . .  .  . .  .  . .  .  . .  .  . .  .  . .  .  . .  .  . .  .  . .  .  . .  .  . .  .  . .  .  . .  .  . .  .  . .  .  . .  .  . .  .  . .  .  . .  .  . .  .  . .  .  . .  .  . .  .  . .  .  . .  .  . .  .  . .  .  . .  .  . .  .  . .  .  . .  .  . .  .  . .  .  . .  .  . .  .  . .  .  . .  .  . .  .  . .  .  . .  .  . .  .  . .  .  . .  .  . .  .  . .  .  . .  .  . .  .  . .  .  . .  .  . .  .  . .  .  . .  .  . .  .  . .  .  . .  .  . .  .  . .  .  . .  .  . .  .  . .  .  . .  .  . .  .  . .  .  . .  .  . .  .  . .  .  . .  .  . .  .  . .  .  . .  .  . .  .  . .  .  . .  .  . .  .  . .  .  . .  .  . .  .  . .  .  . .  .  . .  .  . .  .  . .  .  . .  .  . .  .  . .  .  . .  .  . .  .  . .  .  . .  .  . .  .  . .  .  . .  .  . .  .  . .  .  . .  .  . .  .  . .  .  . .  .  . .  .  . .  .  . .  .  . .  .  . .  .  . .  .  . .  .  . .  .  . .  .  . .  .  . .  .  . .  .  . .  .  . .  .  . .  .  . .  .  ",
".. .    .. .    .. .    .. .    .. .    .. .    .. .    .. .    .. .    .. .    .. .    .. .    .. .    .. .    .. .    .. .    .. .    .. .    .. .    .. .    .. .    .. .    .. .    .. .    .. .    .. .    .. .    .. .    .. .    .. .    .. .    .. .    .. .    .. .    .. .    .. .    .. .    .. .    .. .    .. .    .. .    .. .    .. .    .. .    .. .    .. .    .. .    .. .    .. .    .. .    .. .    .. .    .. .    .. .    .. .    .. .    .. .    .. .    .. .    .. .    .. .    .. .    .. .    .. .    .. .    .. .    .. .    .. .    .. .    .. .    .. .    .. .    .. .    .. .    .. .    .. .    .. .    .. .    .. .    .. .    .. .    .. .    .. .    .. .    .. .    .. .    .. .    .. .    .. .    .. .    .. .    .. .    .. .    .. .    .. .    .. .    .. .    .. .    .. .    .. .    .. .    .. .    .. .    .. .    .. .    .. .    .. .    .. .    .. .    .. .    .. .    .. .    .. .    .. .    .. .    .. .    .. .    .. .    .. .    .. .    .. .    .. .    .. .    .. .    .. .    .. .    .. .    .. .    ",
" .    .  .    .  .    .  .    .  .    .  .    .  .    .  .    .  .    .  .    .  .    .  .    .  .    .  .    .  .    .  .    .  .    .  .    .  .    .  .    .  .    .  .    .  .    .  .    .  .    .  .    .  .    .  .    .  .    .  .    .  .    .  .    .  .    .  .    .  .    .  .    .  .    .  .    .  .    .  .    .  .    .  .    .  .    .  .    .  .    .  .    .  .    .  .    .  .    .  .    .  .    .  .    .  .    .  .    .  .    .  .    .  .    .  .    .  .    .  .    .  .    .  .    .  .    .  .    .  .    .  .    .  .    .  .    .  .    .  .    .  .    .  .    .  .    .  .    .  .    .  .    .  .    .  .    .  .    .  .    .  .    .  .    .  .    .  .    .  .    .  .    .  .    .  .    .  .    .  .    .  .    .  .    .  .    .  .    .  .    .  .    .  .    .  .    .  .    .  .    .  .    .  .    .  .    .  .    .  .    .  .    .  .    .  .    .  .    .  .    .  .    .  .    .  .    .  .    .  .    .  .    .  .    .  .    .  .    .  .    .  .    .  .    .  .    .  .    .  .    .  .    .  .    .  .    . ",
"    .  .    .  .    .  .    .  .    .  .    .  .    .  .    .  .    .  .    .  .    .  .    .  .    .  .    .  .    .  .    .  .    .  .    .  .    .  .    .  .    .  .    .  .    .  .    .  .    .  .    .  .    .  .    .  .    .  .    .  .    .  .    .  .    .  .    .  .    .  .    .  .    .  .    .  .    .  .    .  .    .  .    .  .    .  .    .  .    .  .    .  .    .  .    .  .    .  .    .  .    .  .    .  .    .  .    .  .    .  .    .  .    .  .    .  .    .  .    .  .    .  .    .  .    .  .    .  .    .  .    .  .    .  .    .  .    .  .    .  .    .  .    .  .    .  .    .  .    .  .    .  .    .  .    .  .    .  .    .  .    .  .    .  .    .  .    .  .    .  .    .  .    .  .    .  .    .  .    .  .    .  .    .  .    .  .    .  .    .  .    .  .    .  .    .  .    .  .    .  .    .  .    .  .    .  .    .  .    .  .    .  .    .  .    .  .    .  .    .  .    .  .    .  .    .  .    .  .    .  .    .  .    .  .    .  .    .  .    .  .    .  .    .  .    .  .    .  .    .  .    .  .    .  .    .  .",
"  .  .    .  .    .  .    .  .    .  .    .  .    .  .    .  .    .  .    .  .    .  .    .  .    .  .    .  .    .  .    .  .    .  .    .  .    .  .    .  .    .  .    .  .    .  .    .  .    .  .    .  .    .  .    .  .    .  .    .  .    .  .    .  .    .  .    .  .    .  .    .  .    .  .    .  .    .  .    .  .    .  .    .  .    .  .    .  .    .  .    .  .    .  .    .  .    .  .    .  .    .  .    .  .    .  .    .  .    .  .    .  .    .  .    .  .    .  .    .  .    .  .    .  .    .  .    .  .    .  .    .  .    .  .    .  .    .  .    .  .    .  .    .  .    .  .    .  .    .  .    .  .    .  .    .  .    .  .    .  .    .  .    .  .    .  .    .  .    .  .    .  .    .  .    .  .    .  .    .  .    .  .    .  .    .  .    .  .    .  .    .  .    .  .    .  .    .  .    .  .    .  .    .  .    .  .    .  .    .  .    .  .    .  .    .  .    .  .    .  .    .  .    .  .    .  .    .  .    .  .    .  .    .  .    .  .    .  .    .  .    .  .    .  .    .  .    .  .    .  .    .  .    .  .    .  .  ",
".  .    .  .    .  .    .  .    .  .    .  .    .  .    .  .    .  .    .  .    .  .    .  .    .  .    .  .    .  .    .  .    .  .    .  .    .  .    .  .    .  .    .  .    .  .    .  .    .  .    .  .    .  .    .  .    .  .    .  .    .  .    .  .    .  .    .  .    .  .    .  .    .  .    .  .    .  .    .  .    .  .    .  .    .  .    .  .    .  .    .  .    .  .    .  .    .  .    .  .    .  .    .  .    .  .    .  .    .  .    .  .    .  .    .  .    .  .    .  .    .  .    .  .    .  .    .  .    .  .    .  .    .  .    .  .    .  .    .  .    .  .    .  .    .  .    .  .    .  .    .  .    .  .    .  .    .  .    .  .    .  .    .  .    .  .    .  .    .  .    .  .    .  .    .  .    .  .    .  .    .  .    .  .    .  .    .  .    .  .    .  .    .  .    .  .    .  .    .  .    .  .    .  .    .  .    .  .    .  .    .  .    .  .    .  .    .  .    .  .    .  .    .  .    .  .    .  .    .  .    .  .    .  .    .  .    .  .    .  .    .  .    .  .    .  .    .  .    .  .    .  .    .  .    .  .    ",
" .    .  .    .  .    .  .    .  .    .  .    .  .    .  .    .  .    .  .    .  .    .  .    .  .    .  .    .  .    .  .    .  .    .  .    .  .    .  .    .  .    .  .    .  .    .  .    .  .    .  .    .  .    .  .    .  .    .  .    .  .    .  .    .  .    .  .    .  .    .  .    .  .    .  .    .  .    .  .    .  .    .  .    .  .    .  .    .  .    .  .    .  .    .  .    .  .    .  .    .  .    .  .    .  .    .  .    .  .    .  .    .  .    .  .    .  .    .  .    .  .    .  .    .  .    .  .    .  .    .  .    .  .    .  .    .  .    .  .    .  .    .  .    .  .    .  .    .  .    .  .    .  .    .  .    .  .    .  .    .  .    .  .    .  .    .  .    .  .    .  .    .  .    .  .    .  .    .  .    .  .    .  .    .  .    .  .    .  .    .  .    .  .    .  .    .  .    .  .    .  .    .  .    .  .    .  .    .  .    .  .    .  .    .  .    .  .    .  .    .  .    .  .    .  .    .  .    .  .    .  .    .  .    .  .    .  .    .  .    .  .    .  .    .  .    .  .    .  .    .  .    .  .    .  .    . ",
"    .  .    .  .    .  .    .  .    .  .    .  .    .  .    .  .    .  .    .  .    .  .    .  .    .  .    .  .    .  .    .  .    .  .    .  .    .  .    .  .    .  .    .  .    .  .    .  .    .  .    .  .    .  .    .  .    .  .    .  .    .  .    .  .    .  .    .  .    .  .    .  .    .  .    .  .    .  .    .  .    .  .    .  .    .  .    .  .    .  .    .  .    .  .    .  .    .  .    .  .    .  .    .  .    .  .    .  .    .  .    .  .    .  .    .  .    .  .    .  .    .  .    .  .    .  .    .  .    .  .    .  .    .  .    .  .    .  .    .  .    .  .    .  .    .  .    .  .    .  .    .  .    .  .    .  .    .  .    .  .    .  .    .  .    .  .    .  .    .  .    .  .    .  .    .  .    .  .    .  .    .  .    .  .    .  .    .  .    .  .    .  .    .  .    .  .    .  .    .  .    .  .    .  .    .  .    .  .    .  .    .  .    .  .    .  .    .  .    .  .    .  .    .  .    .  .    .  .    .  .    .  .    .  .    .  .    .  .    .  .    .  .    .  .    .  .    .  .    .  .    .  .    .  .    .  .",
"  .  .    .  .    .  .    .  .    .  .    .  .    .  .    .  .    .  .    .  .    .  .    .  .    .  .    .  .    .  .    .  .    .  .    .  .    .  .    .  .    .  .    .  .    .  .    .  .    .  .    .  .    .  .    .  .    .  .    .  .    .  .    .  .    .  .    .  .    .  .    .  .    .  .    .  .    .  .    .  .    .  .    .  .    .  .    .  .    .  .    .  .    .  .    .  .    .  .    .  .    .  .    .  .    .  .    .  .    .  .    .  .    .  .    .  .    .  .    .  .    .  .    .  .    .  .    .  .    .  .    .  .    .  .    .  .    .  .    .  .    .  .    .  .    .  .    .  .    .  .    .  .    .  .    .  .    .  .    .  .    .  .    .  .    .  .    .  .    .  .    .  .    .  .    .  .    .  .    .  .    .  .    .  .    .  .    .  .    .  .    .  .    .  .    .  .    .  .    .  .    .  .    .  .    .  .    .  .    .  .    .  .    .  .    .  .    .  .    .  .    .  .    .  .    .  .    .  .    .  .    .  .    .  .    .  .    .  .    .  .    .  .    .  .    .  .    .  .    .  .    .  .    .  .    .  .  ",
".  .    .  .    .  .    .  .    .  .    .  .    .  .    .  .    .  .    .  .    .  .    .  .    .  .    .  .    .  .    .  .    .  .    .  .    .  .    .  .    .  .    .  .    .  .    .  .    .  .    .  .    .  .    .  .    .  .    .  .    .  .    .  .    .  .    .  .    .  .    .  .    .  .    .  .    .  .    .  .    .  .    .  .    .  .    .  .    .  .    .  .    .  .    .  .    .  .    .  .    .  .    .  .    .  .    .  .    .  .    .  .    .  .    .  .    .  .    .  .    .  .    .  .    .  .    .  .    .  .    .  .    .  .    .  .    .  .    .  .    .  .    .  .    .  .    .  .    .  .    .  .    .  .    .  .    .  .    .  .    .  .    .  .    .  .    .  .    .  .    .  .    .  .    .  .    .  .    .  .    .  .    .  .    .  .    .  .    .  .    .  .    .  .    .  .    .  .    .  .    .  .    .  .    .  .    .  .    .  .    .  .    .  .    .  .    .  .    .  .    .  .    .  .    .  .    .  .    .  .    .  .    .  .    .  .    .  .    .  .    .  .    .  .    .  .    .  .    .  .    .  .    .  .    .  .    ",
" .    .  .    .  .    .  .    .  .    .  .    .  .    .  .    .  .    .  .    .  .    .  .    .  .    .  .    .  .    .  .    .  .    .  .    .  .    .  .    .  .    .  .    .  .    .  .    .  .    .  .    .  .    .  .    .  .    .  .    .  .    .  .    .  .    .  .    .  .    .  .    .  .    .  .    .  .    .  .    .  .    .  .    .  .    .  .    .  .    .  .    .  .    .  .    .  .    .  .    .  .    .  .    .  .    .  .    .  .    .  .    .  .    .  .    .  .    .  .    .  .    .  .    .  .    .  .    .  .    .  .    .  .    .  .    .  .    .  .    .  .    .  .    .  .    .  .    .  .    .  .    .  .    .  .    .  .    .  .    .  .    .  .    .  .    .  .    .  .    .  .    .  .    .  .    .  .    .  .    .  .    .  .    .  .    .  .    .  .    .  .    .  .    .  .    .  .    .  .    .  .    .  .    .  .    .  .    .  .    .  .    .  .    .  .    .  .    .  .    .  .    .  .    .  .    .  .    .  .    .  .    .  .    .  .    .  .    .  .    .  .    .  .    .  .    .  .    .  .    .  .    .  .    .  .    . ",
"    .  .    .  .    .  .    .  .    .  .    .  .    .  .    .  .    .  .    .  .    .  .    .  .    .  .    .  .    .  .    .  .    .  .    .  .    .  .    .  .    .  .    .  .    .  .    .  .    .  .    .  .    .  .    .  .    .  .    .  .    .  .    .  .    .  .    .  .    .  .    .  .    .  .    .  .    .  .    .  .    .  .    .  .    .  .    .  .    .  .    .  .    .  .    .  .    .  .    .  .    .  .    .  .    .  .    .  .    .  .    .  .    .  .    .  .    .  .    .  .    .  .    .  .    .  .    .  .    .  .    .  .    .  .    .  .    .  .    .  .    .  .    .  .    .  .    .  .    .  .    .  .    .  .    .  .    .  .    .  .    .  .    .  .    .  .    .  .    .  .    .  .    .  .    .  .    .  .    .  .    .  .    .  .    .  .    .  .    .  .    .  .    .  .    .  .    .  .    .  .    .  .    .  .    .  .    .  .    .  .    .  .    .  .    .  .    .  .    .  .    .  .    .  .    .  .    .  .    .  .    .  .    .  .    .  .    .  .    .  .    .  .    .  .    .  .    .  .    .  .    .  .    .  .    .  .",
"  .  .    .  .    .  .    .  .    .  .    .  .    .  .    .  .    .  .    .  .    .  .    .  .    .  .    .  .    .  .    .  .    .  .    .  .    .  .    .  .    .  .    .  .    .  .    .  .    .  .    .  .    .  .    .  .    .  .    .  .    .  .    .  .    .  .    .  .    .  .    .  .    .  .    .  .    .  .    .  .    .  .    .  .    .  .    .  .    .  .    .  .    .  .    .  .    .  .    .  .    .  .    .  .    .  .    .  .    .  .    .  .    .  .    .  .    .  .    .  .    .  .    .  .    .  .    .  .    .  .    .  .    .  .    .  .    .  .    .  .    .  .    .  .    .  .    .  .    .  .    .  .    .  .    .  .    .  .    .  .    .  .    .  .    .  .    .  .    .  .    .  .    .  .    .  .    .  .    .  .    .  .    .  .    .  .    .  .    .  .    .  .    .  .    .  .    .  .    .  .    .  .    .  .    .  .    .  .    .  .    .  .    .  .    .  .    .  .    .  .    .  .    .  .    .  .    .  .    .  .    .  .    .  .    .  .    .  .    .  .    .  .    .  .    .  .    .  .    .  .    .  .    .  .    .  .  ",
".  .    .  .    .  .    .  .    .  .    .  .    .  .    .  .    .  .    .  .    .  .    .  .    .  .    .  .    .  .    .  .    .  .    .  .    .  .    .  .    .  .    .  .    .  .    .  .    .  .    .  .    .  .    .  .    .  .    .  .    .  .    .  .    .  .    .  .    .  .    .  .    .  .    .  .    .  .    .  .    .  .    .  .    .  .    .  .    .  .    .  .    .  .    .  .    .  .    .  .    .  .    .  .    .  .    .  .    .  .    .  .    .  .    .  .    .  .    .  .    .  .    .  .    .  .    .  .    .  .    .  .    .  .    .  .    .  .    .  .    .  .    .  .    .  .    .  .    .  .    .  .    .  .    .  .    .  .    .  .    .  .    .  .    .  .    .  .    .  .    .  .    .  .    .  .    .  .    .  .    .  .    .  .    .  .    .  .    .  .    .  .    .  .    .  .    .  .    .  .    .  .    .  .    .  .    .  .    .  .    .  .    .  .    .  .    .  .    .  .    .  .    .  .    .  .    .  .    .  .    .  .    .  .    .  .    .  .    .  .    .  .    .  .    .  .    .  .    .  .    .  .    .  .    .  .    ",
" .    .  .    .  .    .  .    .  .    .  .    .  .    .  .    .  .    .  .    .  .    .  .    .  .    .  .    .  .    .  .    .  .    .  .    .  .    .  .    .  .    .  .    .  .    .  .    .  .    .  .    .  .    .  .    .  .    .  .    .  .    .  .    .  .    .  .    .  .    .  .    .  .    .  .    .  .    .  .    .  .    .  .    .  .    .  .    .  .    .  .    .  .    .  .    .  .    .  .    .  .    .  .    .  .    .  .    .  .    .  .    .  .    .  .    .  .    .  .    .  .    .  .    .  .    .  .    .  .    .  .    .  .    .  .    .  .    .  .    .  .    .  .    .  .    .  .    .  .    .  .    .  .    .  .    .  .    .  .    .  .    .  .    .  .    .  .    .  .    .  .    .  .    .  .    .  .    .  .    .  .    .  .    .  .    .  .    .  .    .  .    .  .    .  .    .  .    .  .    .  .    .  .    .  .    .  .    .  .    .  .    .  .    .  .    .  .    .  .    .  .    .  .    .  .    .  .    .  .    .  .    .  .    .  .    .  .    .  .    .  .    .  .    .  .    .  .    .  .    .  .    .  .    .  .    . ",
"    .  .    .  .    .  .    .  .    .  .    .  .    .  .    .  .    .  .    .  .    .  .    .  .    .  .    .  .    .  .    .  .    .  .    .  .    .  .    .  .    .  .    .  .    .  .    .  .    .  .    .  .    .  .    .  .    .  .    .  .    .  .    .  .    .  .    .  .    .  .    .  .    .  .    .  .    .  .    .  .    .  .    .  .    .  .    .  .    .  .    .  .    .  .    .  .    .  .    .  .    .  .    .  .    .  .    .  .    .  .    .  .    .  .    .  .    .  .    .  .    .  .    .  .    .  .    .  .    .  .    .  .    .  .    .  .    .  .    .  .    .  .    .  .    .  .    .  .    .  .    .  .    .  .    .  .    .  .    .  .    .  .    .  .    .  .    .  .    .  .    .  .    .  .    .  .    .  .    .  .    .  .    .  .    .  .    .  .    .  .    .  .    .  .    .  .    .  .    .  .    .  .    .  .    .  .    .  .    .  .    .  .    .  .    .  .    .  .    .  .    .  .    .  .    .  .    .  .    .  .    .  .    .  .    .  .    .  .    .  .    .  .    .  .    .  .    .  .    .  .    .  .    .  .    .  .",
"  .  .    .  .    .  .    .  .    .  .    .  .    .  .    .  .    .  .    .  .    .  .    .  .    .  .    .  .    .  .    .  .    .  .    .  .    .  .    .  .    .  .    .  .    .  .    .  .    .  .    .  .    .  .    .  .    .  .    .  .    .  .    .  .    .  .    .  .    .  .    .  .    .  .    .  .    .  .    .  .    .  .    .  .    .  .    .  .    .  .    .  .    .  .    .  .    .  .    .  .    .  .    .  .    .  .    .  .    .  .    .  .    .  .    .  .    .  .    .  .    .  .    .  .    .  .    .  .    .  .    .  .    .  .    .  .    .  .    .  .    .  .    .  .    .  .    .  .    .  .    .  .    .  .    .  .    .  .    .  .    .  .    .  .    .  .    .  .    .  .    .  .    .  .    .  .    .  .    .  .    .  .    .  .    .  .    .  .    .  .    .  .    .  .    .  .    .  .    .  .    .  .    .  .    .  .    .  .    .  .    .  .    .  .    .  .    .  .    .  .    .  .    .  .    .  .    .  .    .  .    .  .    .  .    .  .    .  .    .  .    .  .    .  .    .  .    .  .    .  .    .  .    .  .    .  .  ",
".  .    .  .    .  .    .  .    .  .    .  .    .  .    .  .    .  .    .  .    .  .    .  .    .  .    .  .    .  .    .  .    .  .    .  .    .  .    .  .    .  .    .  .    .  .    .  .    .  .    .  .    .  .    .  .    .  .    .  .    .  .    .  .    .  .    .  .    .  .    .  .    .  .    .  .    .  .    .  .    .  .    .  .    .  .    .  .    .  .    .  .    .  .    .  .    .  .    .  .    .  .    .  .    .  .    .  .    .  .    .  .    .  .    .  .    .  .    .  .    .  .    .  .    .  .    .  .    .  .    .  .    .  .    .  .    .  .    .  .    .  .    .  .    .  .    .  .    .  .    .  .    .  .    .  .    .  .    .  .    .  .    .  .    .  .    .  .    .  .    .  .    .  .    .  .    .  .    .  .    .  .    .  .    .  .    .  .    .  .    .  .    .  .    .  .    .  .    .  .    .  .    .  .    .  .    .  .    .  .    .  .    .  .    .  .    .  .    .  .    .  .    .  .    .  .    .  .    .  .    .  .    .  .    .  .    .  .    .  .    .  .    .  .    .  .    .  .    .  .    .  .    .  .    .  .    ",
" .    .  .    .  .    .  .    .  .    .  .    .  .    .  .    .  .    .  .    .  .    .  .    .  .    .  .    .  .    .  .    .  .    .  .    .  .    .  .    .  .    .  .    .  .    .  .    .  .    .  .    .  .    .  .    .  .    .  .    .  .    .  .    .  .    .  .    .  .    .  .    .  .    .  .    .  .    .  .    .  .    .  .    .  .    .  .    .  .    .  .    .  .    .  .    .  .    .  .    .  .    .  .    .  .    .  .    .  .    .  .    .  .    .  .    .  .    .  .    .  .    .  .    .  .    .  .    .  .    .  .    .  .    .  .    .  .    .  .    .  .    .  .    .  .    .  .    .  .    .  .    .  .    .  .    .  .    .  .    .  .    .  .    .  .    .  .    .  .    .  .    .  .    .  .    .  .    .  .    .  .    .  .    .  .    .  .    .  .    .  .    .  .    .  .    .  .    .  .    .  .    .  .    .  .    .  .    .  .    .  .    .  .    .  .    .  .    .  .    .  .    .  .    .  .    .  .    .  .    .  .    .  .    .  .    .  .    .  .    .  .    .  .    .  .    .  .    .  .    .  .    .  .    .  .    . ",
"    .  .    .  .    .  .    .  .    .  .    .  .    .  .    .  .    .  .    .  .    .  .    .  .    .  .    .  .    .  .    .  .    .  .    .  .    .  .    .  .    .  .    .  .    .  .    .  .    .  .    .  .    .  .    .  .    .  .    .  .    .  .    .  .    .  .    .  .    .  .    .  .    .  .    .  .    .  .    .  .    .  .    .  .    .  .    .  .    .  .    .  .    .  .    .  .    .  .    .  .    .  .    .  .    .  .    .  .    .  .    .  .    .  .    .  .    .  .    .  .    .  .    .  .    .  .    .  .    .  .    .  .    .  .    .  .    .  .    .  .    .  .    .  .    .  .    .  .    .  .    .  .    .  .    .  .    .  .    .  .    .  .    .  .    .  .    .  .    .  .    .  .    .  .    .  .    .  .    .  .    .  .    .  .    .  .    .  .    .  .    .  .    .  .    .  .    .  .    .  .    .  .    .  .    .  .    .  .    .  .    .  .    .  .    .  .    .  .    .  .    .  .    .  .    .  .    .  .    .  .    .  .    .  .    .  .    .  .    .  .    .  .    .  .    .  .    .  .    .  .    .  .    .  .    .  .",
"  .  .    .  .    .  .    .  .    .  .    .  .    .  .    .  .    .  .    .  .    .  .    .  .    .  .    .  .    .  .    .  .    .  .    .  .    .  .    .  .    .  .    .  .    .  .    .  .    .  .    .  .    .  .    .  .    .  .    .  .    .  .    .  .    .  .    .  .    .  .    .  .    .  .    .  .    .  .    .  .    .  .    .  .    .  .    .  .    .  .    .  .    .  .    .  .    .  .    .  .    .  .    .  .    .  .    .  .    .  .    .  .    .  .    .  .    .  .    .  .    .  .    .  .    .  .    .  .    .  .    .  .    .  .    .  .    .  .    .  .    .  .    .  .    .  .    .  .    .  .    .  .    .  .    .  .    .  .    .  .    .  .    .  .    .  .    .  .    .  .    .  .    .  .    .  .    .  .    .  .    .  .    .  .    .  .    .  .    .  .    .  .    .  .    .  .    .  .    .  .    .  .    .  .    .  .    .  .    .  .    .  .    .  .    .  .    .  .    .  .    .  .    .  .    .  .    .  .    .  .    .  .    .  .    .  .    .  .    .  .    .  .    .  .    .  .    .  .    .  .    .  .    .  .    .  .  ",
".  .    .  .    .  .    .  .    .  .    .  .    .  .    .  .    .  .    .  .    .  .    .  .    .  .    .  .    .  .    .  .    .  .    .  .    .  .    .  .    .  .    .  .    .  .    .  .    .  .    .  .    .  .    .  .    .  .    .  .    .  .    .  .    .  .    .  .    .  .    .  .    .  .    .  .    .  .    .  .    .  .    .  .    .  .    .  .    .  .    .  .    .  .    .  .    .  .    .  .    .  .    .  .    .  .    .  .    .  .    .  .    .  .    .  .    .  .    .  .    .  .    .  .    .  .    .  .    .  .    .  .    .  .    .  .    .  .    .  .    .  .    .  .    .  .    .  .    .  .    .  .    .  .    .  .    .  .    .  .    .  .    .  .    .  .    .  .    .  .    .  .    .  .    .  .    .  .    .  .    .  .    .  .    .  .    .  .    .  .    .  .    .  .    .  .    .  .    .  .    .  .    .  .    .  .    .  .    .  .    .  .    .  .    .  .    .  .    .  .    .  .    .  .    .  .    .  .    .  .    .  .    .  .    .  .    .  .    .  .    .  .    .  .    .  .    .  .    .  .    .  .    .  .    .  .    ",
" .    .  .    .  .    .  .    .  .    .  .    .  .    .  .    .  .    .  .    .  .    .  .    .  .    .  .    .  .    .  .    .  .    .  .    .  .    .  .    .  .    .  .    .  .    .  .    .  .    .  .    .  .    .  .    .  .    .  .    .  .    .  .    .  .    .  .    .  .    .  .    .  .    .  .    .  .    .  .    .  .    .  .    .  .    .  .    .  .    .  .    .  .    .  .    .  .    .  .    .  .    .  .    .  .    .  .    .  .    .  .    .  .    .  .    .  .    .  .    .  .    .  .    .  .    .  .    .  .    .  .    .  .    .  .    .  .    .  .    .  .    .  .    .  .    .  .    .  .    .  .    .  .    .  .    .  .    .  .    .  .    .  .    .  .    .  .    .  .    .  .    .  .    .  .    .  .    .  .    .  .    .  .    .  .    .  .    .  .    .  .    .  .    .  .    .  .    .  .    .  .    .  .    .  .    .  .    .  .    .  .    .  .    .  .    .  .    .  .    .  .    .  .    .  .    .  .    .  .    .  .    .  .    .  .    .  .    .  .    .  .    .  .    .  .    .  .    .  .    .  .    .  .    .  .    . ",
"    .  .    .  .    .  .    .  .    .  .    .  .    .  .    .  .    .  .    .  .    .  .    .  .    .  .    .  .    .  .    .  .    .  .    .  .    .  .    .  .    .  .    .  .    .  .    .  .    .  .    .  .    .  .    .  .    .  .    .  .    .  .    .  .    .  .    .  .    .  .    .  .    .  .    .  .    .  .    .  .    .  .    .  .    .  .    .  .    .  .    .  .    .  .    .  .    .  .    .  .    .  .    .  .    .  .    .  .    .  .    .  .    .  .    .  .    .  .    .  .    .  .    .  .    .  .    .  .    .  .    .  .    .  .    .  .    .  .    .  .    .  .    .  .    .  .    .  .    .  .    .  .    .  .    .  .    .  .    .  .    .  .    .  .    .  .    .  .    .  .    .  .    .  .    .  .    .  .    .  .    .  .    .  .    .  .    .  .    .  .    .  .    .  .    .  .    .  .    .  .    .  .    .  .    .  .    .  .    .  .    .  .    .  .    .  .    .  .    .  .    .  .    .  .    .  .    .  .    .  .    .  .    .  .    .  .    .  .    .  .    .  .    .  .    .  .    .  .    .  .    .  .    .  .    .  .",
"  .  .    .  .    .  .    .  .    .  .    .  .    .  .    .  .    .  .    .  .    .  .    .  .    .  .    .  .    .  .    .  .    .  .    .  .    .  .    .  .    .  .    .  .    .  .    .  .    .  .    .  .    .  .    .  .    .  .    .  .    .  .    .  .    .  .    .  .    .  .    .  .    .  .    .  .    .  .    .  .    .  .    .  .    .  .    .  .    .  .    .  .    .  .    .  .    .  .    .  .    .  .    .  .    .  .    .  .    .  .    .  .    .  .    .  .    .  .    .  .    .  .    .  .    .  .    .  .    .  .    .  .    .  .    .  .    .  .    .  .    .  .    .  .    .  .    .  .    .  .    .  .    .  .    .  .    .  .    .  .    .  .    .  .    .  .    .  .    .  .    .  .    .  .    .  .    .  .    .  .    .  .    .  .    .  .    .  .    .  .    .  .    .  .    .  .    .  .    .  .    .  .    .  .    .  .    .  .    .  .    .  .    .  .    .  .    .  .    .  .    .  .    .  .    .  .    .  .    .  .    .  .    .  .    .  .    .  .    .  .    .  .    .  .    .  .    .  .    .  .    .  .    .  .    .  .  ",
".  .    .  .    .  .    .  .    .  .    .  .    .  .    .  .    .  .    .  .    .  .    .  .    .  .    .  .    .  .    .  .    .  .    .  .    .  .    .  .    .  .    .  .    .  .    .  .    .  .    .  .    .  .    .  .    .  .    .  .    .  .    .  .    .  .    .  .    .  .    .  .    .  .    .  .    .  .    .  .    .  .    .  .    .  .    .  .    .  .    .  .    .  .    .  .    .  .    .  .    .  .    .  .    .  .    .  .    .  .    .  .    .  .    .  .    .  .    .  .    .  .    .  .    .  .    .  .    .  .    .  .    .  .    .  .    .  .    .  .    .  .    .  .    .  .    .  .    .  .    .  .    .  .    .  .    .  .    .  .    .  .    .  .    .  .    .  .    .  .    .  .    .  .    .  .    .  .    .  .    .  .    .  .    .  .    .  .    .  .    .  .    .  .    .  .    .  .    .  .    .  .    .  .    .  .    .  .    .  .    .  .    .  .    .  .    .  .    .  .    .  .    .  .    .  .    .  .    .  .    .  .    .  .    .  .    .  .    .  .    .  .    .  .    .  .    .  .    .  .    .  .    .  .    .  .    ",
" .    .  .    .  .    .  .    .  .    .  .    .  .    .  .    .  .    .  .    .  .    .  .    .  .    .  .    .  .    .  .    .  .    .  .    .  .    .  .    .  .    .  .    .  .    .  .    .  .    .  .    .  .    .  .    .  .    .  .    .  .    .  .    .  .    .  .    .  .    .  .    .  .    .  .    .  .    .  .    .  .    .  .    .  .    .  .    .  .    .  .    .  .    .  .    .  .    .  .    .  .    .  .    .  .    .  .    .  .    .  .    .  .    .  .    .  .    .  .    .  .    .  .    .  .    .  .    .  .    .  .    .  .    .  .    .  .    .  .    .  .    .  .    .  .    .  .    .  .    .  .    .  .    .  .    .  .    .  .    .  .    .  .    .  .    .  .    .  .    .  .    .  .    .  .    .  .    .  .    .  .    .  .    .  .    .  .    .  .    .  .    .  .    .  .    .  .    .  .    .  .    .  .    .  .    .  .    .  .    .  .    .  .    .  .    .  .    .  .    .  .    .  .    .  .    .  .    .  .    .  .    .  .    .  .    .  .    .  .    .  .    .  .    .  .    .  .    .  .    .  .    .  .    .  .    . ",
"       .       .       .       .       .       .       .       .       .       .       .       .       .       .       .       .       .       .       .       .       .       .       .       .       .       .       .       .       .       .       .       .       .       .       .       .       .       .       .       .       .       .       .       .       .       .       .       .       .       .       .       .       .       .       .       .       .       .       .       .       .       .       .       .       .       .       .       .       .       .       .       .       .       .       .       .       .       .       .       .       .       .       .       .       .       .       .       .       .       .       .       .       .       .       .       .       .       .       .       .       .       .       .       .       .       .       .       .       .       .       .       .       .       .       .       .       .       .       .       .       .       .       .       .       .       .       .       .",
"  .       .       .       .       .       .       .       .       .       .       .       .       .       .       .       .       .       .       .       .       .       .       .       .       .       .       .       .       .       .       .       .       .       .       .       .       .       .       .       .       .       .       .       .       .       .       .       .       .       .       .       .       .       .       .       .       .       .       .       .       .       .       .       .       .       .       .       .       .       .       .       .       .       .       .       .       .       .       .       .       .       .       .       .       .       .       .       .       .       .       .       .       .       .       .       .       .       .       .       .       .       .       .       .       .       .       .       .       .       .       .       .       .       .       .       .       .       .       .       .       .       .       .       .       .       .       .       .     ",
".  .    .  .    .  .    .  .    .  .    .  .    .  .    .  .    .  .    .  .    .  .    .  .    .  .    .  .    .  .    .  .    .  .    .  .    .  .    .  .    .  .    .  .    .  .    .  .    .  .    .  .    .  .    .  .    .  .    .  .    .  .    .  .    .  .    .  .    .  .    .  .    .  .    .  .    .  .    .  .    .  .    .  .    .  .    .  .    .  .    .  .    .  .    .  .    .  .    .  .    .  .    .  .    .  .    .  .    .  .    .  .    .  .    .  .    .  .    .  .    .  .    .  .    .  .    .  .    .  .    .  .    .  .    .  .    .  .    .  .    .  .    .  .    .  .    .  .    .  .    .  .    .  .    .  .    .  .    .  .    .  .    .  .    .  .    .  .    .  .    .  .    .  .    .  .    .  .    .  .    .  .    .  .    .  .    .  .    .  .    .  .    .  .    .  .    .  .    .  .    .  .    .  .    .  .    .  .    .  .    .  .    .  .    .  .    .  .    .  .    .  .    .  .    .  .    .  .    .  .    .  .    .  .    .  .    .  .    .  .    .  .    .  .    .  .    .  .    .  .    .  .    .  .    .  .    ",
" .    .  .    .  .    .  .    .  .    .  .    .  .    .  .    .  .    .  .    .  .    .  .    .  .    .  .    .  .    .  .    .  .    .  .    .  .    .  .    .  .    .  .    .  .    .  .    .  .    .  .    .  .    .  .    .  .    .  .    .  .    .  .    .  .    .  .    .  .    .  .    .  .    .  .    .  .    .  .    .  .    .  .    .  .    .  .    .  .    .  .    .  .    .  .    .  .    .  .    .  .    .  .    .  .    .  .    .  .    .  .    .  .    .  .    .  .    .  .    .  .    .  .    .  .    .  .    .  .    .  .    .  .    .  .    .  .    .  .    .  .    .  .    .  .    .  .    .  .    .  .    .  .    .  .    .  .    .  .    .  .    .  .    .  .    .  .    .  .    .  .    .  .    .  .    .  .    .  .    .  .    .  .    .  .    .  .    .  .    .  .    .  .    .  .    .  .    .  .    .  .    .  .    .  .    .  .    .  .    .  .    .  .    .  .    .  .    .  .    .  .    .  .    .  .    .  .    .  .    .  .    .  .    .  .    .  .    .  .    .  .    .  .    .  .    .  .    .  .    .  .    .  .    .  .    . ",
"    .  .    .  .    .  .    .  .    .  .    .  .    .  .    .  .    .  .    .  .    .  .    .  .    .  .    .  .    .  .    .  .    .  .    .  .    .  .    .  .    .  .    .  .    .  .    .  .    .  .    .  .    .  .    .  .    .  .    .  .    .  .    .  .    .  .    .  .    .  .    .  .    .  .    .  .    .  .    .  .    .  .    .  .    .  .    .  .    .  .    .  .    .  .    .  .    .  .    .  .    .  .    .  .    .  .    .  .    .  .    .  .    .  .    .  .    .  .    .  .    .  .    .  .    .  .    .  .    .  .    .  .    .  .    .  .    .  .    .  .    .  .    .  .    .  .    .  .    .  .    .  .    .  .    .  .    .  .    .  .    .  .    .  .    .  .    .  .    .  .    .  .    .  .    .  .    .  .    .  .    .  .    .  .    .  .    .  .    .  .    .  .    .  .    .  .    .  .    .  .    .  .    .  .    .  .    .  .    .  .    .  .    .  .    .  .    .  .    .  .    .  .    .  .    .  .    .  .    .  .    .  .    .  .    .  .    .  .    .  .    .  .    .  .    .  .    .  .    .  .    .  .    .  .    .  .",
"     .       .       .       .       .       .       .       .       .       .       .       .       .       .       .       .       .       .       .       .       .       .       .       .       .       .       .       .       .       .       .       .       .       .       .       .       .       .       .       .       .       .       .       .       .       .       .       .       .       .       .       .       .       .       .       .       .       .       .       .       .       .       .       .       .       .       .       .       .       .       .       .       .       .       .       .       .       .       .       .       .       .       .       .       .       .       .       .       .       .       .       .       .       .       .       .       .       .       .       .       .       .       .       .       .       .       .       .       .       .       .       .       .       .       .       .       .       .       .       .       .       .       .       .       .       .       .       .  ",
".       .       .       .       .       .       .       .       .       .       .       .       .       .       .       .       .       .       .       .       .       .       .       .       .       .       .       .       .       .       .       .       .       .       .       .       .       .       .       .       .       .       .       .       .       .       .       .       .       .       .       .       .       .       .       .       .       .       .       .       .       .       .       .       .       .       .       .       .       .       .       .       .       .       .       .       .       .       .       .       .       .       .       .       .       .       .       .       .       .       .       .       .       .       .       .       .       .       .       .       .       .       .       .       .       .       .       .       .       .       .       .       .       .       .       .       .       .       .       .       .       .       .       .       .       .       .       .       ",
" .    .  .    .  .    .  .    .  .    .  .    .  .    .  .    .  .    .  .    .  .    .  .    .  .    .  .    .  .    .  .    .  .    .  .    .  .    .  .    .  .    .  .    .  .    .  .    .  .    .  .    .  .    .  .    .  .    .  .    .  .    .  .    .  .    .  .    .  .    .  .    .  .    .  .    .  .    .  .    .  .    .  .    .  .    .  .    .  .    .  .    .  .    .  .    .  .    .  .    .  .    .  .    .  .    .  .    .  .    .  .    .  .    .  .    .  .    .  .    .  .    .  .    .  .    .  .    .  .    .  .    .  .    .  .    .  .    .  .    .  .    .  .    .  .    .  .    .  .    .  .    .  .    .  .    .  .    .  .    .  .    .  .    .  .    .  .    .  .    .  .    .  .    .  .    .  .    .  .    .  .    .  .    .  .    .  .    .  .    .  .    .  .    .  .    .  .    .  .    .  .    .  .    .  .    .  .    .  .    .  .    .  .    .  .    .  .    .  .    .  .    .  .    .  .    .  .    .  .    .  .    .  .    .  .    .  .    .  .    .  .    .  .    .  .    .  .    .  .    .  .    .  .    .  .    . ",
"       .       .       .       .       .       .       .       .       .       .       .       .       .       .       .       .       .       .       .       .       .       .       .       .       .       .       .       .       .       .       .       .       .       .       .       .       .       .       .       .       .       .       .       .       .       .       .       .       .       .       .       .       .       .       .       .       .       .       .       .       .       .       .       .       .       .       .       .       .       .       .       .       .       .       .       .       .       .       .       .       .       .       .       .       .       .       .       .       .       .       .       .       .       .       .       .       .       .       .       .       .       .       .       .       .       .       .       .       .       .       .       .       .       .       .       .       .       .       .       .       .       .       .       .       .       .       .       .",
"  .       .       .       .       .       .       .       .       .       .       .       .       .       .       .       .       .       .       .       .       .       .       .       .       .       .       .       .       .       .       .       .       .       .       .       .       .       .       .       .       .       .       .       .       .       .       .       .       .       .       .       .       .       .       .       .       .       .       .       .       .       .       .       .       .       .       .       .       .       .       .       .       .       .       .       .       .       .       .       .       .       .       .       .       .       .       .       .       .       .       .       .       .       .       .       .       .       .       .       .       .       .       .       .       .       .       .       .       .       .       .       .       .       .       .       .       .       .       .       .       .       .       .       .       .       .       .       .     ",
".  .    .  .    .  .    .  .    .  .    .  .    .  .    .  .    .  .    .  .    .  .    .  .    .  .    .  .    .  .    .  .    .  .    .  .    .  .    .  .    .  .    .  .    .  .    .  .    .  .    .  .    .  .    .  .    .  .    .  .    .  .    .  .    .  .    .  .    .  .    .  .    .  .    .  .    .  .    .  .    .  .    .  .    .  .    .  .    .  .    .  .    .  .    .  .    .  .    .  .    .  .    .  .    .  .    .  .    .  .    .  .    .  .    .  .    .  .    .  .    .  .    .  .    .  .    .  .    .  .    .  .    .  .    .  .    .  .    .  .    .  .    .  .    .  .    .  .    .  .    .  .    .  .    .  .    .  .    .  .    .  .    .  .    .  .    .  .    .  .    .  .    .  .    .  .    .  .    .  .    .  .    .  .    .  .    .  .    .  .    .  .    .  .    .  .    .  .    .  .    .  .    .  .    .  .    .  .    .  .    .  .    .  .    .  .    .  .    .  .    .  .    .  .    .  .    .  .    .  .    .  .    .  .    .  .    .  .    .  .    .  .    .  .    .  .    .  .    .  .    .  .    .  .    .  .    ",
" .    .  .    .  .    .  .    .  .    .  .    .  .    .  .    .  .    .  .    .  .    .  .    .  .    .  .    .  .    .  .    .  .    .  .    .  .    .  .    .  .    .  .    .  .    .  .    .  .    .  .    .  .    .  .    .  .    .  .    .  .    .  .    .  .    .  .    .  .    .  .    .  .    .  .    .  .    .  .    .  .    .  .    .  .    .  .    .  .    .  .    .  .    .  .    .  .    .  .    .  .    .  .    .  .    .  .    .  .    .  .    .  .    .  .    .  .    .  .    .  .    .  .    .  .    .  .    .  .    .  .    .  .    .  .    .  .    .  .    .  .    .  .    .  .    .  .    .  .    .  .    .  .    .  .    .  .    .  .    .  .    .  .    .  .    .  .    .  .    .  .    .  .    .  .    .  .    .  .    .  .    .  .    .  .    .  .    .  .    .  .    .  .    .  .    .  .    .  .    .  .    .  .    .  .    .  .    .  .    .  .    .  .    .  .    .  .    .  .    .  .    .  .    .  .    .  .    .  .    .  .    .  .    .  .    .  .    .  .    .  .    .  .    .  .    .  .    .  .    .  .    .  .    .  .    . ",
"    .  .    .  .    .  .    .  .    .  .    .  .    .  .    .  .    .  .    .  .    .  .    .  .    .  .    .  .    .  .    .  .    .  .    .  .    .  .    .  .    .  .    .  .    .  .    .  .    .  .    .  .    .  .    .  .    .  .    .  .    .  .    .  .    .  .    .  .    .  .    .  .    .  .    .  .    .  .    .  .    .  .    .  .    .  .    .  .    .  .    .  .    .  .    .  .    .  .    .  .    .  .    .  .    .  .    .  .    .  .    .  .    .  .    .  .    .  .    .  .    .  .    .  .    .  .    .  .    .  .    .  .    .  .    .  .    .  .    .  .    .  .    .  .    .  .    .  .    .  .    .  .    .  .    .  .    .  .    .  .    .  .    .  .    .  .    .  .    .  .    .  .    .  .    .  .    .  .    .  .    .  .    .  .    .  .    .  .    .  .    .  .    .  .    .  .    .  .    .  .    .  .    .  .    .  .    .  .    .  .    .  .    .  .    .  .    .  .    .  .    .  .    .  .    .  .    .  .    .  .    .  .    .  .    .  .    .  .    .  .    .  .    .  .    .  .    .  .    .  .    .  .    .  .    .  .",
"     .       .       .       .       .       .       .       .       .       .       .       .       .       .       .       .       .       .       .       .       .       .       .       .       .       .       .       .       .       .       .       .       .       .       .       .       .       .       .       .       .       .       .       .       .       .       .       .       .       .       .       .       .       .       .       .       .       .       .       .       .       .       .       .       .       .       .       .       .       .       .       .       .       .       .       .       .       .       .       .       .       .       .       .       .       .       .       .       .       .       .       .       .       .       .       .       .       .       .       .       .       .       .       .       .       .       .       .       .       .       .       .       .       .       .       .       .       .       .       .       .       .       .       .       .       .       .       .  ",
".       .       .       .       .       .       .       .       .       .       .       .       .       .       .       .       .       .       .       .       .       .       .       .       .       .       .       .       .       .       .       .       .       .       .       .       .       .       .       .       .       .       .       .       .       .       .       .       .       .       .       .       .       .       .       .       .       .       .       .       .       .       .       .       .       .       .       .       .       .       .       .       .       .       .       .       .       .       .       .       .       .       .       .       .       .       .       .       .       .       .       .       .       .       .       .       .       .       .       .       .       .       .       .       .       .       .       .       .       .       .       .       .       .       .       .       .       .       .       .       .       .       .       .       .       .       .       .       ",
" .    .  .    .  .    .  .    .  .    .  .    .  .    .  .    .  .    .  .    .  .    .  .    .  .    .  .    .  .    .  .    .  .    .  .    .  .    .  .    .  .    .  .    .  .    .  .    .  .    .  .    .  .    .  .    .  .    .  .    .  .    .  .    .  .    .  .    .  .    .  .    .  .    .  .    .  .    .  .    .  .    .  .    .  .    .  .    .  .    .  .    .  .    .  .    .  .    .  .    .  .    .  .    .  .    .  .    .  .    .  .    .  .    .  .    .  .    .  .    .  .    .  .    .  .    .  .    .  .    .  .    .  .    .  .    .  .    .  .    .  .    .  .    .  .    .  .    .  .    .  .    .  .    .  .    .  .    .  .    .  .    .  .    .  .    .  .    .  .    .  .    .  .    .  .    .  .    .  .    .  .    .  .    .  .    .  .    .  .    .  .    .  .    .  .    .  .    .  .    .  .    .  .    .  .    .  .    .  .    .  .    .  .    .  .    .  .    .  .    .  .    .  .    .  .    .  .    .  .    .  .    .  .    .  .    .  .    .  .    .  .    .  .    .  .    .  .    .  .    .  .    .  .    .  .    . ",
"       .       .       .       .       .       .       .       .       .       .       .       .       .       .       .       .       .       .       .       .       .       .       .       .       .       .       .       .       .       .       .       .       .       .       .       .       .       .       .       .       .       .       .       .       .       .       .       .       .       .       .       .       .       .       .       .       .       .       .       .       .       .       .       .       .       .       .       .       .       .       .       .       .       .       .       .       .       .       .       .       .       .       .       .       .       .       .       .       .       .       .       .       .       .       .       .       .       .       .       .       .       .       .       .       .       .       .       .       .       .       .       .       .       .       .       .       .       .       .       .       .       .       .       .       .       .       .       .",
"  .       .       .       .       .       .       .       .       .       .       .       .       .       .       .       .       .       .       .       .       .       .       .       .       .       .       .       .       .       .       .       .       .       .       .       .       .       .       .       .       .       .       .       .       .       .       .       .       .       .       .       .       .       .       .       .       .       .       .       .       .       .       .       .       .       .       .       .       .       .       .       .       .       .       .       .       .       .       .       .       .       .       .       .       .       .       .       .       .       .       .       .       .       .       .       .       .       .       .       .       .       .       .       .       .       .       .       .       .       .       .       .       .       .       .       .       .       .       .       .       .       .       .       .       .       .       .       .     ",
".  .    .  .    .  .    .  .    .  .    .  .    .  .    .  .    .  .    .  .    .  .    .  .    .  .    .  .    .  .    .  .    .  .    .  .    .  .    .  .    .  .    .  .    .  .    .  .    .  .    .  .    .  .    .  .    .  .    .  .    .  .    .  .    .  .    .  .    .  .    .  .    .  .    .  .    .  .    .  .    .  .    .  .    .  .    .  .    .  .    .  .    .  .    .  .    .  .    .  .    .  .    .  .    .  .    .  .    .  .    .  .    .  .    .  .    .  .    .  .    .  .    .  .    .  .    .  .    .  .    .  .    .  .    .  .    .  .    .  .    .  .    .  .    .  .    .  .    .  .    .  .    .  .    .  .    .  .    .  .    .  .    .  .    .  .    .  .    .  .    .  .    .  .    .  .    .  .    .  .    .  .    .  .    .  .    .  .    .  .    .  .    .  .    .  .    .  .    .  .    .  .    .  .    .  .    .  .    .  .    .  .    .  .    .  .    .  .    .  .    .  .    .  .    .  .    .  .    .  .    .  .    .  .    .  .    .  .    .  .    .  .    .  .    .  .    .  .    .  .    .  .    .  .    .  .    ",
" .    .  .    .  .    .  .    .  .    .  .    .  .    .  .    .  .    .  .    .  .    .  .    .  .    .  .    .  .    .  .    .  .    .  .    .  .    .  .    .  .    .  .    .  .    .  .    .  .    .  .    .  .    .  .    .  .    .  .    .  .    .  .    .  .    .  .    .  .    .  .    .  .    .  .    .  .    .  .    .  .    .  .    .  .    .  .    .  .    .  .    .  .    .  .    .  .    .  .    .  .    .  .    .  .    .  .    .  .    .  .    .  .    .  .    .  .    .  .    .  .    .  .    .  .    .  .    .  .    .  .    .  .    .  .    .  .    .  .    .  .    .  .    .  .    .  .    .  .    .  .    .  .    .  .    .  .    .  .    .  .    .  .    .  .    .  .    .  .    .  .    .  .    .  .    .  .    .  .    .  .    .  .    .  .    .  .    .  .    .  .    .  .    .  .    .  .    .  .    .  .    .  .    .  .    .  .    .  .    .  .    .  .    .  .    .  .    .  .    .  .    .  .    .  .    .  .    .  .    .  .    .  .    .  .    .  .    .  .    .  .    .  .    .  .    .  .    .  .    .  .    .  .    .  .    . ",
"    .  .    .  .    .  .    .  .    .  .    .  .    .  .    .  .    .  .    .  .    .  .    .  .    .  .    .  .    .  .    .  .    .  .    .  .    .  .    .  .    .  .    .  .    .  .    .  .    .  .    .  .    .  .    .  .    .  .    .  .    .  .    .  .    .  .    .  .    .  .    .  .    .  .    .  .    .  .    .  .    .  .    .  .    .  .    .  .    .  .    .  .    .  .    .  .    .  .    .  .    .  .    .  .    .  .    .  .    .  .    .  .    .  .    .  .    .  .    .  .    .  .    .  .    .  .    .  .    .  .    .  .    .  .    .  .    .  .    .  .    .  .    .  .    .  .    .  .    .  .    .  .    .  .    .  .    .  .    .  .    .  .    .  .    .  .    .  .    .  .    .  .    .  .    .  .    .  .    .  .    .  .    .  .    .  .    .  .    .  .    .  .    .  .    .  .    .  .    .  .    .  .    .  .    .  .    .  .    .  .    .  .    .  .    .  .    .  .    .  .    .  .    .  .    .  .    .  .    .  .    .  .    .  .    .  .    .  .    .  .    .  .    .  .    .  .    .  .    .  .    .  .    .  .    .  .",
"     .       .       .       .       .       .       .       .       .       .       .       .       .       .       .       .       .       .       .       .       .       .       .       .       .       .       .       .       .       .       .       .       .       .       .       .       .       .       .       .       .       .       .       .       .       .       .       .       .       .       .       .       .       .       .       .       .       .       .       .       .       .       .       .       .       .       .       .       .       .       .       .       .       .       .       .       .       .       .       .       .       .       .       .       .       .       .       .       .       .       .       .       .       .       .       .       .       .       .       .       .       .       .       .       .       .       .       .       .       .       .       .       .       .       .       .       .       .       .       .       .       .       .       .       .       .       .       .  ",
".       .       .       .       .       .       .       .       .       .       .       .       .       .       .       .       .       .       .       .       .       .       .       .       .       .       .       .       .       .       .       .       .       .       .       .       .       .       .       .       .       .       .       .       .       .       .       .       .       .       .       .       .       .       .       .       .       .       .       .       .       .       .       .       .       .       .       .       .       .       .       .       .       .       .       .       .       .       .       .       .       .       .       .       .       .       .       .       .       .       .       .       .       .       .       .       .       .       .       .       .       .       .       .       .       .       .       .       .       .       .       .       .       .       .       .       .       .       .       .       .       .       .       .       .       .       .       .       ",
" .       .       .       .       .       .       .       .       .       .       .       .       .       .       .       .       .       .       .       .       .       .       .       .       .       .       .       .       .       .       .       .       .       .       .       .       .       .       .       .       .       .       .       .       .       .       .       .       .       .       .       .       .       .       .       .       .       .       .       .       .       .       .       .       .       .       .       .       .       .       .       .       .       .       .       .       .       .       .       .       .       .       .       .       .       .       .       .       .       .       .       .       .       .       .       .       .       .       .       .       .       .       .       .       .       .       .       .       .       .       .       .       .       .       .       .       .       .       .       .       .       .       .       .       .       .       .       .      ",
"                                                                                                                                                                                                                                                                                                                                                                                                                                                                                                                                                                                                                                                                                                                                                                                                                                                                                                                                                                                                                                                                ",
"  .       .       .       .       .       .       .       .       .       .       .       .       .       .       .       .       .       .       .       .       .       .       .       .       .       .       .       .       .       .       .       .       .       .       .       .       .       .       .       .       .       .       .       .       .       .       .       .       .       .       .       .       .       .       .       .       .       .       .       .       .       .       .       .       .       .       .       .       .       .       .       .       .       .       .       .       .       .       .       .       .       .       .       .       .       .       .       .       .       .       .       .       .       .       .       .       .       .       .       .       .       .       .       .       .       .       .       .       .       .       .       .       .       .       .       .       .       .       .       .       .       .       .       .       .       .       .       .     ",
"   .       .       .       .       .       .       .       .       .       .       .       .       .       .       .       .       .       .       .       .       .       .       .       .       .       .       .       .       .       .       .       .       .       .       .       .       .       .       .       .       .       .       .       .       .       .       .       .       .       .       .       .       .       .       .       .       .       .       .       .       .       .       .       .       .       .       .       .       .       .       .       .       .       .       .       .       .       .       .       .       .       .       .       .       .       .       .       .       .       .       .       .       .       .       .       .       .       .       .       .       .       .       .       .       .       .       .       .       .       .       .       .       .       .       .       .       .       .       .       .       .       .       .       .       .       .       .       .    ",
"      .       .       .       .       .       .       .       .       .       .       .       .       .       .       .       .       .       .       .       .       .       .       .       .       .       .       .       .       .       .       .       .       .       .       .       .       .       .       .       .       .       .       .       .       .       .       .       .       .       .       .       .       .       .       .       .       .       .       .       .       .       .       .       .       .       .       .       .       .       .       .       .       .       .       .       .       .       .       .       .       .       .       .       .       .       .       .       .       .       .       .       .       .       .       .       .       .       .       .       .       .       .       .       .       .       .       .       .       .       .       .       .       .       .       .       .       .       .       .       .       .       .       .       .       .       .       .       . ",
"    .  .    .  .    .  .    .  .    .  .    .  .    .  .    .  .    .  .    .  .    .  .    .  .    .  .    .  .    .  .    .  .    .  .    .  .    .  .    .  .    .  .    .  .    .  .    .  .    .  .    .  .    .  .    .  .    .  .    .  .    .  .    .  .    .  .    .  .    .  .    .  .    .  .    .  .    .  .    .  .    .  .    .  .    .  .    .  .    .  .    .  .    .  .    .  .    .  .    .  .    .  .    .  .    .  .    .  .    .  .    .  .    .  .    .  .    .  .    .  .    .  .    .  .    .  .    .  .    .  .    .  .    .  .    .  .    .  .    .  .    .  .    .  .    .  .    .  .    .  .    .  .    .  .    .  .    .  .    .  .    .  .    .  .    .  .    .  .    .  .    .  .    .  .    .  .    .  .    .  .    .  .    .  .    .  .    .  .    .  .    .  .    .  .    .  .    .  .    .  .    .  .    .  .    .  .    .  .    .  .    .  .    .  .    .  .    .  .    .  .    .  .    .  .    .  .    .  .    .  .    .  .    .  .    .  .    .  .    .  .    .  .    .  .    .  .    .  .    .  .    .  .    .  .    .  .",
"     .       .       .       .       .       .       .       .       .       .       .       .       .       .       .       .       .       .       .       .       .       .       .       .       .       .       .       .       .       .       .       .       .       .       .       .       .       .       .       .       .       .       .       .       .       .       .       .       .       .       .       .       .       .       .       .       .       .       .       .       .       .       .       .       .       .       .       .       .       .       .       .       .       .       .       .       .       .       .       .       .       .       .       .       .       .       .       .       .       .       .       .       .       .       .       .       .       .       .       .       .       .       .       .       .       .       .       .       .       .       .       .       .       .       .       .       .       .       .       .       .       .       .       .       .       .       .       .  ",
".       .       .       .       .       .       .       .       .       .       .       .       .       .       .       .       .       .       .       .       .       .       .       .       .       .       .       .       .       .       .       .       .       .       .       .       .       .       .       .       .       .       .       .       .       .       .       .       .       .       .       .       .       .       .       .       .       .       .       .       .       .       .       .       .       .       .       .       .       .       .       .       .       .       .       .       .       .       .       .       .       .       .       .       .       .       .       .       .       .       .       .       .       .       .       .       .       .       .       .       .       .       .       .       .       .       .       .       .       .       .       .       .       .       .       .       .       .       .       .       .       .       .       .       .       .       .       .       ",
" .       .       .       .       .       .       .       .       .       .       .       .       .       .       .       .       .       .       .       .       .       .       .       .       .       .       .       .       .       .       .       .       .       .       .       .       .       .       .       .       .       .       .       .       .       .       .       .       .       .       .       .       .       .       .       .       .       .       .       .       .       .       .       .       .       .       .       .       .       .       .       .       .       .       .       .       .       .       .       .       .       .       .       .       .       .       .       .       .       .       .       .       .       .       .       .       .       .       .       .       .       .       .       .       .       .       .       .       .       .       .       .       .       .       .       .       .       .       .       .       .       .       .       .       .       .       .       .      ",
"                                                                                                                                                                                                                                                                                                                                                                                                                                                                                                                                                                                                                                                                                                                                                                                                                                                                                                                                                                                                                                                                ",
"  .       .       .       .       .       .       .       .       .       .       .       .       .       .       .       .       .       .       .       .       .       .       .       .       .       .       .       .       .       .       .       .       .       .       .       .       .       .       .       .       .       .       .       .       .       .       .       .       .       .       .       .       .       .       .       .       .       .       .       .       .       .       .       .       .       .       .       .       .       .       .       .       .       .       .       .       .       .       .       .       .       .       .       .       .       .       .       .       .       .       .       .       .       .       .       .       .       .       .       .       .       .       .       .       .       .       .       .       .       .       .       .       .       .       .       .       .       .       .       .       .       .       .       .       .       .       .       .     ",
"   .       .       .       .       .       .       .       .       .       .       .       .       .       .       .       .       .       .       .       .       .       .       .       .       .       .       .       .       .       .       .       .       .       .       .       .       .       .       .       .       .       .       .       .       .       .       .       .       .       .       .       .       .       .       .       .       .       .       .       .       .       .       .       .       .       .       .       .       .       .       .       .       .       .       .       .       .       .       .       .       .       .       .       .       .       .       .       .       .       .       .       .       .       .       .       .       .       .       .       .       .       .       .       .       .       .       .       .       .       .       .       .       .       .       .       .       .       .       .       .       .       .       .       .       .       .       .       .    ",
"      .       .       .       .       .       .       .       .       .       .       .       .       .       .       .       .       .       .       .       .       .       .       .       .       .       .       .       .       .       .       .       .       .       .       .       .       .       .       .       .       .       .       .       .       .       .       .       .       .       .       .       .       .       .       .       .       .       .       .       .       .       .       .       .       .       .       .       .       .       .       .       .       .       .       .       .       .       .       .       .       .       .       .       .       .       .       .       .       .       .       .       .       .       .       .       .       .       .       .       .       .       .       .       .       .       .       .       .       .       .       .       .       .       .       .       .       .       .       .       .       .       .       .       .       .       .       .       . ",
"    .  .    .  .    .  .    .  .    .  .    .  .    .  .    .  .    .  .    .  .    .  .    .  .    .  .    .  .    .  .    .  .    .  .    .  .    .  .    .  .    .  .    .  .    .  .    .  .    .  .    .  .    .  .    .  .    .  .    .  .    .  .    .  .    .  .    .  .    .  .    .  .    .  .    .  .    .  .    .  .    .  .    .  .    .  .    .  .    .  .    .  .    .  .    .  .    .  .    .  .    .  .    .  .    .  .    .  .    .  .    .  .    .  .    .  .    .  .    .  .    .  .    .  .    .  .    .  .    .  .    .  .    .  .    .  .    .  .    .  .    .  .    .  .    .  .    .  .    .  .    .  .    .  .    .  .    .  .    .  .    .  .    .  .    .  .    .  .    .  .    .  .    .  .    .  .    .  .    .  .    .  .    .  .    .  .    .  .    .  .    .  .    .  .    .  .    .  .    .  .    .  .    .  .    .  .    .  .    .  .    .  .    .  .    .  .    .  .    .  .    .  .    .  .    .  .    .  .    .  .    .  .    .  .    .  .    .  .    .  .    .  .    .  .    .  .    .  .    .  .    .  .    .  .    .  .",
"     .       .       .       .       .       .       .       .       .       .       .       .       .       .       .       .       .       .       .       .       .       .       .       .       .       .       .       .       .       .       .       .       .       .       .       .       .       .       .       .       .       .       .       .       .       .       .       .       .       .       .       .       .       .       .       .       .       .       .       .       .       .       .       .       .       .       .       .       .       .       .       .       .       .       .       .       .       .       .       .       .       .       .       .       .       .       .       .       .       .       .       .       .       .       .       .       .       .       .       .       .       .       .       .       .       .       .       .       .       .       .       .       .       .       .       .       .       .       .       .       .       .       .       .       .       .       .       .  ",
".       .       .       .       .       .       .       .       .       .       .       .       .       .       .       .       .       .       .       .       .       .       .       .       .       .       .       .       .       .       .       .       .       .       .       .       .       .       .       .       .       .       .       .       .       .       .       .       .       .       .       .       .       .       .       .       .       .       .       .       .       .       .       .       .       .       .       .       .       .       .       .       .       .       .       .       .       .       .       .       .       .       .       .       .       .       .       .       .       .       .       .       .       .       .       .       .       .       .       .       .       .       .       .       .       .       .       .       .       .       .       .       .       .       .       .       .       .       .       .       .       .       .       .       .       .       .       .       ",
" .       .       .       .       .       .       .       .       .       .       .       .       .       .       .       .       .       .       .       .       .       .       .       .       .       .       .       .       .       .       .       .       .       .       .       .       .       .       .       .       .       .       .       .       .       .       .       .       .       .       .       .       .       .       .       .       .       .       .       .       .       .       .       .       .       .       .       .       .       .       .       .       .       .       .       .       .       .       .       .       .       .       .       .       .       .       .       .       .       .       .       .       .       .       .       .       .       .       .       .       .       .       .       .       .       .       .       .       .       .       .       .       .       .       .       .       .       .       .       .       .       .       .       .       .       .       .       .      ",
"                                                                                                                                                                                                                                                                                                                                                                                                                                                                                                                                                                                                                                                                                                                                                                                                                                                                                                                                                                                                                                                                ",
"  .       .       .       .       .       .       .       .       .       .       .       .       .       .       .       .       .       .       .       .       .       .       .       .       .       .       .       .       .       .       .       .       .       .       .       .       .       .       .       .       .       .       .       .       .       .       .       .       .       .       .       .       .       .       .       .       .       .       .       .       .       .       .       .       .       .       .       .       .       .       .       .       .       .       .       .       .       .       .       .       .       .       .       .       .       .       .       .       .       .       .       .       .       .       .       .       .       .       .       .       .       .       .       .       .       .       .       .       .       .       .       .       .       .       .       .       .       .       .       .       .       .       .       .       .       .       .       .     ",
"   .       .       .       .       .       .       .       .       .       .       .       .       .       .       .       .       .       .       .       .       .       .       .       .       .       .       .       .       .       .       .       .       .       .       .       .       .       .       .       .       .       .       .       .       .       .       .       .       .       .       .       .       .       .       .       .       .       .       .       .       .       .       .       .       .       .       .       .       .       .       .       .       .       .       .       .       .       .       .       .       .       .       .       .       .       .       .       .       .       .       .       .       .       .       .       .       .       .       .       .       .       .       .       .       .       .       .       .       .       .       .       .       .       .       .       .       .       .       .       .       .       .       .       .       .       .       .       .    ",
"      .       .       .       .       .       .       .       .       .       .       .       .       .       .       .       .       .       .       .       .       .       .       .       .       .       .       .       .       .       .       .       .       .       .       .       .       .       .       .       .       .       .       .       .       .       .       .       .       .       .       .       .       .       .       .       .       .       .       .       .       .       .       .       .       .       .       .       .       .       .       .       .       .       .       .       .       .       .       .       .       .       .       .       .       .       .       .       .       .       .       .       .       .       .       .       .       .       .       .       .       .       .       .       .       .       .       .       .       .       .       .       .       .       .       .       .       .       .       .       .       .       .       .       .       .       .       .       . ",
"    .  .    .  .    .  .    .  .    .  .    .  .    .  .    .  .    .  .    .  .    .  .    .  .    .  .    .  .    .  .    .  .    .  .    .  .    .  .    .  .    .  .    .  .    .  .    .  .    .  .    .  .    .  .    .  .    .  .    .  .    .  .    .  .    .  .    .  .    .  .    .  .    .  .    .  .    .  .    .  .    .  .    .  .    .  .    .  .    .  .    .  .    .  .    .  .    .  .    .  .    .  .    .  .    .  .    .  .    .  .    .  .    .  .    .  .    .  .    .  .    .  .    .  .    .  .    .  .    .  .    .  .    .  .    .  .    .  .    .  .    .  .    .  .    .  .    .  .    .  .    .  .    .  .    .  .    .  .    .  .    .  .    .  .    .  .    .  .    .  .    .  .    .  .    .  .    .  .    .  .    .  .    .  .    .  .    .  .    .  .    .  .    .  .    .  .    .  .    .  .    .  .    .  .    .  .    .  .    .  .    .  .    .  .    .  .    .  .    .  .    .  .    .  .    .  .    .  .    .  .    .  .    .  .    .  .    .  .    .  .    .  .    .  .    .  .    .  .    .  .    .  .    .  .    .  .",
"                                                                                                                                                                                                                                                                                                                                                                                                                                                                                                                                                                                                                                                                                                                                                                                                                                                                                                                                                                                                                                                                ",
".       .       .       .       .       .       .       .       .       .       .       .       .       .       .       .       .       .       .       .       .       .       .       .       .       .       .       .       .       .       .       .       .       .       .       .       .       .       .       .       .       .       .       .       .       .       .       .       .       .       .       .       .       .       .       .       .       .       .       .       .       .       .       .       .       .       .       .       .       .       .       .       .       .       .       .       .       .       .       .       .       .       .       .       .       .       .       .       .       .       .       .       .       .       .       .       .       .       .       .       .       .       .       .       .       .       .       .       .       .       .       .       .       .       .       .       .       .       .       .       .       .       .       .       .       .       .       .       ",
"                                                                                                                                                                                                                                                                                                                                                                                                                                                                                                                                                                                                                                                                                                                                                                                                                                                                                                                                                                                                                                                                ",
"                                                                                                                                                                                                                                                                                                                                                                                                                                                                                                                                                                                                                                                                                                                                                                                                                                                                                                                                                                                                                                                                ",
"                                                                                                                                                                                                                                                                                                                                                                                                                                                                                                                                                                                                                                                                                                                                                                                                                                                                                                                                                                                                                                                                ",
"                                                                                                                                                                                                                                                                                                                                                                                                                                                                                                                                                                                                                                                                                                                                                                                                                                                                                                                                                                                                                                                                ",
"      .       .       .       .       .       .       .       .       .       .       .       .       .       .       .       .       .       .       .       .       .       .       .       .       .       .       .       .       .       .       .       .       .       .       .       .       .       .       .       .       .       .       .       .       .       .       .       .       .       .       .       .       .       .       .       .       .       .       .       .       .       .       .       .       .       .       .       .       .       .       .       .       .       .       .       .       .       .       .       .       .       .       .       .       .       .       .       .       .       .       .       .       .       .       .       .       .       .       .       .       .       .       .       .       .       .       .       .       .       .       .       .       .       .       .       .       .       .       .       .       .       .       .       .       .       .       .       . ",
"       .       .       .       .       .       .       .       .       .       .       .       .       .       .       .       .       .       .       .       .       .       .       .       .       .       .       .       .       .       .       .       .       .       .       .       .       .       .       .       .       .       .       .       .       .       .       .       .       .       .       .       .       .       .       .       .       .       .       .       .       .       .       .       .       .       .       .       .       .       .       .       .       .       .       .       .       .       .       .       .       .       .       .       .       .       .       .       .       .       .       .       .       .       .       .       .       .       .       .       .       .       .       .       .       .       .       .       .       .       .       .       .       .       .       .       .       .       .       .       .       .       .       .       .       .       .       .       .",
"                                                                                                                                                                                                                                                                                                                                                                                                                                                                                                                                                                                                                                                                                                                                                                                                                                                                                                                                                                                                                                                                ",
".       .       .       .       .       .       .       .       .       .       .       .       .       .       .       .       .       .       .       .       .       .       .       .       .       .       .       .       .       .       .       .       .       .       .       .       .       .       .       .       .       .       .       .       .       .       .       .       .       .       .       .       .       .       .       .       .       .       .       .       .       .       .       .       .       .       .       .       .       .       .       .       .       .       .       .       .       .       .       .       .       .       .       .       .       .       .       .       .       .       .       .       .       .       .       .       .       .       .       .       .       .       .       .       .       .       .       .       .       .       .       .       .       .       .       .       .       .       .       .       .       .       .       .       .       .       .       .       ",
"                                                                                                                                                                                                                                                                                                                                                                                                                                                                                                                                                                                                                                                                                                                                                                                                                                                                                                                                                                                                                                                                ",
"                                                                                                                                                                                                                                                                                                                                                                                                                                                                                                                                                                                                                                                                                                                                                                                                                                                                                                                                                                                                                                                                ",
"                                                                                                                                                                                                                                                                                                                                                                                                                                                                                                                                                                                                                                                                                                                                                                                                                                                                                                                                                                                                                                                                ",
"                                                                                                                                                                                                                                                                                                                                                                                                                                                                                                                                                                                                                                                                                                                                                                                                                                                                                                                                                                                                                                                                ",
"      .       .       .       .       .       .       .       .       .       .       .       .       .       .       .       .       .       .       .       .       .       .       .       .       .       .       .       .       .       .       .       .       .       .       .       .       .       .       .       .       .       .       .       .       .       .       .       .       .       .       .       .       .       .       .       .       .       .       .       .       .       .       .       .       .       .       .       .       .       .       .       .       .       .       .       .       .       .       .       .       .       .       .       .       .       .       .       .       .       .       .       .       .       .       .       .       .       .       .       .       .       .       .       .       .       .       .       .       .       .       .       .       .       .       .       .       .       .       .       .       .       .       .       .       .       .       .       . ",
"       .       .       .       .       .       .       .       .       .       .       .       .       .       .       .       .       .       .       .       .       .       .       .       .       .       .       .       .       .       .       .       .       .       .       .       .       .       .       .       .       .       .       .       .       .       .       .       .       .       .       .       .       .       .       .       .       .       .       .       .       .       .       .       .       .       .       .       .       .       .       .       .       .       .       .       .       .       .       .       .       .       .       .       .       .       .       .       .       .       .       .       .       .       .       .       .       .       .       .       .       .       .       .       .       .       .       .       .       .       .       .       .       .       .       .       .       .       .       .       .       .       .       .       .       .       .       .       .",
"                                                                                                                                                                                                                                                                                                                                                                                                                                                                                                                                                                                                                                                                                                                                                                                                                                                                                                                                                                                                                                                                ",
".       .       .       .       .       .       .       .       .       .       .       .       .       .       .       .       .       .       .       .       .       .       .       .       .       .       .       .       .       .       .       .       .       .       .       .       .       .       .       .       .       .       .       .       .       .       .       .       .       .       .       .       .       .       .       .       .       .       .       .       .       .       .       .       .       .       .       .       .       .       .       .       .       .       .       .       .       .       .       .       .       .       .       .       .       .       .       .       .       .       .       .       .       .       .       .       .       .       .       .       .       .       .       .       .       .       .       .       .       .       .       .       .       .       .       .       .       .       .       .       .       .       .       .       .       .       .       .       ",
"                                                                                                                                                                                                                                                                                                                                                                                                                                                                                                                                                                                                                                                                                                                                                                                                                                                                                                                                                                                                                                                                ",
"                                                                                                                                                                                                                                                                                                                                                                                                                                                                                                                                                                                                                                                                                                                                                                                                                                                                                                                                                                                                                                                                ",
"                                                                                                                                                                                                                                                                                                                                                                                                                                                                                                                                                                                                                                                                                                                                                                                                                                                                                                                                                                                                                                                                ",
"                                                                                                                                                                                                                                                                                                                                                                                                                                                                                                                                                                                                                                                                                                                                                                                                                                                                                                                                                                                                                                                                ",
"      .       .       .       .       .       .       .       .       .       .       .       .       .       .       .       .       .       .       .       .       .       .       .       .       .       .       .       .       .       .       .       .       .       .       .       .       .       .       .       .       .       .       .       .       .       .       .       .       .       .       .       .       .       .       .       .       .       .       .       .       .       .       .       .       .       .       .       .       .       .       .       .       .       .       .       .       .       .       .       .       .       .       .       .       .       .       .       .       .       .       .       .       .       .       .       .       .       .       .       .       .       .       .       .       .       .       .       .       .       .       .       .       .       .       .       .       .       .       .       .       .       .       .       .       .       .       .       . ",
"                                                                                                                                                                                                                                                                                                                                                                                                                                                                                                                                                                                                                                                                                                                                                                                                                                                                                                                                                                                                                                                                ",
"                                                                                                                                                                                                                                                                                                                                                                                                                                                                                                                                                                                                                                                                                                                                                                                                                                                                                                                                                                                                                                                                ",
"                                                                                                                                                                                                                                                                                                                                                                                                                                                                                                                                                                                                                                                                                                                                                                                                                                                                                                                                                                                                                                                                ",
"                                                                                                                                                                                                                                                                                                                                                                                                                                                                                                                                                                                                                                                                                                                                                                                                                                                                                                                                                                                                                                                                ",
"                                                                                                                                                                                                                                                                                                                                                                                                                                                                                                                                                                                                                                                                                                                                                                                                                                                                                                                                                                                                                                                                ",
"                                                                                                                                                                                                                                                                                                                                                                                                                                                                                                                                                                                                                                                                                                                                                                                                                                                                                                                                                                                                                                                                ",
"                                                                                                                                                                                                                                                                                                                                                                                                                                                                                                                                                                                                                                                                                                                                                                                                                                                                                                                                                                                                                                                                ",
"                                                                                                                                                                                                                                                                                                                                                                                                                                                                                                                                                                                                                                                                                                                                                                                                                                                                                                                                                                                                                                                                ",
"                                                                                                                                                                                                                                                                                                                                                                                                                                                                                                                                                                                                                                                                                                                                                                                                                                                                                                                                                                                                                                                                ",
"                                                                                                                                                                                                                                                                                                                                                                                                                                                                                                                                                                                                                                                                                                                                                                                                                                                                                                                                                                                                                                                                ",
"                                                                                                                                                                                                                                                                                                                                                                                                                                                                                                                                                                                                                                                                                                                                                                                                                                                                                                                                                                                                                                                                ",
"                                                                                                                                                                                                                                                                                                                                                                                                                                                                                                                                                                                                                                                                                                                                                                                                                                                                                                                                                                                                                                                                ",
"                                                                                                                                                                                                                                                                                                                                                                                                                                                                                                                                                                                                                                                                                                                                                                                                                                                                                                                                                                                                                                                                ",
"                                                                                                                                                                                                                                                                                                                                                                                                                                                                                                                                                                                                                                                                                                                                                                                                                                                                                                                                                                                                                                                                ",
"                                                                                                                                                                                                                                                                                                                                                                                                                                                                                                                                                                                                                                                                                                                                                                                                                                                                                                                                                                                                                                                                ",
"                                                                                                                                                                                                                                                                                                                                                                                                                                                                                                                                                                                                                                                                                                                                                                                                                                                                                                                                                                                                                                                                ",
"                                                                                                                                                                                                                                                                                                                                                                                                                                                                                                                                                                                                                                                                                                                                                                                                                                                                                                                                                                                                                                                                ",
"                                                                                                                                                                                                                                                                                                                                                                                                                                                                                                                                                                                                                                                                                                                                                                                                                                                                                                                                                                                                                                                                ",
"                                                                                                                                                                                                                                                                                                                                                                                                                                                                                                                                                                                                                                                                                                                                                                                                                                                                                                                                                                                                                                                                ",
"                                                                                                                                                                                                                                                                                                                                                                                                                                                                                                                                                                                                                                                                                                                                                                                                                                                                                                                                                                                                                                                                ",
"                                                                                                                                                                                                                                                                                                                                                                                                                                                                                                                                                                                                                                                                                                                                                                                                                                                                                                                                                                                                                                                                ",
"                                                                                                                                                                                                                                                                                                                                                                                                                                                                                                                                                                                                                                                                                                                                                                                                                                                                                                                                                                                                                                                                ",
"                                                                                                                                                                                                                                                                                                                                                                                                                                                                                                                                                                                                                                                                                                                                                                                                                                                                                                                                                                                                                                                                "};
