/* XPM */
static char * door_xpm[] = {
"64 64 51 1",
" 	c #000000",
".	c #010102",
"+	c #070708",
"@	c #050506",
"#	c #0D0D0F",
"$	c #1B1C1F",
"%	c #09090A",
"&	c #141619",
"*	c #222428",
"=	c #0D0F11",
"-	c #1E1F23",
";	c #36373D",
">	c #141517",
",	c #28292E",
"'	c #3D3F46",
")	c #1A1B1E",
"!	c #33363C",
"~	c #4E515A",
"{	c #212327",
"]	c #3F434A",
"^	c #565A63",
"/	c #292C30",
"(	c #4D5058",
"_	c #656973",
":	c #323439",
"<	c #535761",
"[	c #696D78",
"}	c #35383F",
"|	c #5A5D67",
"1	c #6D717C",
"2	c #383A41",
"3	c #5D616B",
"4	c #6F737E",
"5	c #33363D",
"6	c #626671",
"7	c #8C909D",
"8	c #32353C",
"9	c #676B76",
"0	c #6C707D",
"a	c #6E7380",
"b	c #707582",
"c	c #676C76",
"d	c #6B3E41",
"e	c #646973",
"f	c #626771",
"g	c #5F626C",
"h	c #5C5F69",
"i	c #575A64",
"j	c #4E525A",
"k	c #494D55",
"l	c #484C54",
" ........................................ ..................... ",
" ++++++++++++++++++++++++++++++++++++++++ @++++++++++++++++++++ ",
" #######################################$ %#################### ",
" &&&&&&&&&&&&&&&&&&&&&&&&&&&&&&&&&&&&&&&* =&&&&&&&&&&&&&&&&&&&& ",
" ---------------------------------------; >-------------------- ",
" ,,,,,,,,,,,,,,,,,,,,,,,,,,,,,,,,,,,,,,,' ),,,,,,,,,,,,,,,,,,,, ",
" !!!!!!!!!!!!!!!!!!!!!!!!!!!!!!!!!!!!!!!~ {!!!!!!!!!!!!!!!!!!!! ",
" ]]]]]]]]]]]]]]]]]]]]]]]]]]]]]]]]]]]]]]]^ /]]]]]]]]]]]]]]]]]]]] ",
" (((((((((((((((((((((((((((((((((((((((_ :(((((((((((((((((((( ",
" <<<<<<<<<<<<<<<<<<<<<<<<<<<<<<<<<<<<<<<[ }<<<<<<<<<<<<<<<<<<<< ",
" |||||||||||||||||||||||||||||||||||||||1 2|||||||||||||||||||| ",
" 3333333333333333333333333333333333333334 533333333333333333333 ",
" 6666666666666666666666666666666666666667 866666666666666666666 ",
" 9999999999999999999999999999999999999997 899999999999999999999 ",
" 0000000000000000000000000000000000000007 800000000000000000000 ",
" aaaaaaaaaaaaaaaaaaaaaaaaaaaaaaaaaaaaaaa7 8aaaaaaaaaaaaaaaaaaaa ",
" bbbbbbbbbbbbbbbbbbbbbbbbbbbbbbbbbbbbbbb7 8bbbbbbbbbbbbbbbbbbbb ",
" aaaaaaaaaaaaaaaaaaaaaaaaaaaaaaaaaaaaaaa7 8aaaaaaaaaaaaaaaaaaaa ",
" aaaaaaaaaaaaaaaaaaaaaaaaaaaaaaaaaaaaaa88 8aaaaaaaaaaaaaaaaaaaa ",
" aaaaaaaaaaaaaaaaaaaaaaaaaaaaaaaaaaaa88  aaaaaaaaaaaaaaaaaaaaaa ",
" 000000000000000000000000000000000088  000000000000000000000000 ",
" 0000000000000000000000000000000088  00000000000000000000000000 ",
" 00000000000000000000000000000088  0000000000000000000000000000 ",
" cccccccccccccccccccccccccccc88  cccccccccccccccccccccccccccccc ",
" cccccccccccccccccccccccccc88  cccccccc888888cccccccccccccccccc ",
" cccccccccccccccccccccccc88  cccccccc88ddddd8cccccccccccccccccc ",
" eeeeeeeeeeeeeeeeeeeeee88  eeeeeeee88ddddddd8eeeeeeeeeeeeeeeeee ",
" eeeeeeeeeeeeeeeeeeeee7  eeeeeeee88ddddddddd8eeeeeeeeeeeeeeeeee ",
" eeeeeeeeeeeeeeeeeeeee7 eeeeeee88ddddddddddd8eeeeeeeeeeeeeeeeee ",
" eeeeeeeeeeeeeeeeeeeee7 eeeee88ddddddddddddd8eeeeeeeeeeeeeeeeee ",
" fffffffffffffffffffff7 ffff8ddddddddddddddd8ffffffffffffffffff ",
" fffffffffffffffffffff7 ffff7ddddddddddddddd8ffffffffffffffffff ",
" fffffffffffffffffffff7 ffff7ddddddddddddddd8ffffffffffffffffff ",
" ggggggggggggggggggggg7 gggg7ddddddddddddddd8gggggggggggggggggg ",
" ggggggggggggggggggggg7 gggg7ddddddddddddddd8gggggggggggggggggg ",
" ggggggggggggggggggggg7 ggggg77ddddddddddddd8gggggggggggggggggg ",
" hhhhhhhhhhhhhhhhhhhhh7 hhhhhhh77ddddddddddd8hhhhhhhhhhhhhhhhhh ",
" hhhhhhhhhhhhhhhhhhhhh7 8hhhhhhhh77ddddddddd8hhhhhhhhhhhhhhhhhh ",
" hhhhhhhhhhhhhhhhhhhhh7  88hhhhhhhh77ddddddd8hhhhhhhhhhhhhhhhhh ",
" iiiiiiiiiiiiiiiiiiiiii77  88iiiiiiii77ddddd8iiiiiiiiiiiiiiiiii ",
" iiiiiiiiiiiiiiiiiiiiiiii77  88iiiiiiii777778iiiiiiiiiiiiiiiiii ",
" iiiiiiiiiiiiiiiiiiiiiiiiii77  88iiiiiiiiiiiiiiiiiiiiiiiiiiiiii ",
" <<<<<<<<<<<<<<<<<<<<<<<<<<<<77  88<<<<<<<<<<<<<<<<<<<<<<<<<<<< ",
" <<<<<<<<<<<<<<<<<<<<<<<<<<<<<<77  88<<<<<<<<<<<<<<<<<<<<<<<<<< ",
" <<<<<<<<<<<<<<<<<<<<<<<<<<<<<<<<77  88<<<<<<<<<<<<<<<<<<<<<<<< ",
" jjjjjjjjjjjjjjjjjjjjjjjjjjjjjjjjjj77  88jjjjjjjjjjjjjjjjjjjjjj ",
" jjjjjjjjjjjjjjjjjjjjjjjjjjjjjjjjjjjj77  8jjjjjjjjjjjjjjjjjjjjj ",
" jjjjjjjjjjjjjjjjjjjjjjjjjjjjjjjjjjjjjj77 8jjjjjjjjjjjjjjjjjjjj ",
" (((((((((((((((((((((((((((((((((((((((7 8(((((((((((((((((((( ",
" (((((((((((((((((((((((((((((((((((((((7 8(((((((((((((((((((( ",
" (((((((((((((((((((((((((((((((((((((((7 8(((((((((((((((((((( ",
" kkkkkkkkkkkkkkkkkkkkkkkkkkkkkkkkkkkkkkk7 8kkkkkkkkkkkkkkkkkkkk ",
" kkkkkkkkkkkkkkkkkkkkkkkkkkkkkkkkkkkkkkk7 8kkkkkkkkkkkkkkkkkkkk ",
" kkkkkkkkkkkkkkkkkkkkkkkkkkkkkkkkkkkkkkk7 8kkkkkkkkkkkkkkkkkkkk ",
" kkkkkkkkkkkkkkkkkkkkkkkkkkkkkkkkkkkkkkk7 8kkkkkkkkkkkkkkkkkkkk ",
" kkkkkkkkkkkkkkkkkkkkkkkkkkkkkkkkkkkkkkk7 8kkkkkkkkkkkkkkkkkkkk ",
" kkkkkkkkkkkkkkkkkkkkkkkkkkkkkkkkkkkkkkk7 8kkkkkkkkkkkkkkkkkkkk ",
" kkkkkkkkkkkkkkkkkkkkkkkkkkkkkkkkkkkkkkk7 8kkkkkkkkkkkkkkkkkkkk ",
" kkkkkkkkkkkkkkkkkkkkkkkkkkkkkkkkkkkkkkk7 8kkkkkkkkkkkkkkkkkkkk ",
" kkkkkkkkkkkkkkkkkkkkkkkkkkkkkkkkkkkkkkk7 8kkkkkkkkkkkkkkkkkkkk ",
" kkkkkkkkkkkkkkkkkkkkkkkkkkkkkkkkkkkkkkk7 8kkkkkkkkkkkkkkkkkkkk ",
" kkkkkkkkkkkkkkkkkkkkkkkkkkkkkkkkkkkkkkk7 8kkkkkkkkkkkkkkkkkkkk ",
" kkkkkkkkkkkkkkkkkkkkkkkkkkkkkkkkkkkkkkk7 8lkkkkkkkkkkkkkkkkkkk ",
" 8888888888888888888888888888888888888888 888888888888888888888 "};
