/* XPM */
static char * door_open_xpm[] = {
"64 64 2 1",
" 	c None",
".	c #31FF00",
"......                                                    ......",
"......                                                    ......",
"......                                                    ......",
"......                                                    ......",
"......                                                    ......",
"......                                                    ......",
"......                                                    ......",
"......                                                    ......",
"......                                                    ......",
"......                                                    ......",
"......                                                    ......",
"......                                                    ......",
"......                                                    ......",
"......                                                    ......",
"......                                                    ......",
"......                                                    ......",
"......                                                    ......",
"......                                                    ......",
"......                                                    ......",
"......                                                    ......",
"......                                                    ......",
"......                                                    ......",
"......                                                    ......",
"......                                                    ......",
"......                                                    ......",
"......                                                    ......",
"......                                                    ......",
"......                                                    ......",
"......                                                    ......",
"......                                                    ......",
"......                                                    ......",
"......                                                    ......",
"......                                                    ......",
"......                                                    ......",
"......                                                    ......",
"......                                                    ......",
"......                                                    ......",
"......                                                    ......",
"......                                                    ......",
"......                                                    ......",
"......                                                    ......",
"......                                                    ......",
"......                                                    ......",
"......                                                    ......",
"......                                                    ......",
"......                                                    ......",
"......                                                    ......",
"......                                                    ......",
"......                                                    ......",
"......                                                    ......",
"......                                                    ......",
"......                                                    ......",
"......                                                    ......",
"......                                                    ......",
"......                                                    ......",
"......                                                    ......",
"......                                                    ......",
"......                                                    ......",
"......                                                    ......",
"......                                                    ......",
"......                                                    ......",
"......                                                    ......",
"......                                                    ......",
"......                                                    ......"};
