/* XPM */
static char * enemy_xpm[] = {
"60 119 4 1",
" 	c None",
".	c #070707",
"+	c #141414",
"@	c #565754",
"                                              ..            ",
"                                              ..            ",
"                                         ..   ..            ",
"                              ...        ..  ..             ",
"                             .....       .. ...             ",
"                             .....      ... ...             ",
"                           .........    .......             ",
"                          ...........  .......              ",
"                          ........... ........       ...    ",
"                         ....................      .....    ",
"                         ....................     ......    ",
"                         ...................    .......     ",
"                        +.............+.....   ......       ",
"                        +.............+.....  ...........   ",
"                        +.............+...................  ",
"                       .++...........++.................    ",
"                      ..++...........++................     ",
"                     ...+++.........+++...............      ",
"                     ...+++.........+++..............       ",
"                    .....+...........+...............       ",
"                    .....+...........+..............        ",
"                    .....+...........+..............        ",
"                   ................................         ",
"                  ................................          ",
"                  ...............................           ",
"                 ....... .........................          ",
"                 ....... .........................          ",
"                 ....... ..........................         ",
"                .......   .........................         ",
"                .......    .........................        ",
"                ......     .@.....@.................        ",
"               .......     .@@@@@@@.................        ",
"               ......       .@+++@..................        ",
"              ......        .@+++@..................        ",
"              .....         ..+++...................        ",
"             ......         ..@@@....................       ",
"             ......         .........................       ",
"            .......         ..........................      ",
"            .......         ..........................      ",
"           .......         ............................     ",
"           .......         ............................     ",
"          .......         .............................     ",
"          ......          .............................     ",
"         ......           ..............................    ",
"         .....            ..............................    ",
"        ......            ...............................   ",
"        .....             ...............................   ",
"        ....              ................................  ",
"       ....               ......................... ......  ",
"       ....               .........................  ...... ",
"      ....                .........................   ..... ",
"      ....                .........................  +++....",
"     ....                 ......................... +++++...",
"     ....                  ........................++++++...",
"     ....                  ............. .........+++++++.. ",
"     ...                   .........     ........++++++++.  ",
"     ....                  .........     ........++++++++   ",
"    ......                 .........     .......++++++++    ",
"   .......                 .........     ......++++++++     ",
"   ........                ........      .....++++++++      ",
"  .........                ........      ...+++++++++       ",
" ......  ..                ........+++    .+++++++++        ",
" ....     .                ......++++++++++++++++++         ",
"....      .                .....++..++++++++++++++          ",
"...                         ......... +++++++++++.          ",
"..                          ......... +++++++++...          ",
"..                          ..........++++++++....          ",
"..                          .........++++++++....           ",
" ..                          .......++++++++.....           ",
"                             ......++++++++......           ",
"                             .....++++.++++......           ",
"                             ....++++...+++.....            ",
"                             ..++++....++++....             ",
"                             .........++++++                ",
"                             .........+++++                 ",
"                              ......+++++.                  ",
"                              ....+++++...                  ",
"                              ............                  ",
"                              ............                  ",
"                              .............                 ",
"                               ............                 ",
"                               ............                 ",
"                               .............                ",
"                                ............                ",
"                                ............                ",
"                                ...........                 ",
"                                ....... ...                 ",
"                                 ......  .                  ",
"                                 ......                     ",
"                                 ......                     ",
"                                 ......                     ",
"                                  .....                     ",
"                                  .....                     ",
"                                  .....                     ",
"                                  ......                    ",
"                                  ......                    ",
"                                   .....                    ",
"                                   .....                    ",
"                                   .....                    ",
"                                   .....                    ",
"                                   .....                    ",
"                                   .....                    ",
"                                    ....                    ",
"                                    ....                    ",
"                                    ....                    ",
"                                    ....                    ",
"                                    ....                    ",
"                                    ....                    ",
"                                    .....                   ",
"                                   ......                   ",
"                                   ......                   ",
"                                  ........                  ",
"                                  ........                  ",
"                                  ........                  ",
"                                 .........                  ",
"                                 ..........                 ",
"                                ...........                 ",
"                               ..........                   ",
"                              ..... ..                      "};
