/* XPM */
static char * item_xpm[] = {
"64 64 17 1",
" 	c None",
".	c #FF9D0A",
"+	c #FFA41D",
"@	c #FFAB2E",
"#	c #FFB13E",
"$	c #FFB74D",
"%	c #FFBC5A",
"&	c #FFC166",
"*	c #FFC572",
"=	c #FFC97D",
"-	c #FFCD87",
";	c #FFD090",
">	c #FFD398",
",	c #FFD6A0",
"'	c #FFD9A7",
")	c #FFDBAD",
"!	c #FFDDB3",
"                           ..........                           ",
"                       ..................                       ",
"                    .......++++++++++.......                    ",
"                  .....++++++++++++++++++.....                  ",
"                .....++++++@@@@@@@@@@++++++.....                ",
"               ...+++++@@@@@@@@@@@@@@@@@@+++++...               ",
"             ....++++@@@@@@##########@@@@@@++++....             ",
"            ...++++@@@@@################@@@@@++++...            ",
"           ...+++@@@@#######$$$$$$$$#######@@@@+++...           ",
"          ...+++@@@#####$$$$$$$$$$$$$$$$#####@@@+++...          ",
"         ...+++@@@####$$$$$$%%%%%%%%$$$$$$####@@@+++...         ",
"        ...++@@@@###$$$$$%%%%%%%%%%%%%%$$$$$###@@@@++...        ",
"       ...++@@@####$$$%%%%%%&&&&&&&&%%%%%%$$$####@@@++...       ",
"      ...++@@@###$$$$%%%%&&&&&&&&&&&&&&%%%%$$$$###@@@++...      ",
"      ..+++@@###$$$%%%%&&&&&********&&&&&%%%%$$$###@@+++..      ",
"     ..+++@@###$$$%%%&&&&**************&&&&%%%$$$###@@+++..     ",
"    ...++@@@##$$$%%%&&&******======******&&&%%%$$$##@@@++...    ",
"    ..++@@@##$$$%%%&&&****============****&&&%%%$$$##@@@++..    ",
"   ..+++@@###$$%%%&&&***=====------=====***&&&%%%$$###@@+++..   ",
"   ..++@@###$$%%%&&&***===------------===***&&&%%%$$###@@++..   ",
"  ...++@@##$$$%%&&&**====----;;;;;;----====**&&&%%$$$##@@++...  ",
"  ..++@@###$$%%&&&**===----;;;;;;;;;;----===**&&&%%$$###@@++..  ",
"  ..++@@##$$%%%&&***==---;;;;>>>>>>;;;;---==***&&%%%$$##@@++..  ",
" ..++@@@##$$%%&&***==---;;;>>>>>>>>>>;;;---==***&&%%$$##@@@++.. ",
" ..++@@##$$$%%&&**===--;;;>>>>,,,,>>>>;;;--===**&&%%$$$##@@++.. ",
" ..++@@##$$%%&&***==--;;;>>>,,,,,,,,>>>;;;--==***&&%%$$##@@++.. ",
" ..++@@##$$%%&&**==---;;>>>,,,'''',,,>>>;;---==**&&%%$$##@@++.. ",
"..++@@###$$%%&&**==--;;>>>,,'''''''',,>>>;;--==**&&%%$$###@@++..",
"..++@@##$$%%&&***==--;;>>,,'''))))''',,>>;;--==***&&%%$$##@@++..",
"..++@@##$$%%&&**==--;;>>>,,''))))))'',,>>>;;--==**&&%%$$##@@++..",
"..++@@##$$%%&&**==--;;>>,,'')))!!)))'',,>>;;--==**&&%%$$##@@++..",
"..++@@##$$%%&&**==--;;>>,,''))!!!!))'',,>>;;--==**&&%%$$##@@++..",
"..++@@##$$%%&&**==--;;>>,,''))!!!!))'',,>>;;--==**&&%%$$##@@++..",
"..++@@##$$%%&&**==--;;>>,,'')))!!)))'',,>>;;--==**&&%%$$##@@++..",
"..++@@##$$%%&&**==--;;>>>,,''))))))'',,>>>;;--==**&&%%$$##@@++..",
"..++@@##$$%%&&***==--;;>>,,'''))))''',,>>;;--==***&&%%$$##@@++..",
"..++@@###$$%%&&**==--;;>>>,,'''''''',,>>>;;--==**&&%%$$###@@++..",
" ..++@@##$$%%&&**==---;;>>>,,,'''',,,>>>;;---==**&&%%$$##@@++.. ",
" ..++@@##$$%%&&***==--;;;>>>,,,,,,,,>>>;;;--==***&&%%$$##@@++.. ",
" ..++@@##$$$%%&&**===--;;;>>>>,,,,>>>>;;;--===**&&%%$$$##@@++.. ",
" ..++@@@##$$%%&&***==---;;;>>>>>>>>>>;;;---==***&&%%$$##@@@++.. ",
"  ..++@@##$$%%%&&***==---;;;;>>>>>>;;;;---==***&&%%%$$##@@++..  ",
"  ..++@@###$$%%&&&**===----;;;;;;;;;;----===**&&&%%$$###@@++..  ",
"  ...++@@##$$$%%&&&**====----;;;;;;----====**&&&%%$$$##@@++...  ",
"   ..++@@###$$%%%&&&***===------------===***&&&%%%$$###@@++..   ",
"   ..+++@@###$$%%%&&&***=====------=====***&&&%%%$$###@@+++..   ",
"    ..++@@@##$$$%%%&&&****============****&&&%%%$$$##@@@++..    ",
"    ...++@@@##$$$%%%&&&******======******&&&%%%$$$##@@@++...    ",
"     ..+++@@###$$$%%%&&&&**************&&&&%%%$$$###@@+++..     ",
"      ..+++@@###$$$%%%%&&&&&********&&&&&%%%%$$$###@@+++..      ",
"      ...++@@@###$$$$%%%%&&&&&&&&&&&&&&%%%%$$$$###@@@++...      ",
"       ...++@@@####$$$%%%%%%&&&&&&&&%%%%%%$$$####@@@++...       ",
"        ...++@@@@###$$$$$%%%%%%%%%%%%%%$$$$$###@@@@++...        ",
"         ...+++@@@####$$$$$$%%%%%%%%$$$$$$####@@@+++...         ",
"          ...+++@@@#####$$$$$$$$$$$$$$$$#####@@@+++...          ",
"           ...+++@@@@#######$$$$$$$$#######@@@@+++...           ",
"            ...++++@@@@@################@@@@@++++...            ",
"             ....++++@@@@@@##########@@@@@@++++....             ",
"               ...+++++@@@@@@@@@@@@@@@@@@+++++...               ",
"                .....++++++@@@@@@@@@@++++++.....                ",
"                  .....++++++++++++++++++.....                  ",
"                    .......++++++++++.......                    ",
"                       ..................                       ",
"                           ..........                           "};
