/* XPM */
static char * pwl1_xpm[] = {
"128 112 7 1",
" 	c None",
".	c #A67D1F",
"+	c #AC3232",
"@	c #D6AD51",
"#	c #2B2828",
"$	c #847E87",
"%	c #000000",
"                                                 ..                                                                             ",
"                                                 ..             ..                                                              ",
"                                                 ..             ..                                                              ",
"                                                 ..             ..                                                              ",
"                                                 ..             ..                                                              ",
"                                                 ..             ..                                                              ",
"                                                 ..             ..                                                              ",
"                                                 ..             ..                                                              ",
"                                                 ..          ++++.                                                              ",
"                                                 ..          ++++.                                                              ",
"                                                 ..          ++++.                                                              ",
"                                                 ..      @@@@@.........                                                         ",
"                                                 ..     ....@@@@...........                                                     ",
"                                                 ..     ......@@.....   ...                                                     ",
"                                                 ..    ........@@....  @  ..                                                    ",
"                                   @             ..   ..........@....@@@.@@.                                                    ",
"                                @@@.@@           ..   ......####@@###.@@.@@..                                                   ",
"                                @@@@.@@          ..  ......######@####@@@.@@..                                                  ",
"                                @@@@@.@@         ..  ......######@@@@@@@@@@@@.                                                  ",
"                                @@@@@.@@         .. .......######@@...........                                                  ",
"                                @@@.@@.@@...     ................@@##...@@.@@.                                                  ",
"                                .@.@@@@.@@..$    ................@@####..@@.@.@                                                 ",
"                                @@.@@@@.@@..$    .......#########@@#####.@@.@.@                                                 ",
"                                @@.@@@@@.@@ $$   ......##########@@######.@@..@@                                                ",
"                                .@.@@@@@.@@ $$   .....###########@@######.@@..@@                                                ",
"                                @@.@..@@@.@@ $$  .....###########@@######..@@.@@@                                               ",
"                                 @..@@@@@.@@ $$  .....###########@@######..@@.@@@                                               ",
"                                 @@@@@@@@.@@@$$  .....#########@@@@@#####...@..@@@                       ..@@@                  ",
"                                 @@@@@@@@@.@@ $$ .....#########@@@@@@####...@..@@@                      ....@@@                 ",
"                                 @@@@@@@@@.@@ $$......#########@@@@@@####.....@.@@@                     ....@@@@                ",
"                                 @@@@@@@@@.@@@.........#######@@@@@@@@##......@.@@@                     .....@@@@               ",
"                                 @@@.@@@@@@.@@.........#######@@@@@@@@@@@@....@@.@@@                    ......@@@@              ",
"                                 @@@...@@@@.@@@........#######@@@@@@@@@@@@@@@@@@.@@@                   ................@@@      ",
"                                 @@.@@..@@@@.@@ ........######@@@@@@@@@@@@@@@@@@@.@@@                  ................@@@      ",
"                                 @@.@@@.@@@@.@@@..........####@@@@@@@@@@@@@@@@@@@.@@@                  ................@@@      ",
"                                @@..@@@.@@@@.@@@ ..........##@@@$$$$...@@@@@@@@.@@.@@@                 ...$$$      ....@@@      ",
"                                @@..@@@@.@@@@.@@ ...........#@@@$$$$...  ...@@@.@@.@@@                 ...$$$                   ",
"                                @...@@@@.@@@@.@@@ ...........@@@$$$$... .........@@.@@@                ...$$$                   ",
"                               @@...@@@@@.@@@.@@@ .. ........@@@$$$$.............@@.@@@                ...$$$                   ",
"                              %@.....@@@@.@@@@.@@@   ........@@@$$$$..............@@.@@@              ....$$$                   ",
"                             % ..... $@@@@.@@@.@@@   .......@@@@$$$$... ..........@@.@@@              ....$$$                   ",
"                              %%      $@@@.@@@@.@@@@@@@....@@@@@$$$$...  ... . ....@@.@@@             ....$$$                   ",
"                                %%    $$@@@.@@@......@@@@@@@@@@@$$$$...  ... . ...........................$$$                   ",
"                                  %%%  $@@@@@@@@@@@@@.......@@@@$$$$...   ....  ..........................$$$                   ",
"                                     %%$$@@@@@@@@@@@@@@@@@.@@@@@$$$$....   ...  ..........................$$$                   ",
"                                        ..@@####@@@@@@@@@.@@@@@@$$$$..........   .........................$$$                   ",
"                                        ..@@##@#######@@@.@@@@@@$$$$..........   .........................$$$                   ",
"                                        ...@##@#@#@#@#@@.@@@@@@@$$$$......  ...   ........................$$$                   ",
"                                         ...######@#@#@@.@@@@@@@$$$$.......  ..   ........................$$$                   ",
"                                         ....@@@@#####@@.@@@@@@@$$$$##.....  ...   .......................$$$                   ",
"                                         ....@@@@@@@@@@@.@@@@@@@$$$$##......  ..   .......................$$$                   ",
"                                          .....@@@@@@@@@.@@@@@@@$$$$##......  ... ......      ............$$$                   ",
"                                          .......  @@@@@@.@@@@@@$$$$###.....   ........              .....$$$                   ",
"                                           .....   @@@@@@@.@@@@@$$$$###.....   .......                ....$$$                   ",
"                                           .....  @@@@@@@@@..@@@$$$$###.....    ....                  ....$$$                   ",
"                                            ...   @@@@@@@@@..@@@$$$$####....    ...                   ....$$$                   ",
"                                            ...   @@@@@@@@@@.@@@$$$$.###.....    .                    ....$$$                   ",
"                                                  @@@@@@@@@@.@@@$$$$.###.....                         ....$$$                   ",
"                                                 @@@@@@@@@#@.@@@$$$$.###.....                          ...$$$                   ",
"                                                 @@@@@@@@##@.@@@$$$$.####.....                         ...$$$      @@@@@@@      ",
"                                                 @@@@@@@@##@.@@@$$$$..###.....                         ...$$$      ....@@@      ",
"                                                 @@@@@@@@@@@.@@@$$$$..###@@@@@@                        ................@@@      ",
"                                                @@@@@@@@##@@..@@@@@@@@@@@@@@@@@                        ................@@@      ",
"                                                @@@@@@@@##@#..@@@@@@@@@@@@@@@@@@                       ........                 ",
"                                                @@@@@@@@##@#..@@@@@@@@@@@@@@@@@@                       .......                  ",
"                                                @@@@@@@@@@@#..@@@@@@@@@@@@@@@..                         ......                  ",
"                                                @@@@@@@@@@@#..@@@@@@@@@........                         ......                  ",
"                                               .@@@@@.@@@@@#..@@@@@@@..........                           ...                   ",
"                                               .@@@@@.@@@@##..@@@@@@@....@....@                                                 ",
"                                               .@@@@@.@@@@##...@@@@@@....@....@                                                 ",
"                                               .@@@@@.@@@@##...@.@@@.....@....@                                                 ",
"                                               .@@@@@.@@@@##...@..@......@....@                                                 ",
"                                              ...@@@..@@@@##...@.........@....@                                                 ",
"                                              ..@....@@@@@##...@.........@.....@                                                ",
"                                              ..@@@@@@@@@@##...@.........@.....@                                                ",
"                                              ..@@@@@@@@@@##...@.........@.....@                                                ",
"                                             ...@@@@@@@@@@@#...@.........@.....@                                                ",
"                                             ..@@@@@@@@@@@@#....@........@.....@                                                ",
"                                             ..@@####@@@@@@#....@........@.....@                                                ",
"                                              .@@##@##@@@@@#....@........@.....@                                                ",
"                                               @@#@###@@@@@#....@........@.....@                                                ",
"                                               @@#@###@@..@#....@........@.....@                                                ",
"                                               @@###@#@.@@@#....@........@.....@                                                ",
"                                              @@@@####.@@@@#....@........@.....@.                                               ",
"                                              @@@@@@@@.@@@@@.....@........@.....@                                               ",
"                                              @@@@@@@@.@@@@@.@@@@@@.......@..@@@@@                                              ",
"                                              @@@@@@@@.@@@@@@@@@@@@@.........@@@@@@                                             ",
"                                              @@@@@@@@.@@@@@@@@@@@@@.........@@@@@@                                             ",
"                                              @@@@@@@@.@@@@@@@@...................                                              ",
"                                              @@@@@@@@..@@@@@@....................                                              ",
"                                              @@@@@@@@@..@@@@...........$$.......                                               ",
"                                              @@@@@@@@@@..@@.....$$.....$$.....$$                                               ",
"                                               @@@@@@@@@@$$......$$.....$$.... $$                                               ",
"                                               @@@@@@@@@@$$......$$.....$$...  $$                                               ",
"                                               @@@@@@@@@@$$......$$.....$$...  $$                                               ",
"                                               @@@@@@@@@.$$.....$$$.....$$....$$$                                               ",
"                                                @@@@@....$$.....$$$.....$$....$$$                                               ",
"                                                @@@@@....$$.....$$......$$....$$                                                ",
"                                               @@@@@@....$$.....$$......$$....$$                                                ",
"                                               @@@@@@@@..$$.....$$......$$....$$.                                               ",
"                                              #@@@@@@@@..$$.....$$......$$....$$..                                              ",
"                                              #@@@@@@@@..$$.....$$......@@@@@@@@@@                                              ",
"                                              @#@@@@@@@@..@@@@@@@@@......@........@                                             ",
"                                              @#@@@@@@@@@@@........@......@.........                                            ",
"                                               @#@@@@@@@#@@.........@...............                                            ",
"                                               @#.@@@@..#@@@........................                                            ",
"                                               @@#....#@@#@@@......................                                             ",
"                                                @#@##@##@#@@@......................                                             ",
"                                                 @#@#@@#@@#@@......................                                             ",
"                                                  #@@#@##@#@.........  .......                                                  ",
"                                                     #@@#@@#.........                                                           ",
"                                                         #@#....                                                                "};
