/* XPM */
static char * pwl_arm3_xpm[] = {
"1024 632 5 1",
" 	c None",
".	c #000000",
"+	c #735308",
"@	c #C49733",
"#	c #A67D1F",
"                                                                                                                                                                                                                                                                                                                                                                                                                                                                                                                                                                                                                                                                                                                                                                                                                                                                                                                                                                                                                                                                ",
"                                                                                                                                                                                                                                                                                                                                                                                                                                                                                                                                                                                                                                                                                                                                                                                                                                                                                                                                                                                                                                                                ",
"                                                                                                                                                                                                                                                                                                                                                                                                                                                                                                                                                                                                                                                                                                                                                                                                                                                                                                                                                                                                                                                                ",
"                                                                                                                                                                                                                                                                                                                                                                                                                                                                                                                                                                                                                                                                                                                                                                                                                                                                                                                                                                                                                                                                ",
"                                                                                                                                                                                                                                                                                                                                                                                                                                                                                                                                                                                                                                                                                                                                                                                                                                                                                                                                                                                                                                                                ",
"                                                                                                                                                                                                                                                                                                                                                                                                                                                                                                                                                                                                                                                                                                                                                                                                                                                                                                                                                                                                                                                                ",
"                                                                                                                                                                                                                                                                                                                                                                                                                                                                                                                                                                                                                                                                                                                                                                                                                                                                                                                                                                                                                                                                ",
"                                                                                                                                                                                                                                                                                                                                                                                                                                                                                                                                                                                                                                                                                                                                                                                                                                                                                                                                                                                                                                                                ",
"                                                                                                                                                                                                                                                                                                                                                                                                                                                                                                                                                                                                                                                                                                                                                                                                                                                                                                                                                                                                                                                                ",
"                                                                                                                                                                                                                                                                                                                                                                                                                                                                                                                                                                                                                                                                                                                                                                                                                                                                                                                                                                                                                                                                ",
"                                                                                                                                                                                                                                                                                                                                                                                                                                                                                                                                                                                                                                                                                                                                                                                                                                                                                                                                                                                                                                                                ",
"                                                                                                                                                                                                                                                                                                                                                                                                                                                                                                                                                                                                                                                                                                                                                                                                                                                                                                                                                                                                                                                                ",
"                                                                                                                                                                                                                                                                                                                                                                                                                                                                                                                                                                                                                                                                                                    ........................                                                                                                                                                                                                                                                                                                                                    ",
"                                                                                                                                                                                                                                                                                                                                                                                                                                                                                                                                                                                                                                                                                                    ........................                                                                                                                                                                                                                                                                                                                                    ",
"                                                                                                                                                                                                                                                                                                                                                                                                                                                                                                                                                                                                                                                                                                    ........................                                                                                                                                                                                                                                                                                                                                    ",
"                                                                                                                                                                                                                                                                                                                                                                                                                                                                                                                                                                                                                                                                                                    ........................                                                                                                                                                                                                                                                                                                                                    ",
"                                                                                                                                                                                                                                                                                                                                                                                                                                                                                                                                                                                                                                                                                                    ....++++++++++++++++....                                                                                                                                                                                                                                                                                                                                    ",
"                                                                                                                                                                                                                                                                                                                                                                                                                                                                                                                                                                                                                                                                                                    ....++++++++++++++++....                                                                                                                                                                                                                                                                                                                                    ",
"                                                                                                                                                                                                                                                                                                                                                                                                                                                                                                                                                                                                                                                                                                    ....++++++++++++++++....                                                                                                                                                                                                                                                                                                                                    ",
"                                                                                                                                                                                                                                                                                                                                                                                                                                                                                                                                                                                                                                                                                                    ....++++++++++++++++....                                                                                                                                                                                                                                                                                                                                    ",
"                                                                                                                                                                                                                                                                                                                                                                                                                                                                                                                                                                                                                                                                                                ....++++++++++++++++++++....                                                                                                                                                                                                                                                                                                                                    ",
"                                                                                                                                                                                                                                                                                                                                                                                                                                                                                                                                                                                                                                                                                                ....++++++++++++++++++++....                                                                                                                                                                                                                                                                                                                                    ",
"                                                                                                                                                                                                                                                                                                                                                                                                                                                                                                                                                                                                                                                                                                ....++++++++++++++++++++....                                                                                                                                                                                                                                                                                                                                    ",
"                                                                                                                                                                                                                                                                                                                                                                                                                                                                                                                                                                                                                                                                                                ....++++++++++++++++++++....                                                                                                                                                                                                                                                                                                                                    ",
"                                                                                                                                                                                                                                                                                                                                                                                                                                                                                                                                                                                                                                                                                        ............................................................                                                                                                                                                                                                                                                                                                            ",
"                                                                                                                                                                                                                                                                                                                                                                                                                                                                                                                                                                                                                                                                                        ............................................................                                                                                                                                                                                                                                                                                                            ",
"                                                                                                                                                                                                                                                                                                                                                                                                                                                                                                                                                                                                                                                                                        ............................................................                                                                                                                                                                                                                                                                                                            ",
"                                                                                                                                                                                                                                                                                                                                                                                                                                                                                                                                                                                                                                                                                        ............................................................                                                                                                                                                                                                                                                                                                            ",
"                                                                                                                                                                                                                                                                                                                                                                                                                                                                                                                                                                                                                                                                                ........++++++++....++++++++++++++++++++++++++++++++++++++++++++++++........                                                                                                                                                                                                                                                                                                    ",
"                                                                                                                                                                                                                                                                                                                                                                                                                                                                                                                                                                                                                                                                                ........++++++++....++++++++++++++++++++++++++++++++++++++++++++++++........                                                                                                                                                                                                                                                                                                    ",
"                                                                                                                                                                                                                                                                                                                                                                                                                                                                                                                                                                                                                                                                                ........++++++++....++++++++++++++++++++++++++++++++++++++++++++++++........                                                                                                                                                                                                                                                                                                    ",
"                                                                                                                                                                                                                                                                                                                                                                                                                                                                                                                                                                                                                                                                                ........++++++++....++++++++++++++++++++++++++++++++++++++++++++++++........                                                                                                                                                                                                                                                                                                    ",
"                                                                                                ........................                                                                                                                                                                                                                                                                                                                                                                                                                                                                                                                                                    ....++++++++++++++++++++....++++++++++++++++++++++++++++++++++++++++++++++++++++....                                                                                                                                                                                                                                                                                                ",
"                                                                                                ........................                                                                                                                                                                                                                                                                                                                                                                                                                                                                                                                                                    ....++++++++++++++++++++....++++++++++++++++++++++++++++++++++++++++++++++++++++....                                                                                                                                                                                                                                                                                                ",
"                                                                                                ........................                                                                                                                                                                                                                                                                                                                                                                                                                                                                                                                                                    ....++++++++++++++++++++....++++++++++++++++++++++++++++++++++++++++++++++++++++....                                                                                                                                                                                                                                                                                                ",
"                                                                                                ........................                                                                                                                                                                                                                                                                                                                                                                                                                                                                                                                                                    ....++++++++++++++++++++....++++++++++++++++++++++++++++++++++++++++++++++++++++....                                                                                                                                                                                                                                                                                                ",
"                                                                                                ....++++++++++++++++....                                                                                                                                                                                                                                                                                                                                                                                                                                                                                                                                                    ....++++++++++++++++++++++++....++++++++++++++++++++++++++++++++++++++++++++++++....                                                                                                                                                                                                                                                                                                ",
"                                                                                                ....++++++++++++++++....                                                                                                                                                                                                                                                                                                                                                                                                                                                                                                                                                    ....++++++++++++++++++++++++....++++++++++++++++++++++++++++++++++++++++++++++++....                                                                                                                                                                                                                                                                                                ",
"                                                                                                ....++++++++++++++++....                                                                                                                                                                                                                                                                                                                                                                                                                                                                                                                                                    ....++++++++++++++++++++++++....++++++++++++++++++++++++++++++++++++++++++++++++....                                                                                                                                                                                                                                                                                                ",
"                                                                                                ....++++++++++++++++....                                                                                                                                                                                                                                                                                                                                                                                                                                                                                                                                                    ....++++++++++++++++++++++++....++++++++++++++++++++++++++++++++++++++++++++++++....                                                                                                                                                                                                                                                                                                ",
"                                                                                                ....++++++++++++++++++++....                                                                                                                                                                                                                                                                                                                                                                                                                                                                                                                                                ....++++++++++++++++++++++++....++++++++++++++++++++++++++++++++++++++++++++++++....                                                                                                                                                                                                                                                                                                ",
"                                                                                                ....++++++++++++++++++++....                                                                                                                                                                                                                                                                                                                                                                                                                                                                                                                                                ....++++++++++++++++++++++++....++++++++++++++++++++++++++++++++++++++++++++++++....                                                                                                                                                                                                                                                                                                ",
"                                                                                                ....++++++++++++++++++++....                                                                                                                                                                                                                                                                                                                                                                                                                                                                                                                                                ....++++++++++++++++++++++++....++++++++++++++++++++++++++++++++++++++++++++++++....                                                                                                                                                                                                                                                                                                ",
"                                                                                                ....++++++++++++++++++++....                                                                                                                                                                                                                                                                                                                                                                                                                                                                                                                                                ....++++++++++++++++++++++++....++++++++++++++++++++++++++++++++++++++++++++++++....                                                                                                                                                                                                                                                                                                ",
"                                                                        ............................................................                                                                                                                                                                                                                                                                                                                                                                                                                                                                                                                                        ....++++++++++++++++++++++++....++++++++++++++++++++++++++++++++++++++++++++++++....                                                                                                                                                                                                                                                                                                ",
"                                                                        ............................................................                                                                                                                                                                                                                                                                                                                                                                                                                                                                                                                                        ....++++++++++++++++++++++++....++++++++++++++++++++++++++++++++++++++++++++++++....                                                                                                                                                                                                                                                                                                ",
"                                                                        ............................................................                                                                                                                                                                                                                                                                                                                                                                                                                                                                                                                                        ....++++++++++++++++++++++++....++++++++++++++++++++++++++++++++++++++++++++++++....                                                                                                                                                                                                                                                                                                ",
"                                                                        ............................................................                                                                                                                                                                                                                                                                                                                                                                                                                                                                                                                                        ....++++++++++++++++++++++++....++++++++++++++++++++++++++++++++++++++++++++++++....                                                                                                                                                                                                                                                                                                ",
"                                                                ........++++++++++++++++++++++++++++++++++++++++++++++++....++++++++........                                                                                                                                                                                                                                                                                                                                                                                                                                                                                                                                ....++++++++++++++++++++++++....++++++++++++++++++++++++++++++++++++++++++++++++....                                                                                                                                                                                                                                                                                                ",
"                                                                ........++++++++++++++++++++++++++++++++++++++++++++++++....++++++++........                                                                                                                                                                                                                                                                                                                                                                                                                                                                                                                                ....++++++++++++++++++++++++....++++++++++++++++++++++++++++++++++++++++++++++++....                                                                                                                                                                                                                                                                                                ",
"                                                                ........++++++++++++++++++++++++++++++++++++++++++++++++....++++++++........                                                                                                                                                                                                                                                                                                                                                                                                                                                                                                                                ....++++++++++++++++++++++++....++++++++++++++++++++++++++++++++++++++++++++++++....                                                                                                                                                                                                                                                                                                ",
"                                                                ........++++++++++++++++++++++++++++++++++++++++++++++++....++++++++........                                                                                                                                                                                                                                                                                                                                                                                                                                                                                                                                ....++++++++++++++++++++++++....++++++++++++++++++++++++++++++++++++++++++++++++....                                                                                                                                                                                                                                                                                                ",
"                                                            ....++++++++++++++++++++++++++++++++++++++++++++++++++++....++++++++++++++++++++....                                                                                                                                                                                                                                                                                                                                                                                                                                                                                                                            ....++++++++++++++++++++++++....++++++++++++++++++++++++++++++++++++++++++++++++....                                                                                                                                                                                                                                                                                                ",
"                                                            ....++++++++++++++++++++++++++++++++++++++++++++++++++++....++++++++++++++++++++....                                                                                                                                                                                                                                                                                                                                                                                                                                                                                                                            ....++++++++++++++++++++++++....++++++++++++++++++++++++++++++++++++++++++++++++....                                                                                                                                                                                                                                                                                                ",
"                                                            ....++++++++++++++++++++++++++++++++++++++++++++++++++++....++++++++++++++++++++....                                                                                                                                                                                                                                                                                                                                                                                                                                                                                                                            ....++++++++++++++++++++++++....++++++++++++++++++++++++++++++++++++++++++++++++....                                                                                                                                                                                                                                                                                                ",
"                                                            ....++++++++++++++++++++++++++++++++++++++++++++++++++++....++++++++++++++++++++....                                                                                                                                                                                                                                                                                                                                                                                                                                                                                                                            ....++++++++++++++++++++++++....++++++++++++++++++++++++++++++++++++++++++++++++....                                                                                                                                                                                                                                                                                                ",
"                                                            ....++++++++++++++++++++++++++++++++++++++++++++++++....++++++++++++++++++++++++....                                                                                                                                                                                                                                                                                                                                                                                                                                                                                                                        ....++++++++++++++++++++++++++++....++++++++++++++++++++++++++++++++++++++++++++++++....                                                                                                                                                                                                                                                                                                ",
"                                                            ....++++++++++++++++++++++++++++++++++++++++++++++++....++++++++++++++++++++++++....                                                                                                                                                                                                                                                                                                                                                                                                                                                                                                                        ....++++++++++++++++++++++++++++....++++++++++++++++++++++++++++++++++++++++++++++++....                                                                                                                                                                                                                                                                                                ",
"                                                            ....++++++++++++++++++++++++++++++++++++++++++++++++....++++++++++++++++++++++++....                                                                                                                                                                                                                                                                                                                                                                                                                                                                                                                        ....++++++++++++++++++++++++++++....++++++++++++++++++++++++++++++++++++++++++++++++....                                                                                                                                                                                                                                                                                                ",
"                                                            ....++++++++++++++++++++++++++++++++++++++++++++++++....++++++++++++++++++++++++....                                                                                                                                                                                                                                                                                                                                                                                                                                                                                                                        ....++++++++++++++++++++++++++++....++++++++++++++++++++++++++++++++++++++++++++++++....                                                                                                                                                                                                                                                                                                ",
"                                                            ....++++++++++++++++++++++++++++++++++++++++++++++++....++++++++++++++++++++++++....                                                                                                                                                                                                                                                                                                                                                                                                                                                                                                                        ....++++++++++++++++++++++++++++....++++++++++++++++++++++++++++++++++++++++++++@@@@....                                                                                                                                                                                                                                                                                                ",
"                                                            ....++++++++++++++++++++++++++++++++++++++++++++++++....++++++++++++++++++++++++....                                                                                                                                                                                                                                                                                                                                                                                                                                                                                                                        ....++++++++++++++++++++++++++++....++++++++++++++++++++++++++++++++++++++++++++@@@@....                                                                                                                                                                                                                                                                                                ",
"                                                            ....++++++++++++++++++++++++++++++++++++++++++++++++....++++++++++++++++++++++++....                                                                                                                                                                                                                                                                                                                                                                                                                                                                                                                        ....++++++++++++++++++++++++++++....++++++++++++++++++++++++++++++++++++++++++++@@@@....                                                                                                                                                                                                                                                                                                ",
"                                                            ....++++++++++++++++++++++++++++++++++++++++++++++++....++++++++++++++++++++++++....                                                                                                                                                                                                                                                                                                                                                                                                                                                                                                                        ....++++++++++++++++++++++++++++....++++++++++++++++++++++++++++++++++++++++++++@@@@....                                                                                                                                                                                                                                                                                                ",
"                                                            ....++++++++++++++++++++++++++++++++++++++++++++++++....++++++++++++++++++++++++....                                                                                                                                                                                                                                                                                                                                                                                                                                                                                                                    ....++++++++++++++++++++++++++++++++....++++++++++++++++++++++++++++++++++++++++++++++++....                                                                                                                                                                                                                                                                                                ",
"                                                            ....++++++++++++++++++++++++++++++++++++++++++++++++....++++++++++++++++++++++++....                                                                                                                                                                                                                                                                                                                                                                                                                                                                                                                    ....++++++++++++++++++++++++++++++++....++++++++++++++++++++++++++++++++++++++++++++++++....                                                                                                                                                                                                                                                                                                ",
"                                                            ....++++++++++++++++++++++++++++++++++++++++++++++++....++++++++++++++++++++++++....                                                                                                                                                                                                                                                                                                                                                                                                                                                                                                                    ....++++++++++++++++++++++++++++++++....++++++++++++++++++++++++++++++++++++++++++++++++....                                                                                                                                                                                                                                                                                                ",
"                                                            ....++++++++++++++++++++++++++++++++++++++++++++++++....++++++++++++++++++++++++....                                                                                                                                                                                                                                                                                                                                                                                                                                                                                                                    ....++++++++++++++++++++++++++++++++....++++++++++++++++++++++++++++++++++++++++++++++++....                                                                                                                                                                                                                                                                                                ",
"                                                            ....++++++++++++++++++++++++++++++++++++++++++++++++....++++++++++++++++++++++++....                                                                                                                                                                                                                                                                                                                                                                                                                                                                                                                    ....++++++++++++++++++++++++++++++++....++++@@@@++++@@@@++++@@@@++++@@@@++++@@@@++++@@@@....                                                                                                                                                                                                                                                                                                ",
"                                                            ....++++++++++++++++++++++++++++++++++++++++++++++++....++++++++++++++++++++++++....                                                                                                                                                                                                                                                                                                                                                                                                                                                                                                                    ....++++++++++++++++++++++++++++++++....++++@@@@++++@@@@++++@@@@++++@@@@++++@@@@++++@@@@....                                                                                                                                                                                                                                                                                                ",
"                                                            ....++++++++++++++++++++++++++++++++++++++++++++++++....++++++++++++++++++++++++....                                                                                                                                                                                                                                                                                                                                                                                                                                                                                                                    ....++++++++++++++++++++++++++++++++....++++@@@@++++@@@@++++@@@@++++@@@@++++@@@@++++@@@@....                                                                                                                                                                                                                                                                                                ",
"                                                            ....++++++++++++++++++++++++++++++++++++++++++++++++....++++++++++++++++++++++++....                                                                                                                                                                                                                                                                                                                                                                                                                                                                                                                    ....++++++++++++++++++++++++++++++++....++++@@@@++++@@@@++++@@@@++++@@@@++++@@@@++++@@@@....                                                                                                                                                                                                                                                                                                ",
"                                                            ....++++++++++++++++++++++++++++++++++++++++++++++++....++++++++++++++++++++........                                                                                                                                                                                                                                                                                                                                                                                                                                                    ................................................................++++++++++++++++++++++++++++++++++++....++++++++++++++++++++++++++++++++++++++++++++++++....                                                                                                                                                                                                                                                                                                ",
"                                                            ....++++++++++++++++++++++++++++++++++++++++++++++++....++++++++++++++++++++........                                                                                                                                                                                                                                                                                                                                                                                                                                                    ................................................................++++++++++++++++++++++++++++++++++++....++++++++++++++++++++++++++++++++++++++++++++++++....                                                                                                                                                                                                                                                                                                ",
"                                                            ....++++++++++++++++++++++++++++++++++++++++++++++++....++++++++++++++++++++........                                                                                                                                                                                                                                                                                                                                                                                                                                                    ................................................................++++++++++++++++++++++++++++++++++++....++++++++++++++++++++++++++++++++++++++++++++++++....                                                                                                                                                                                                                                                                                                ",
"                                                            ....++++++++++++++++++++++++++++++++++++++++++++++++....++++++++++++++++++++........                                                                                                                                                                                                                                                                                                                                                                                                                                                    ................................................................++++++++++++++++++++++++++++++++++++....++++++++++++++++++++++++++++++++++++++++++++++++....                                                                                                                                                                                                                                                                                                ",
"                                                            ....++++++++++++++++++++++++++++++++++++++++++++++++....++++++++++++++++....++++++++....                                                                                                                                                                                                                                                                                                                                                                                                                                    ................++++++++++++++++++++++++++++++++++++++++++++++++++++....++++++++++++++++++++++++++++++++++++++++....++++@@@@++++@@@@++++@@@@++++@@@@++++@@@@++++@@@@....                                                                                                                                                                                                                                                                                                ",
"                                                            ....++++++++++++++++++++++++++++++++++++++++++++++++....++++++++++++++++....++++++++....                                                                                                                                                                                                                                                                                                                                                                                                                                    ................++++++++++++++++++++++++++++++++++++++++++++++++++++....++++++++++++++++++++++++++++++++++++++++....++++@@@@++++@@@@++++@@@@++++@@@@++++@@@@++++@@@@....                                                                                                                                                                                                                                                                                                ",
"                                                            ....++++++++++++++++++++++++++++++++++++++++++++++++....++++++++++++++++....++++++++....                                                                                                                                                                                                                                                                                                                                                                                                                                    ................++++++++++++++++++++++++++++++++++++++++++++++++++++....++++++++++++++++++++++++++++++++++++++++....++++@@@@++++@@@@++++@@@@++++@@@@++++@@@@++++@@@@....                                                                                                                                                                                                                                                                                                ",
"                                                            ....++++++++++++++++++++++++++++++++++++++++++++++++....++++++++++++++++....++++++++....                                                                                                                                                                                                                                                                                                                                                                                                                                    ................++++++++++++++++++++++++++++++++++++++++++++++++++++....++++++++++++++++++++++++++++++++++++++++....++++@@@@++++@@@@++++@@@@++++@@@@++++@@@@++++@@@@....                                                                                                                                                                                                                                                                                                ",
"                                                            ....@@@@++++++++++++++++++++++++++++++++++++++++++++....++++++++++++++++....++++++++....                                                                                                                                                                                                                                                                                                                                                                                                                                    ....++++++++++++................................++++++++++++++++++++....++++++++++++++++++++++++++++++++++++++++....++++++++++++++++++++++++++++++++++++++++++++++++....                                                                                                                                                                                                                                                                                                ",
"                                                            ....@@@@++++++++++++++++++++++++++++++++++++++++++++....++++++++++++++++....++++++++....                                                                                                                                                                                                                                                                                                                                                                                                                                    ....++++++++++++................................++++++++++++++++++++....++++++++++++++++++++++++++++++++++++++++....++++++++++++++++++++++++++++++++++++++++++++++++....                                                                                                                                                                                                                                                                                                ",
"                                                            ....@@@@++++++++++++++++++++++++++++++++++++++++++++....++++++++++++++++....++++++++....                                                                                                                                                                                                                                                                                                                                                                                                                                    ....++++++++++++................................++++++++++++++++++++....++++++++++++++++++++++++++++++++++++++++....++++++++++++++++++++++++++++++++++++++++++++++++....                                                                                                                                                                                                                                                                                                ",
"                                                            ....@@@@++++++++++++++++++++++++++++++++++++++++++++....++++++++++++++++....++++++++....                                                                                                                                                                                                                                                                                                                                                                                                                                    ....++++++++++++................................++++++++++++++++++++....++++++++++++++++++++++++++++++++++++++++....++++++++++++++++++++++++++++++++++++++++++++++++....                                                                                                                                                                                                                                                                                                ",
"                                                            ....++++++++++++++++++++++++++++++++++++++++++++++++....++++++++++++++++....++++++++++++....                                                                                                                                                                                                                                                                                                                                                                                                                                ....++++++++++++++++++++++++++++++++++++++++++++....................++++++++++++++++++++++++++++++++++++++++++++....++++@@@@++++@@@@++++@@@@++++@@@@++++@@@@++++@@@@....                                                                                                                                                                                                                                                                                                ",
"                                                            ....++++++++++++++++++++++++++++++++++++++++++++++++....++++++++++++++++....++++++++++++....                                                                                                                                                                                                                                                                                                                                                                                                                                ....++++++++++++++++++++++++++++++++++++++++++++....................++++++++++++++++++++++++++++++++++++++++++++....++++@@@@++++@@@@++++@@@@++++@@@@++++@@@@++++@@@@....                                                                                                                                                                                                                                                                                                ",
"                                                            ....++++++++++++++++++++++++++++++++++++++++++++++++....++++++++++++++++....++++++++++++....                                                                                                                                                                                                                                                                                                                                                                                                                                ....++++++++++++++++++++++++++++++++++++++++++++....................++++++++++++++++++++++++++++++++++++++++++++....++++@@@@++++@@@@++++@@@@++++@@@@++++@@@@++++@@@@....                                                                                                                                                                                                                                                                                                ",
"                                                            ....++++++++++++++++++++++++++++++++++++++++++++++++....++++++++++++++++....++++++++++++....                                                                                                                                                                                                                                                                                                                                                                                                                                ....++++++++++++++++++++++++++++++++++++++++++++....................++++++++++++++++++++++++++++++++++++++++++++....++++@@@@++++@@@@++++@@@@++++@@@@++++@@@@++++@@@@....                                                                                                                                                                                                                                                                                                ",
"                                                            ....@@@@++++@@@@++++@@@@++++@@@@++++@@@@++++@@@@++++....++++++++++++++++....++++++++++++....                                                                                                                                                                                                                                                                                                                                                                                                                                ....++++++++++++++++++++++++++++++++++++++++++++++++++++++++++++++++++++++++++++++++++++++++++++++++++++++++++++....++++++++++++++++++++++++++++++++@@@@++++@@@@++++@@@@....                                                                                                                                                                                                                                                                                            ",
"                                                            ....@@@@++++@@@@++++@@@@++++@@@@++++@@@@++++@@@@++++....++++++++++++++++....++++++++++++....                                                                                                                                                                                                                                                                                                                                                                                                                                ....++++++++++++++++++++++++++++++++++++++++++++++++++++++++++++++++++++++++++++++++++++++++++++++++++++++++++++....++++++++++++++++++++++++++++++++@@@@++++@@@@++++@@@@....                                                                                                                                                                                                                                                                                            ",
"                                                            ....@@@@++++@@@@++++@@@@++++@@@@++++@@@@++++@@@@++++....++++++++++++++++....++++++++++++....                                                                                                                                                                                                                                                                                                                                                                                                                                ....++++++++++++++++++++++++++++++++++++++++++++++++++++++++++++++++++++++++++++++++++++++++++++++++++++++++++++....++++++++++++++++++++++++++++++++@@@@++++@@@@++++@@@@....                                                                                                                                                                                                                                                                                            ",
"                                                            ....@@@@++++@@@@++++@@@@++++@@@@++++@@@@++++@@@@++++....++++++++++++++++....++++++++++++....                                                                                                                                                                                                                                                                                                                                                                                                                                ....++++++++++++++++++++++++++++++++++++++++++++++++++++++++++++++++++++++++++++++++++++++++++++++++++++++++++++....++++++++++++++++++++++++++++++++@@@@++++@@@@++++@@@@....                                                                                                                                                                                                                                                                                            ",
"                                                            ....++++++++++++++++++++++++++++++++++++++++++++++++....++++++++++++++++....++++++++++++++++................................................................                                                                                                                                                                                                                                                                                                                                                                ............++++++++++++++++++++++++++++++++++++++++++++++++++++++++++++++++++++++++++++++++++++++++++++++++++++++++....@@@@++++@@@@++++@@@@++++@@@@++++@@@@++++@@@@++++....                                                                                                                                                                                                                                                                                            ",
"                                                            ....++++++++++++++++++++++++++++++++++++++++++++++++....++++++++++++++++....++++++++++++++++................................................................                                                                                                                                                                                                                                                                                                                                                                ............++++++++++++++++++++++++++++++++++++++++++++++++++++++++++++++++++++++++++++++++++++++++++++++++++++++++....@@@@++++@@@@++++@@@@++++@@@@++++@@@@++++@@@@++++....                                                                                                                                                                                                                                                                                            ",
"                                                            ....++++++++++++++++++++++++++++++++++++++++++++++++....++++++++++++++++....++++++++++++++++................................................................                                                                                                                                                                                                                                                                                                                                                                ............++++++++++++++++++++++++++++++++++++++++++++++++++++++++++++++++++++++++++++++++++++++++++++++++++++++++....@@@@++++@@@@++++@@@@++++@@@@++++@@@@++++@@@@++++....                                                                                                                                                                                                                                                                                            ",
"                                                            ....++++++++++++++++++++++++++++++++++++++++++++++++....++++++++++++++++....++++++++++++++++................................................................                                                                                                                                                                                                                                                                                                                                                                ............++++++++++++++++++++++++++++++++++++++++++++++++++++++++++++++++++++++++++++++++++++++++++++++++++++++++....@@@@++++@@@@++++@@@@++++@@@@++++@@@@++++@@@@++++....                                                                                                                                                                                                                                                                                            ",
"                                                            ....@@@@++++@@@@++++@@@@++++@@@@++++@@@@++++@@@@++++....++++++++++++++++....++++++++++++++++++++....++++++++++++++++++++++++++++++++++++++++++++++++++++................                                                                                                                                                                                                                                                                                                                                                            ........++++++++++++++++++++++++++++++++++++++++++++++++++++++++++++++++++++++++++++++++++++++++++++++++++++....++++@@@@++++@@@@++++@@@@++++@@@@++++@@@@++++@@@@....                                                                                                                                                                                                                                                                                            ",
"                                                            ....@@@@++++@@@@++++@@@@++++@@@@++++@@@@++++@@@@++++....++++++++++++++++....++++++++++++++++++++....++++++++++++++++++++++++++++++++++++++++++++++++++++................                                                                                                                                                                                                                                                                                                                                                            ........++++++++++++++++++++++++++++++++++++++++++++++++++++++++++++++++++++++++++++++++++++++++++++++++++++....++++@@@@++++@@@@++++@@@@++++@@@@++++@@@@++++@@@@....                                                                                                                                                                                                                                                                                            ",
"                                                            ....@@@@++++@@@@++++@@@@++++@@@@++++@@@@++++@@@@++++....++++++++++++++++....++++++++++++++++++++....++++++++++++++++++++++++++++++++++++++++++++++++++++................                                                                                                                                                                                                                                                                                                                                                            ........++++++++++++++++++++++++++++++++++++++++++++++++++++++++++++++++++++++++++++++++++++++++++++++++++++....++++@@@@++++@@@@++++@@@@++++@@@@++++@@@@++++@@@@....                                                                                                                                                                                                                                                                                            ",
"                                                            ....@@@@++++@@@@++++@@@@++++@@@@++++@@@@++++@@@@++++....++++++++++++++++....++++++++++++++++++++....++++++++++++++++++++++++++++++++++++++++++++++++++++................                                                                                                                                                                                                                                                                                                                                                            ........++++++++++++++++++++++++++++++++++++++++++++++++++++++++++++++++++++++++++++++++++++++++++++++++++++....++++@@@@++++@@@@++++@@@@++++@@@@++++@@@@++++@@@@....                                                                                                                                                                                                                                                                                            ",
"                                                            ....++++++++++++++++++++++++++++++++++++++++++++++++....++++++++++++++++....++++++++++++++++++++....++++++++++++++++++++................................++++++++++++....                                                                                                                                                                                                                                                                                                                                                            ....++++............++++++++++++++++++++++++++++++++++++++++++++++++++++++++++++++++++++++++++++++++++++++++....@@@@++++@@@@++++@@@@++++@@@@++++@@@@++++@@@@++++....                                                                                                                                                                                                                                                                                            ",
"                                                            ....++++++++++++++++++++++++++++++++++++++++++++++++....++++++++++++++++....++++++++++++++++++++....++++++++++++++++++++................................++++++++++++....                                                                                                                                                                                                                                                                                                                                                            ....++++............++++++++++++++++++++++++++++++++++++++++++++++++++++++++++++++++++++++++++++++++++++++++....@@@@++++@@@@++++@@@@++++@@@@++++@@@@++++@@@@++++....                                                                                                                                                                                                                                                                                            ",
"                                                            ....++++++++++++++++++++++++++++++++++++++++++++++++....++++++++++++++++....++++++++++++++++++++....++++++++++++++++++++................................++++++++++++....                                                                                                                                                                                                                                                                                                                                                            ....++++............++++++++++++++++++++++++++++++++++++++++++++++++++++++++++++++++++++++++++++++++++++++++....@@@@++++@@@@++++@@@@++++@@@@++++@@@@++++@@@@++++....                                                                                                                                                                                                                                                                                            ",
"                                                            ....++++++++++++++++++++++++++++++++++++++++++++++++....++++++++++++++++....++++++++++++++++++++....++++++++++++++++++++................................++++++++++++....                                                                                                                                                                                                                                                                                                                                                            ....++++............++++++++++++++++++++++++++++++++++++++++++++++++++++++++++++++++++++++++++++++++++++++++....@@@@++++@@@@++++@@@@++++@@@@++++@@@@++++@@@@++++....                                                                                                                                                                                                                                                                                            ",
"                                                            ....@@@@++++@@@@++++@@@@++++@@@@++++@@@@++++@@@@++++....++++++++++++++++....++++++++++++++++++++++++....................++++++++++++++++++++++++++++++++++++++++++++....                                                                                                                                                                                                                                                                                                                                                            ....++++++++++++++++........++++++++++++++++++++++++++++++++++++++++++++++++++++++++++++++++++++++++++++++++....++++@@@@++++@@@@++++@@@@++++@@@@++++@@@@++++@@@@....                                                                                                                                                                                                                                                                                            ",
"                                                            ....@@@@++++@@@@++++@@@@++++@@@@++++@@@@++++@@@@++++....++++++++++++++++....++++++++++++++++++++++++....................++++++++++++++++++++++++++++++++++++++++++++....                                                                                                                                                                                                                                                                                                                                                            ....++++++++++++++++........++++++++++++++++++++++++++++++++++++++++++++++++++++++++++++++++++++++++++++++++....++++@@@@++++@@@@++++@@@@++++@@@@++++@@@@++++@@@@....                                                                                                                                                                                                                                                                                            ",
"                                                            ....@@@@++++@@@@++++@@@@++++@@@@++++@@@@++++@@@@++++....++++++++++++++++....++++++++++++++++++++++++....................++++++++++++++++++++++++++++++++++++++++++++....                                                                                                                                                                                                                                                                                                                                                            ....++++++++++++++++........++++++++++++++++++++++++++++++++++++++++++++++++++++++++++++++++++++++++++++++++....++++@@@@++++@@@@++++@@@@++++@@@@++++@@@@++++@@@@....                                                                                                                                                                                                                                                                                            ",
"                                                            ....@@@@++++@@@@++++@@@@++++@@@@++++@@@@++++@@@@++++....++++++++++++++++....++++++++++++++++++++++++....................++++++++++++++++++++++++++++++++++++++++++++....                                                                                                                                                                                                                                                                                                                                                            ....++++++++++++++++........++++++++++++++++++++++++++++++++++++++++++++++++++++++++++++++++++++++++++++++++....++++@@@@++++@@@@++++@@@@++++@@@@++++@@@@++++@@@@....                                                                                                                                                                                                                                                                                            ",
"                                                        ....@@@@++++@@@@++++@@@@++++++++++++++++++++++++++++++++....++++++++++++++++....++++++++++++++++++++++++++++++++++++++++++++++++++++++++++++++++++++++++++++++++++++++++....                                                                                                                                                                                                                                                                                                                                                            ....++++++++++++++++++++++++............++++++++++++++++++++++++++++++++++++++++++++++++++++++++++++++++++++....@@@@++++@@@@++++@@@@++++@@@@++++@@@@++++@@@@++++....                                                                                                                                                                                                                                                                                            ",
"                                                        ....@@@@++++@@@@++++@@@@++++++++++++++++++++++++++++++++....++++++++++++++++....++++++++++++++++++++++++++++++++++++++++++++++++++++++++++++++++++++++++++++++++++++++++....                                                                                                                                                                                                                                                                                                                                                            ....++++++++++++++++++++++++............++++++++++++++++++++++++++++++++++++++++++++++++++++++++++++++++++++....@@@@++++@@@@++++@@@@++++@@@@++++@@@@++++@@@@++++....                                                                                                                                                                                                                                                                                            ",
"                                                        ....@@@@++++@@@@++++@@@@++++++++++++++++++++++++++++++++....++++++++++++++++....++++++++++++++++++++++++++++++++++++++++++++++++++++++++++++++++++++++++++++++++++++++++....                                                                                                                                                                                                                                                                                                                                                            ....++++++++++++++++++++++++............++++++++++++++++++++++++++++++++++++++++++++++++++++++++++++++++++++....@@@@++++@@@@++++@@@@++++@@@@++++@@@@++++@@@@++++....                                                                                                                                                                                                                                                                                            ",
"                                                        ....@@@@++++@@@@++++@@@@++++++++++++++++++++++++++++++++....++++++++++++++++....++++++++++++++++++++++++++++++++++++++++++++++++++++++++++++++++++++++++++++++++++++++++....                                                                                                                                                                                                                                                                                                                                                            ....++++++++++++++++++++++++............++++++++++++++++++++++++++++++++++++++++++++++++++++++++++++++++++++....@@@@++++@@@@++++@@@@++++@@@@++++@@@@++++@@@@++++....                                                                                                                                                                                                                                                                                            ",
"                                                        ....++++@@@@++++@@@@++++@@@@++++@@@@++++@@@@++++@@@@....++++++++++++++++++++....++++++++++++++++++++++++++++++++++++++++++++++++++++++++++++++++++++++++++++++++............                                                                                                                                                                                                                                                                                                                                                            ........++++++++++++++++++++....++++++++............++++++++++++++++++++++++++++++++++++++++++++++++++++++++....++++@@@@++++@@@@++++@@@@++++@@@@++++@@@@++++@@@@....                                                                                                                                                                                                                                                                                            ",
"                                                        ....++++@@@@++++@@@@++++@@@@++++@@@@++++@@@@++++@@@@....++++++++++++++++++++....++++++++++++++++++++++++++++++++++++++++++++++++++++++++++++++++++++++++++++++++............                                                                                                                                                                                                                                                                                                                                                            ........++++++++++++++++++++....++++++++............++++++++++++++++++++++++++++++++++++++++++++++++++++++++....++++@@@@++++@@@@++++@@@@++++@@@@++++@@@@++++@@@@....                                                                                                                                                                                                                                                                                            ",
"                                                        ....++++@@@@++++@@@@++++@@@@++++@@@@++++@@@@++++@@@@....++++++++++++++++++++....++++++++++++++++++++++++++++++++++++++++++++++++++++++++++++++++++++++++++++++++............                                                                                                                                                                                                                                                                                                                                                            ........++++++++++++++++++++....++++++++............++++++++++++++++++++++++++++++++++++++++++++++++++++++++....++++@@@@++++@@@@++++@@@@++++@@@@++++@@@@++++@@@@....                                                                                                                                                                                                                                                                                            ",
"                                                        ....++++@@@@++++@@@@++++@@@@++++@@@@++++@@@@++++@@@@....++++++++++++++++++++....++++++++++++++++++++++++++++++++++++++++++++++++++++++++++++++++++++++++++++++++............                                                                                                                                                                                                                                                                                                                                                            ........++++++++++++++++++++....++++++++............++++++++++++++++++++++++++++++++++++++++++++++++++++++++....++++@@@@++++@@@@++++@@@@++++@@@@++++@@@@++++@@@@....                                                                                                                                                                                                                                                                                            ",
"                                                        ....@@@@++++@@@@++++@@@@++++@@@@++++@@@@++++@@@@++++....++++++++++++++++++++....++++++++++++++++++++++++++++++++++++++++++++++++++++++++++++++++++++++++++++........                                                                                                                                                                                                                                                                                                                                                                            ............++++++++....++++++++++++++++............++++++++++++++++++++++++++++++++++++++++++++++++....@@@@++++@@@@@@@@@@@@@@@@@@@@@@@@@@@@@@@@@@@@@@@@....                                                                                                                                                                                                                                                                                            ",
"                                                        ....@@@@++++@@@@++++@@@@++++@@@@++++@@@@++++@@@@++++....++++++++++++++++++++....++++++++++++++++++++++++++++++++++++++++++++++++++++++++++++++++++++++++++++........                                                                                                                                                                                                                                                                                                                                                                            ............++++++++....++++++++++++++++............++++++++++++++++++++++++++++++++++++++++++++++++....@@@@++++@@@@@@@@@@@@@@@@@@@@@@@@@@@@@@@@@@@@@@@@....                                                                                                                                                                                                                                                                                            ",
"                                                        ....@@@@++++@@@@++++@@@@++++@@@@++++@@@@++++@@@@++++....++++++++++++++++++++....++++++++++++++++++++++++++++++++++++++++++++++++++++++++++++++++++++++++++++........                                                                                                                                                                                                                                                                                                                                                                            ............++++++++....++++++++++++++++............++++++++++++++++++++++++++++++++++++++++++++++++....@@@@++++@@@@@@@@@@@@@@@@@@@@@@@@@@@@@@@@@@@@@@@@....                                                                                                                                                                                                                                                                                            ",
"                                                        ....@@@@++++@@@@++++@@@@++++@@@@++++@@@@++++@@@@++++....++++++++++++++++++++....++++++++++++++++++++++++++++++++++++++++++++++++++++++++++++++++++++++++++++........                                                                                                                                                                                                                                                                                                                                                                            ............++++++++....++++++++++++++++............++++++++++++++++++++++++++++++++++++++++++++++++....@@@@++++@@@@@@@@@@@@@@@@@@@@@@@@@@@@@@@@@@@@@@@@....                                                                                                                                                                                                                                                                                            ",
"                                                        ....++++@@@@++++@@@@++++@@@@++++@@@@++++@@@@++++@@@@....++++++++++++++++++++....++++++++++++++++++++++++++++++++++++++++++++++++++++++++++++++++............++++....                                                                                                                                                                                                                                                                                                                                                                                        ................................        ............++++++++++++++++++++++++++++++++++++....++++@@@@++++@@@@++++@@@@++++@@@@++++@@@@++++@@@@....                                                                                                                                                                                                                                                                                            ",
"                                                        ....++++@@@@++++@@@@++++@@@@++++@@@@++++@@@@++++@@@@....++++++++++++++++++++....++++++++++++++++++++++++++++++++++++++++++++++++++++++++++++++++............++++....                                                                                                                                                                                                                                                                                                                                                                                        ................................        ............++++++++++++++++++++++++++++++++++++....++++@@@@++++@@@@++++@@@@++++@@@@++++@@@@++++@@@@....                                                                                                                                                                                                                                                                                            ",
"                                                        ....++++@@@@++++@@@@++++@@@@++++@@@@++++@@@@++++@@@@....++++++++++++++++++++....++++++++++++++++++++++++++++++++++++++++++++++++++++++++++++++++............++++....                                                                                                                                                                                                                                                                                                                                                                                        ................................        ............++++++++++++++++++++++++++++++++++++....++++@@@@++++@@@@++++@@@@++++@@@@++++@@@@++++@@@@....                                                                                                                                                                                                                                                                                            ",
"                                                        ....++++@@@@++++@@@@++++@@@@++++@@@@++++@@@@++++@@@@....++++++++++++++++++++....++++++++++++++++++++++++++++++++++++++++++++++++++++++++++++++++............++++....                                                                                                                                                                                                                                                                                                                                                                                        ................................        ............++++++++++++++++++++++++++++++++++++....++++@@@@++++@@@@++++@@@@++++@@@@++++@@@@++++@@@@....                                                                                                                                                                                                                                                                                            ",
"                                                        ....@@@@++++@@@@++++@@@@++++@@@@++++@@@@++++@@@@++++....++++++++++++++++++++....++++++++++++++++++++++++++++++++++++++++++++++++++++++++........++++++++++++++++....                                                                                                                                                                                                                                                                                                                                                                                                                                            ........++++++++++++++++++++++++++++....@@@@@@@@@@@@@@@@@@@@@@@@@@@@@@@@@@@@@@@@@@@@@@@@....                                                                                                                                                                                                                                                                                            ",
"                                                        ....@@@@++++@@@@++++@@@@++++@@@@++++@@@@++++@@@@++++....++++++++++++++++++++....++++++++++++++++++++++++++++++++++++++++++++++++++++++++........++++++++++++++++....                                                                                                                                                                                                                                                                                                                                                                                                                                            ........++++++++++++++++++++++++++++....@@@@@@@@@@@@@@@@@@@@@@@@@@@@@@@@@@@@@@@@@@@@@@@@....                                                                                                                                                                                                                                                                                            ",
"                                                        ....@@@@++++@@@@++++@@@@++++@@@@++++@@@@++++@@@@++++....++++++++++++++++++++....++++++++++++++++++++++++++++++++++++++++++++++++++++++++........++++++++++++++++....                                                                                                                                                                                                                                                                                                                                                                                                                                            ........++++++++++++++++++++++++++++....@@@@@@@@@@@@@@@@@@@@@@@@@@@@@@@@@@@@@@@@@@@@@@@@....                                                                                                                                                                                                                                                                                            ",
"                                                        ....@@@@++++@@@@++++@@@@++++@@@@++++@@@@++++@@@@++++....++++++++++++++++++++....++++++++++++++++++++++++++++++++++++++++++++++++++++++++........++++++++++++++++....                                                                                                                                                                                                                                                                                                                                                                                                                                            ........++++++++++++++++++++++++++++....@@@@@@@@@@@@@@@@@@@@@@@@@@@@@@@@@@@@@@@@@@@@@@@@....                                                                                                                                                                                                                                                                                            ",
"                                                        ....++++@@@@++++@@@@++++@@@@++++@@@@++++@@@@++++@@@@....++++++++++++++++++++....++++++++++++++++++++++++++++++++++++++++++++............++++++++++++++++++++++++....                                                                                                                                                                                                                                                                                                                                                                                                                                                    ........++++++++++++++++++++....++++@@@@++++@@@@++++@@@@++++@@@@++++@@@@++++@@@@....                                                                                                                                                                                                                                                                                            ",
"                                                        ....++++@@@@++++@@@@++++@@@@++++@@@@++++@@@@++++@@@@....++++++++++++++++++++....++++++++++++++++++++++++++++++++++++++++++++............++++++++++++++++++++++++....                                                                                                                                                                                                                                                                                                                                                                                                                                                    ........++++++++++++++++++++....++++@@@@++++@@@@++++@@@@++++@@@@++++@@@@++++@@@@....                                                                                                                                                                                                                                                                                            ",
"                                                        ....++++@@@@++++@@@@++++@@@@++++@@@@++++@@@@++++@@@@....++++++++++++++++++++....++++++++++++++++++++++++++++++++++++++++++++............++++++++++++++++++++++++....                                                                                                                                                                                                                                                                                                                                                                                                                                                    ........++++++++++++++++++++....++++@@@@++++@@@@++++@@@@++++@@@@++++@@@@++++@@@@....                                                                                                                                                                                                                                                                                            ",
"                                                        ....++++@@@@++++@@@@++++@@@@++++@@@@++++@@@@++++@@@@....++++++++++++++++++++....++++++++++++++++++++++++++++++++++++++++++++............++++++++++++++++++++++++....                                                                                                                                                                                                                                                                                                                                                                                                                                                    ........++++++++++++++++++++....++++@@@@++++@@@@++++@@@@++++@@@@++++@@@@++++@@@@....                                                                                                                                                                                                                                                                                            ",
"                                                        ....@@@@++++@@@@++++@@@@++++@@@@++++@@@@++++@@@@++++....++++++++++++++++++++....++++++++++++++++++++++++++++++++............++++++++....++++++++++++++++++++........                                                                                                                                                                                                                                                                                                                                                                                                                                                        ....++++++++++++++++++++....@@@@@@@@@@@@@@@@@@@@@@@@@@@@@@@@@@@@@@@@@@@@@@@@....                                                                                                                                                                                                                                                                                            ",
"                                                        ....@@@@++++@@@@++++@@@@++++@@@@++++@@@@++++@@@@++++....++++++++++++++++++++....++++++++++++++++++++++++++++++++............++++++++....++++++++++++++++++++........                                                                                                                                                                                                                                                                                                                                                                                                                                                        ....++++++++++++++++++++....@@@@@@@@@@@@@@@@@@@@@@@@@@@@@@@@@@@@@@@@@@@@@@@@....                                                                                                                                                                                                                                                                                            ",
"                                                        ....@@@@++++@@@@++++@@@@++++@@@@++++@@@@++++@@@@++++....++++++++++++++++++++....++++++++++++++++++++++++++++++++............++++++++....++++++++++++++++++++........                                                                                                                                                                                                                                                                                                                                                                                                                                                        ....++++++++++++++++++++....@@@@@@@@@@@@@@@@@@@@@@@@@@@@@@@@@@@@@@@@@@@@@@@@....                                                                                                                                                                                                                                                                                            ",
"                                                        ....@@@@++++@@@@++++@@@@++++@@@@++++@@@@++++@@@@++++....++++++++++++++++++++....++++++++++++++++++++++++++++++++............++++++++....++++++++++++++++++++........                                                                                                                                                                                                                                                                                                                                                                                                                                                        ....++++++++++++++++++++....@@@@@@@@@@@@@@@@@@@@@@@@@@@@@@@@@@@@@@@@@@@@@@@@....                                                                                                                                                                                                                                                                                            ",
"                                                        ....@@@@@@@@@@@@@@@@@@@@@@@@@@@@@@@@@@@@@@@@++++@@@@....++++++++++++++++++++....++++++++++++++++++++++++............++++++++++++++++....++++++++............                                                                                                                                                                                                                                                                                                                                                                                                                                                                ....++++++++++++++++++++....++++@@@@++++@@@@++++@@@@++++@@@@++++@@@@@@@@@@@@....                                                                                                                                                                                                                                                                                            ",
"                                                        ....@@@@@@@@@@@@@@@@@@@@@@@@@@@@@@@@@@@@@@@@++++@@@@....++++++++++++++++++++....++++++++++++++++++++++++............++++++++++++++++....++++++++............                                                                                                                                                                                                                                                                                                                                                                                                                                                                ....++++++++++++++++++++....++++@@@@++++@@@@++++@@@@++++@@@@++++@@@@@@@@@@@@....                                                                                                                                                                                                                                                                                            ",
"                                                        ....@@@@@@@@@@@@@@@@@@@@@@@@@@@@@@@@@@@@@@@@++++@@@@....++++++++++++++++++++....++++++++++++++++++++++++............++++++++++++++++....++++++++............                                                                                                                                                                                                                                                                                                                                                                                                                                                                ....++++++++++++++++++++....++++@@@@++++@@@@++++@@@@++++@@@@++++@@@@@@@@@@@@....                                                                                                                                                                                                                                                                                            ",
"                                                        ....@@@@@@@@@@@@@@@@@@@@@@@@@@@@@@@@@@@@@@@@++++@@@@....++++++++++++++++++++....++++++++++++++++++++++++............++++++++++++++++....++++++++............                                                                                                                                                                                                                                                                                                                                                                                                                                                                ....++++++++++++++++++++....++++@@@@++++@@@@++++@@@@++++@@@@++++@@@@@@@@@@@@....                                                                                                                                                                                                                                                                                            ",
"                                                        ....@@@@++++@@@@++++@@@@++++@@@@++++@@@@++++@@@@++++....++++++++++++++++++++....++++++++++++............        ................................                                                                                                                                                                                                                                                                                                                                                                                                                                                                            ....++++++++++++++++++++....@@@@@@@@@@@@@@@@@@@@@@@@@@@@@@@@@@@@@@@@@@@@@@@@....                                                                                                                                                                                                                                                                                            ",
"                                                        ....@@@@++++@@@@++++@@@@++++@@@@++++@@@@++++@@@@++++....++++++++++++++++++++....++++++++++++............        ................................                                                                                                                                                                                                                                                                                                                                                                                                                                                                            ....++++++++++++++++++++....@@@@@@@@@@@@@@@@@@@@@@@@@@@@@@@@@@@@@@@@@@@@@@@@....                                                                                                                                                                                                                                                                                            ",
"                                                        ....@@@@++++@@@@++++@@@@++++@@@@++++@@@@++++@@@@++++....++++++++++++++++++++....++++++++++++............        ................................                                                                                                                                                                                                                                                                                                                                                                                                                                                                            ....++++++++++++++++++++....@@@@@@@@@@@@@@@@@@@@@@@@@@@@@@@@@@@@@@@@@@@@@@@@....                                                                                                                                                                                                                                                                                            ",
"                                                        ....@@@@++++@@@@++++@@@@++++@@@@++++@@@@++++@@@@++++....++++++++++++++++++++....++++++++++++............        ................................                                                                                                                                                                                                                                                                                                                                                                                                                                                                            ....++++++++++++++++++++....@@@@@@@@@@@@@@@@@@@@@@@@@@@@@@@@@@@@@@@@@@@@@@@@....                                                                                                                                                                                                                                                                                            ",
"                                                        ....@@@@@@@@@@@@@@@@@@@@@@@@@@@@@@@@@@@@@@@@@@@@@@@@....++++++++++++++++++++....++++........                                                                                                                                                                                                                                                                                                                                                                                                                                                                                                                                ....++++++++++++++++++++....@@@@@@@@@@@@@@@@@@@@@@@@@@@@@@@@@@@@@@@@@@@@@@@@....                                                                                                                                                                                                                                                                                            ",
"                                                        ....@@@@@@@@@@@@@@@@@@@@@@@@@@@@@@@@@@@@@@@@@@@@@@@@....++++++++++++++++++++....++++........                                                                                                                                                                                                                                                                                                                                                                                                                                                                                                                                ....++++++++++++++++++++....@@@@@@@@@@@@@@@@@@@@@@@@@@@@@@@@@@@@@@@@@@@@@@@@....                                                                                                                                                                                                                                                                                            ",
"                                                        ....@@@@@@@@@@@@@@@@@@@@@@@@@@@@@@@@@@@@@@@@@@@@@@@@....++++++++++++++++++++....++++........                                                                                                                                                                                                                                                                                                                                                                                                                                                                                                                                ....++++++++++++++++++++....@@@@@@@@@@@@@@@@@@@@@@@@@@@@@@@@@@@@@@@@@@@@@@@@....                                                                                                                                                                                                                                                                                            ",
"                                                        ....@@@@@@@@@@@@@@@@@@@@@@@@@@@@@@@@@@@@@@@@@@@@@@@@....++++++++++++++++++++....++++........                                                                                                                                                                                                                                                                                                                                                                                                                                                                                                                                ....++++++++++++++++++++....@@@@@@@@@@@@@@@@@@@@@@@@@@@@@@@@@@@@@@@@@@@@@@@@....                                                                                                                                                                                                                                                                                            ",
"                                                        ....@@@@++++@@@@++++@@@@++++@@@@++++@@@@++++@@@@++++....++++++++++++++++++++........                                                                                                                                                                                                                                                                                                                                                                                                                                                                                                                                        ....++++++++++++++++++++....@@@@@@@@@@@@@@@@@@@@@@@@@@@@@@@@@@@@@@@@@@@@@@@@....                                                                                                                                                                                                                                                                                            ",
"                                                        ....@@@@++++@@@@++++@@@@++++@@@@++++@@@@++++@@@@++++....++++++++++++++++++++........                                                                                                                                                                                                                                                                                                                                                                                                                                                                                                                                        ....++++++++++++++++++++....@@@@@@@@@@@@@@@@@@@@@@@@@@@@@@@@@@@@@@@@@@@@@@@@....                                                                                                                                                                                                                                                                                            ",
"                                                        ....@@@@++++@@@@++++@@@@++++@@@@++++@@@@++++@@@@++++....++++++++++++++++++++........                                                                                                                                                                                                                                                                                                                                                                                                                                                                                                                                        ....++++++++++++++++++++....@@@@@@@@@@@@@@@@@@@@@@@@@@@@@@@@@@@@@@@@@@@@@@@@....                                                                                                                                                                                                                                                                                            ",
"                                                        ....@@@@++++@@@@++++@@@@++++@@@@++++@@@@++++@@@@++++....++++++++++++++++++++........                                                                                                                                                                                                                                                                                                                                                                                                                                                                                                                                        ....++++++++++++++++++++....@@@@@@@@@@@@@@@@@@@@@@@@@@@@@@@@@@@@@@@@@@@@@@@@....                                                                                                                                                                                                                                                                                            ",
"                                                        ....@@@@@@@@@@@@@@@@@@@@@@@@@@@@@@@@@@@@@@@@@@@@@@@@....++++++++++++++++++++....                                                                                                                                                                                                                                                                                                                                                                                                                                                                                                                                            ....++++++++++++++++++++....@@@@@@@@@@@@@@@@@@@@@@@@@@@@@@@@@@@@@@@@@@@@@@@@....                                                                                                                                                                                                                                                                                            ",
"                                                        ....@@@@@@@@@@@@@@@@@@@@@@@@@@@@@@@@@@@@@@@@@@@@@@@@....++++++++++++++++++++....                                                                                                                                                                                                                                                                                                                                                                                                                                                                                                                                            ....++++++++++++++++++++....@@@@@@@@@@@@@@@@@@@@@@@@@@@@@@@@@@@@@@@@@@@@@@@@....                                                                                                                                                                                                                                                                                            ",
"                                                        ....@@@@@@@@@@@@@@@@@@@@@@@@@@@@@@@@@@@@@@@@@@@@@@@@....++++++++++++++++++++....                                                                                                                                                                                                                                                                                                                                                                                                                                                                                                                                            ....++++++++++++++++++++....@@@@@@@@@@@@@@@@@@@@@@@@@@@@@@@@@@@@@@@@@@@@@@@@....                                                                                                                                                                                                                                                                                            ",
"                                                        ....@@@@@@@@@@@@@@@@@@@@@@@@@@@@@@@@@@@@@@@@@@@@@@@@....++++++++++++++++++++....                                                                                                                                                                                                                                                                                                                                                                                                                                                                                                                                            ....++++++++++++++++++++....@@@@@@@@@@@@@@@@@@@@@@@@@@@@@@@@@@@@@@@@@@@@@@@@....                                                                                                                                                                                                                                                                                            ",
"                                                        ....@@@@@@@@@@@@++++@@@@++++@@@@++++@@@@++++@@@@++++....++++++++++++++++++++....                                                                                                                                                                                                                                                                                                                                                                                                                                                                                                                                            ....++++++++++++++++++++....@@@@@@@@@@@@@@@@@@@@@@@@@@@@@@@@@@@@@@@@@@@@@@@@....                                                                                                                                                                                                                                                                                            ",
"                                                        ....@@@@@@@@@@@@++++@@@@++++@@@@++++@@@@++++@@@@++++....++++++++++++++++++++....                                                                                                                                                                                                                                                                                                                                                                                                                                                                                                                                            ....++++++++++++++++++++....@@@@@@@@@@@@@@@@@@@@@@@@@@@@@@@@@@@@@@@@@@@@@@@@....                                                                                                                                                                                                                                                                                            ",
"                                                        ....@@@@@@@@@@@@++++@@@@++++@@@@++++@@@@++++@@@@++++....++++++++++++++++++++....                                                                                                                                                                                                                                                                                                                                                                                                                                                                                                                                            ....++++++++++++++++++++....@@@@@@@@@@@@@@@@@@@@@@@@@@@@@@@@@@@@@@@@@@@@@@@@....                                                                                                                                                                                                                                                                                            ",
"                                                        ....@@@@@@@@@@@@++++@@@@++++@@@@++++@@@@++++@@@@++++....++++++++++++++++++++....                                                                                                                                                                                                                                                                                                                                                                                                                                                                                                                                            ....++++++++++++++++++++....@@@@@@@@@@@@@@@@@@@@@@@@@@@@@@@@@@@@@@@@@@@@@@@@....                                                                                                                                                                                                                                                                                            ",
"                                                        ....@@@@@@@@@@@@@@@@@@@@@@@@@@@@@@@@@@@@@@@@@@@@@@@@....++++++++++++++++++++....                                                                                                                                                                                                                                                                                                                                                                                                                                                                                                                                            ....++++++++++++++++++++....@@@@@@@@@@@@@@@@@@@@@@@@@@@@@@@@@@@@@@@@@@@@@@@@....                                                                                                                                                                                                                                                                                            ",
"                                                        ....@@@@@@@@@@@@@@@@@@@@@@@@@@@@@@@@@@@@@@@@@@@@@@@@....++++++++++++++++++++....                                                                                                                                                                                                                                                                                                                                                                                                                                                                                                                                            ....++++++++++++++++++++....@@@@@@@@@@@@@@@@@@@@@@@@@@@@@@@@@@@@@@@@@@@@@@@@....                                                                                                                                                                                                                                                                                            ",
"                                                        ....@@@@@@@@@@@@@@@@@@@@@@@@@@@@@@@@@@@@@@@@@@@@@@@@....++++++++++++++++++++....                                                                                                                                                                                                                                                                                                                                                                                                                                                                                                                                            ....++++++++++++++++++++....@@@@@@@@@@@@@@@@@@@@@@@@@@@@@@@@@@@@@@@@@@@@@@@@....                                                                                                                                                                                                                                                                                            ",
"                                                        ....@@@@@@@@@@@@@@@@@@@@@@@@@@@@@@@@@@@@@@@@@@@@@@@@....++++++++++++++++++++....                                                                                                                                                                                                                                                                                                                                                                                                                                                                                                                                            ....++++++++++++++++++++....@@@@@@@@@@@@@@@@@@@@@@@@@@@@@@@@@@@@@@@@@@@@@@@@....                                                                                                                                                                                                                                                                                            ",
"                                                        ....@@@@@@@@@@@@@@@@@@@@@@@@@@@@@@@@@@@@@@@@@@@@@@@@....++++++++++++++++++++....                                                                                                                                                                                                                                                                                                                                                                                                                                                                                                                                            ....++++++++++++++++++++....@@@@@@@@@@@@@@@@@@@@@@@@@@@@@@@@@@@@@@@@@@@@@@@@....                                                                                                                                                                                                                                                                                            ",
"                                                        ....@@@@@@@@@@@@@@@@@@@@@@@@@@@@@@@@@@@@@@@@@@@@@@@@....++++++++++++++++++++....                                                                                                                                                                                                                                                                                                                                                                                                                                                                                                                                            ....++++++++++++++++++++....@@@@@@@@@@@@@@@@@@@@@@@@@@@@@@@@@@@@@@@@@@@@@@@@....                                                                                                                                                                                                                                                                                            ",
"                                                        ....@@@@@@@@@@@@@@@@@@@@@@@@@@@@@@@@@@@@@@@@@@@@@@@@....++++++++++++++++++++....                                                                                                                                                                                                                                                                                                                                                                                                                                                                                                                                            ....++++++++++++++++++++....@@@@@@@@@@@@@@@@@@@@@@@@@@@@@@@@@@@@@@@@@@@@@@@@....                                                                                                                                                                                                                                                                                            ",
"                                                        ....@@@@@@@@@@@@@@@@@@@@@@@@@@@@@@@@@@@@@@@@@@@@@@@@....++++++++++++++++++++....                                                                                                                                                                                                                                                                                                                                                                                                                                                                                                                                            ....++++++++++++++++++++....@@@@@@@@@@@@@@@@@@@@@@@@@@@@@@@@@@@@@@@@@@@@@@@@....                                                                                                                                                                                                                                                                                            ",
"                                                        ....@@@@@@@@@@@@@@@@@@@@@@@@@@@@@@@@@@@@@@@@@@@@@@@@....++++++++++++++++++++....                                                                                                                                                                                                                                                                                                                                                                                                                                                                                                                                            ....++++++++++++++++++++....@@@@@@@@@@@@@@@@@@@@@@@@@@@@@@@@@@@@@@@@@@@@@@@@....                                                                                                                                                                                                                                                                                            ",
"                                                        ....@@@@@@@@@@@@@@@@@@@@@@@@@@@@@@@@@@@@@@@@@@@@@@@@....++++++++++++++++++++....                                                                                                                                                                                                                                                                                                                                                                                                                                                                                                                                            ....++++++++++++++++++++....@@@@@@@@@@@@@@@@@@@@@@@@@@@@@@@@@@@@@@@@@@@@@@@@....                                                                                                                                                                                                                                                                                            ",
"                                                        ....@@@@@@@@@@@@@@@@@@@@@@@@@@@@@@@@@@@@@@@@@@@@@@@@....++++++++++++++++++++....                                                                                                                                                                                                                                                                                                                                                                                                                                                                                                                                            ....++++++++++++++++++++....@@@@@@@@@@@@@@@@@@@@@@@@@@@@@@@@@@@@@@@@@@@@@@@@....                                                                                                                                                                                                                                                                                            ",
"                                                        ....@@@@@@@@@@@@@@@@@@@@@@@@@@@@@@@@@@@@@@@@@@@@@@@@....++++++++++++++++++++....                                                                                                                                                                                                                                                                                                                                                                                                                                                                                                                                            ....++++++++++++++++++++....@@@@@@@@@@@@@@@@@@@@@@@@@@@@@@@@@@@@@@@@@@@@@@@@....                                                                                                                                                                                                                                                                                            ",
"                                                        ....@@@@@@@@@@@@@@@@@@@@@@@@@@@@@@@@@@@@@@@@@@@@@@@@....++++++++++++++++++++....                                                                                                                                                                                                                                                                                                                                                                                                                                                                                                                                            ....++++++++++++++++++++....@@@@@@@@@@@@@@@@@@@@@@@@@@@@@@@@@@@@@@@@@@@@@@@@....                                                                                                                                                                                                                                                                                            ",
"                                                        ....@@@@@@@@@@@@@@@@@@@@@@@@@@@@@@@@@@@@@@@@@@@@@@@@....++++++++++++++++++++....                                                                                                                                                                                                                                                                                                                                                                                                                                                                                                                                            ....++++++++++++++++++++....@@@@@@@@@@@@@@@@@@@@@@@@@@@@@@@@@@@@@@@@@@@@@@@@....                                                                                                                                                                                                                                                                                            ",
"                                                        ....@@@@@@@@@@@@@@@@@@@@@@@@@@@@@@@@@@@@@@@@@@@@@@@@....++++++++++++++++++++....                                                                                                                                                                                                                                                                                                                                                                                                                                                                                                                                            ....++++++++++++++++++++....@@@@@@@@@@@@@@@@@@@@@@@@@@@@@@@@@@@@@@@@@@@@@@@@....                                                                                                                                                                                                                                                                                            ",
"                                                        ....@@@@@@@@@@@@@@@@@@@@@@@@@@@@@@@@@@@@@@@@@@@@@@@@....++++++++++++++++++++....                                                                                                                                                                                                                                                                                                                                                                                                                                                                                                                                            ....++++++++++++++++++++....@@@@@@@@@@@@@@@@@@@@@@@@@@@@@@@@@@@@@@@@@@@@@@@@....                                                                                                                                                                                                                                                                                            ",
"                                                        ....@@@@@@@@@@@@@@@@@@@@@@@@@@@@@@@@@@@@@@@@@@@@@@@@....++++++++++++++++++++....                                                                                                                                                                                                                                                                                                                                                                                                                                                                                                                                            ....++++++++++++++++++++....@@@@@@@@@@@@@@@@@@@@@@@@@@@@@@@@@@@@@@@@@@@@@@@@....                                                                                                                                                                                                                                                                                            ",
"                                                        ....@@@@@@@@@@@@@@@@@@@@@@@@@@@@@@@@@@@@@@@@@@@@@@@@....++++++++++++++++++++....                                                                                                                                                                                                                                                                                                                                                                                                                                                                                                                                            ....++++++++++++++++++++....@@@@@@@@@@@@@@@@@@@@@@@@@@@@@@@@@@@@@@@@@@@@@@@@....                                                                                                                                                                                                                                                                                            ",
"                                                        ....@@@@@@@@@@@@@@@@@@@@@@@@@@@@@@@@@@@@@@@@@@@@@@@@....++++++++++++++++++++....                                                                                                                                                                                                                                                                                                                                                                                                                                                                                                                                            ....++++++++++++++++++++....@@@@@@@@@@@@@@@@@@@@@@@@@@@@@@@@@@@@@@@@@@@@@@@@....                                                                                                                                                                                                                                                                                            ",
"                                                        ....@@@@@@@@@@@@@@@@@@@@@@@@@@@@@@@@@@@@@@@@@@@@@@@@....++++++++++++++++++++....                                                                                                                                                                                                                                                                                                                                                                                                                                                                                                                                            ....++++++++++++++++++++....@@@@@@@@@@@@@@@@@@@@@@@@@@@@@@@@@@@@@@@@@@@@@@@@....                                                                                                                                                                                                                                                                                            ",
"                                                        ....@@@@@@@@@@@@@@@@@@@@@@@@@@@@@@@@@@@@@@@@@@@@@@@@....++++++++++++++++++++....                                                                                                                                                                                                                                                                                                                                                                                                                                                                                                                                            ....++++++++++++++++++++....@@@@@@@@@@@@@@@@@@@@@@@@@@@@@@@@@@@@@@@@@@@@@@@@....                                                                                                                                                                                                                                                                                            ",
"                                                        ....@@@@@@@@@@@@@@@@@@@@@@@@@@@@@@@@@@@@@@@@@@@@@@@@....++++++++++++++++++++....                                                                                                                                                                                                                                                                                                                                                                                                                                                                                                                                            ....++++++++++++++++++++....@@@@@@@@@@@@@@@@@@@@@@@@@@@@@@@@@@@@@@@@@@@@@@@@....                                                                                                                                                                                                                                                                                            ",
"                                                        ....@@@@@@@@@@@@@@@@@@@@@@@@@@@@@@@@@@@@@@@@@@@@@@@@....++++++++++++++++++++....                                                                                                                                                                                                                                                                                                                                                                                                                                                                                                                                            ....++++++++++++++++++++....@@@@@@@@@@@@@@@@@@@@@@@@@@@@@@@@@@@@@@@@@@@@@@@@....                                                                                                                                                                                                                                                                                            ",
"                                                        ....@@@@@@@@@@@@@@@@@@@@@@@@@@@@@@@@@@@@@@@@@@@@@@@@....++++++++++++++++++++....                                                                                                                                                                                                                                                                                                                                                                                                                                                                                                                                            ....++++++++++++++++++++....@@@@@@@@@@@@@@@@@@@@@@@@@@@@@@@@@@@@@@@@@@@@@@@@....                                                                                                                                                                                                                                                                                            ",
"                                                        ....@@@@@@@@@@@@@@@@@@@@@@@@@@@@@@@@@@@@@@@@@@@@@@@@....++++++++++++++++++++....                                                                                                                                                                                                                                                                                                                                                                                                                                                                                                                                            ....++++++++++++++++++++....@@@@@@@@@@@@@@@@@@@@@@@@@@@@@@@@@@@@@@@@@@@@@@@@....                                                                                                                                                                                                                                                                                            ",
"                                                        ....@@@@@@@@@@@@@@@@@@@@@@@@@@@@@@@@@@@@@@@@@@@@@@@@....++++++++++++++++++++....                                                                                                                                                                                                                                                                                                                                                                                                                                                                                                                                            ....++++++++++++++++++++....@@@@@@@@@@@@@@@@@@@@@@@@@@@@@@@@@@@@@@@@@@@@@@@@....                                                                                                                                                                                                                                                                                            ",
"                                                        ....@@@@@@@@@@@@@@@@@@@@@@@@@@@@@@@@@@@@@@@@@@@@@@@@....++++++++++++++++++++....                                                                                                                                                                                                                                                                                                                                                                                                                                                                                                                                            ....++++++++++++++++++++....@@@@@@@@@@@@@@@@@@@@@@@@@@@@@@@@@@@@@@@@@@@@@@@@....                                                                                                                                                                                                                                                                                            ",
"                                                        ....@@@@@@@@@@@@@@@@@@@@@@@@@@@@@@@@@@@@@@@@@@@@@@@@....++++++++++++++++++++....                                                                                                                                                                                                                                                                                                                                                                                                                                                                                                                                            ....++++++++++++++++++++....@@@@@@@@@@@@@@@@@@@@@@@@@@@@@@@@@@@@@@@@@@@@@@@@....                                                                                                                                                                                                                                                                                            ",
"                                                        ....@@@@@@@@@@@@@@@@@@@@@@@@@@@@@@@@@@@@@@@@@@@@@@@@....++++++++++++++++++++....                                                                                                                                                                                                                                                                                                                                                                                                                                                                                                                                            ....++++++++++++++++++++....@@@@@@@@@@@@@@@@@@@@@@@@@@@@@@@@@@@@@@@@@@@@@@@@....                                                                                                                                                                                                                                                                                            ",
"                                                        ....@@@@@@@@@@@@@@@@@@@@@@@@@@@@@@@@@@@@@@@@@@@@@@@@....++++++++++++++++++++....                                                                                                                                                                                                                                                                                                                                                                                                                                                                                                                                            ....++++++++++++++++++++....@@@@@@@@@@@@@@@@@@@@@@@@@@@@@@@@@@@@@@@@@@@@@@@@....                                                                                                                                                                                                                                                                                            ",
"                                                        ....@@@@@@@@@@@@@@@@@@@@@@@@@@@@@@@@@@@@@@@@@@@@@@@@....++++++++++++++++++++....                                                                                                                                                                                                                                                                                                                                                                                                                                                                                                                                            ....++++++++++++++++++++....@@@@@@@@@@@@@@@@@@@@@@@@@@@@@@@@@@@@@@@@@@@@@@@@....                                                                                                                                                                                                                                                                                            ",
"                                                        ....@@@@@@@@@@@@@@@@@@@@@@@@@@@@@@@@@@@@@@@@@@@@@@@@....++++++++++++++++++++....                                                                                                                                                                                                                                                                                                                                                                                                                                                                                                                                            ....++++++++++++++++++++....@@@@@@@@@@@@@@@@@@@@@@@@@@@@@@@@@@@@@@@@@@@@@@@@....                                                                                                                                                                                                                                                                                            ",
"                                                        ....@@@@@@@@@@@@@@@@@@@@@@@@@@@@@@@@@@@@@@@@@@@@@@@@....++++++++++++++++++++....                                                                                                                                                                                                                                                                                                                                                                                                                                                                                                                                            ....++++++++++++++++++++....@@@@@@@@@@@@@@@@@@@@@@@@@@@@@@@@@@@@@@@@@@@@@@@@@@@@....                                                                                                                                                                                                                                                                                        ",
"                                                        ....@@@@@@@@@@@@@@@@@@@@@@@@@@@@@@@@@@@@@@@@@@@@@@@@....++++++++++++++++++++....                                                                                                                                                                                                                                                                                                                                                                                                                                                                                                                                            ....++++++++++++++++++++....@@@@@@@@@@@@@@@@@@@@@@@@@@@@@@@@@@@@@@@@@@@@@@@@@@@@....                                                                                                                                                                                                                                                                                        ",
"                                                        ....@@@@@@@@@@@@@@@@@@@@@@@@@@@@@@@@@@@@@@@@@@@@@@@@....++++++++++++++++++++....                                                                                                                                                                                                                                                                                                                                                                                                                                                                                                                                            ....++++++++++++++++++++....@@@@@@@@@@@@@@@@@@@@@@@@@@@@@@@@@@@@@@@@@@@@@@@@@@@@....                                                                                                                                                                                                                                                                                        ",
"                                                        ....@@@@@@@@@@@@@@@@@@@@@@@@@@@@@@@@@@@@@@@@@@@@@@@@....++++++++++++++++++++....                                                                                                                                                                                                                                                                                                                                                                                                                                                                                                                                            ....++++++++++++++++++++....@@@@@@@@@@@@@@@@@@@@@@@@@@@@@@@@@@@@@@@@@@@@@@@@@@@@....                                                                                                                                                                                                                                                                                        ",
"                                                        ....@@@@@@@@@@@@@@@@@@@@@@@@@@@@@@@@@@@@@@@@@@@@@@@@....++++++++++++++++++++....                                                                                                                                                                                                                                                                                                                                                                                                                                                                                                                                            ....++++++++++++++++++++....@@@@@@@@@@@@@@@@@@@@@@@@@@@@@@@@@@@@@@@@@@@@@@@@@@@@....                                                                                                                                                                                                                                                                                        ",
"                                                        ....@@@@@@@@@@@@@@@@@@@@@@@@@@@@@@@@@@@@@@@@@@@@@@@@....++++++++++++++++++++....                                                                                                                                                                                                                                                                                                                                                                                                                                                                                                                                            ....++++++++++++++++++++....@@@@@@@@@@@@@@@@@@@@@@@@@@@@@@@@@@@@@@@@@@@@@@@@@@@@....                                                                                                                                                                                                                                                                                        ",
"                                                        ....@@@@@@@@@@@@@@@@@@@@@@@@@@@@@@@@@@@@@@@@@@@@@@@@....++++++++++++++++++++....                                                                                                                                                                                                                                                                                                                                                                                                                                                                                                                                            ....++++++++++++++++++++....@@@@@@@@@@@@@@@@@@@@@@@@@@@@@@@@@@@@@@@@@@@@@@@@@@@@....                                                                                                                                                                                                                                                                                        ",
"                                                        ....@@@@@@@@@@@@@@@@@@@@@@@@@@@@@@@@@@@@@@@@@@@@@@@@....++++++++++++++++++++....                                                                                                                                                                                                                                                                                                                                                                                                                                                                                                                                            ....++++++++++++++++++++....@@@@@@@@@@@@@@@@@@@@@@@@@@@@@@@@@@@@@@@@@@@@@@@@@@@@....                                                                                                                                                                                                                                                                                        ",
"                                                        ....@@@@@@@@@@@@@@@@@@@@@@@@@@@@@@@@@@@@@@@@@@@@@@@@....++++++++++++++++++++....                                                                                                                                                                                                                                                                                                                                                                                                                                                                                                                                            ....++++++++++++++++++++....@@@@@@@@@@@@@@@@@@@@@@@@@@@@@@@@@@@@@@@@@@@@@@@@@@@@....                                                                                                                                                                                                                                                                                        ",
"                                                        ....@@@@@@@@@@@@@@@@@@@@@@@@@@@@@@@@@@@@@@@@@@@@@@@@....++++++++++++++++++++....                                                                                                                                                                                                                                                                                                                                                                                                                                                                                                                                            ....++++++++++++++++++++....@@@@@@@@@@@@@@@@@@@@@@@@@@@@@@@@@@@@@@@@@@@@@@@@@@@@....                                                                                                                                                                                                                                                                                        ",
"                                                        ....@@@@@@@@@@@@@@@@@@@@@@@@@@@@@@@@@@@@@@@@@@@@@@@@....++++++++++++++++++++....                                                                                                                                                                                                                                                                                                                                                                                                                                                                                                                                            ....++++++++++++++++++++....@@@@@@@@@@@@@@@@@@@@@@@@@@@@@@@@@@@@@@@@@@@@@@@@@@@@....                                                                                                                                                                                                                                                                                        ",
"                                                        ....@@@@@@@@@@@@@@@@@@@@@@@@@@@@@@@@@@@@@@@@@@@@@@@@....++++++++++++++++++++....                                                                                                                                                                                                                                                                                                                                                                                                                                                                                                                                            ....++++++++++++++++++++....@@@@@@@@@@@@@@@@@@@@@@@@@@@@@@@@@@@@@@@@@@@@@@@@@@@@....                                                                                                                                                                                                                                                                                        ",
"                                                        ....@@@@@@@@@@@@@@@@@@@@@@@@@@@@@@@@@@@@@@@@@@@@@@@@....++++++++++++++++++++....                                                                                                                                                                                                                                                                                                                                                                                                                                                                                                                                        ....++++++++++++++++++++++++++++....@@@@@@@@@@@@@@@@@@@@@@@@@@@@@@@@@@@@@@@@@@@@@@@@....                                                                                                                                                                                                                                                                                        ",
"                                                        ....@@@@@@@@@@@@@@@@@@@@@@@@@@@@@@@@@@@@@@@@@@@@@@@@....++++++++++++++++++++....                                                                                                                                                                                                                                                                                                                                                                                                                                                                                                                                        ....++++++++++++++++++++++++++++....@@@@@@@@@@@@@@@@@@@@@@@@@@@@@@@@@@@@@@@@@@@@@@@@....                                                                                                                                                                                                                                                                                        ",
"                                                        ....@@@@@@@@@@@@@@@@@@@@@@@@@@@@@@@@@@@@@@@@@@@@@@@@....++++++++++++++++++++....                                                                                                                                                                                                                                                                                                                                                                                                                                                                                                                                        ....++++++++++++++++++++++++++++....@@@@@@@@@@@@@@@@@@@@@@@@@@@@@@@@@@@@@@@@@@@@@@@@....                                                                                                                                                                                                                                                                                        ",
"                                                        ....@@@@@@@@@@@@@@@@@@@@@@@@@@@@@@@@@@@@@@@@@@@@@@@@....++++++++++++++++++++....                                                                                                                                                                                                                                                                                                                                                                                                                                                                                                                                        ....++++++++++++++++++++++++++++....@@@@@@@@@@@@@@@@@@@@@@@@@@@@@@@@@@@@@@@@@@@@@@@@....                                                                                                                                                                                                                                                                                        ",
"                                                        ....@@@@@@@@@@@@@@@@@@@@@@@@@@@@@@@@@@@@@@@@@@@@@@@@....++++++++++++++++++++....                                                                                                                                                                                                                                                                                                                                                                                                                                                                                                                                        ....++++++++++++++++++++++++++++....@@@@@@@@@@@@@@@@@@@@@@@@@@@@@@@@@@@@@@@@@@@@@@@@....                                                                                                                                                                                                                                                                                        ",
"                                                        ....@@@@@@@@@@@@@@@@@@@@@@@@@@@@@@@@@@@@@@@@@@@@@@@@....++++++++++++++++++++....                                                                                                                                                                                                                                                                                                                                                                                                                                                                                                                                        ....++++++++++++++++++++++++++++....@@@@@@@@@@@@@@@@@@@@@@@@@@@@@@@@@@@@@@@@@@@@@@@@....                                                                                                                                                                                                                                                                                        ",
"                                                        ....@@@@@@@@@@@@@@@@@@@@@@@@@@@@@@@@@@@@@@@@@@@@@@@@....++++++++++++++++++++....                                                                                                                                                                                                                                                                                                                                                                                                                                                                                                                                        ....++++++++++++++++++++++++++++....@@@@@@@@@@@@@@@@@@@@@@@@@@@@@@@@@@@@@@@@@@@@@@@@....                                                                                                                                                                                                                                                                                        ",
"                                                        ....@@@@@@@@@@@@@@@@@@@@@@@@@@@@@@@@@@@@@@@@@@@@@@@@....++++++++++++++++++++....                                                                                                                                                                                                                                                                                                                                                                                                                                                                                                                                        ....++++++++++++++++++++++++++++....@@@@@@@@@@@@@@@@@@@@@@@@@@@@@@@@@@@@@@@@@@@@@@@@....                                                                                                                                                                                                                                                                                        ",
"                                                    ....@@@@@@@@@@@@@@@@@@@@@@@@@@@@@@@@@@@@@@@@@@@@@@@@@@@@....++++++++++++++++++++....                                                                                                                                                                                                                                                                                                                                                                                                                                                                                                                                        ....++++++++++++++++++++++++++++....@@@@@@@@@@@@@@@@@@@@@@@@@@@@@@@@@@@@@@@@@@@@@@@@....                                                                                                                                                                                                                                                                                        ",
"                                                    ....@@@@@@@@@@@@@@@@@@@@@@@@@@@@@@@@@@@@@@@@@@@@@@@@@@@@....++++++++++++++++++++....                                                                                                                                                                                                                                                                                                                                                                                                                                                                                                                                        ....++++++++++++++++++++++++++++....@@@@@@@@@@@@@@@@@@@@@@@@@@@@@@@@@@@@@@@@@@@@@@@@....                                                                                                                                                                                                                                                                                        ",
"                                                    ....@@@@@@@@@@@@@@@@@@@@@@@@@@@@@@@@@@@@@@@@@@@@@@@@@@@@....++++++++++++++++++++....                                                                                                                                                                                                                                                                                                                                                                                                                                                                                                                                        ....++++++++++++++++++++++++++++....@@@@@@@@@@@@@@@@@@@@@@@@@@@@@@@@@@@@@@@@@@@@@@@@....                                                                                                                                                                                                                                                                                        ",
"                                                    ....@@@@@@@@@@@@@@@@@@@@@@@@@@@@@@@@@@@@@@@@@@@@@@@@@@@@....++++++++++++++++++++....                                                                                                                                                                                                                                                                                                                                                                                                                                                                                                                                        ....++++++++++++++++++++++++++++....@@@@@@@@@@@@@@@@@@@@@@@@@@@@@@@@@@@@@@@@@@@@@@@@....                                                                                                                                                                                                                                                                                        ",
"                                                    ....@@@@@@@@@@@@@@@@@@@@@@@@@@@@@@@@@@@@@@@@@@@@@@@@@@@@....++++++++++++++++++++....                                                                                                                                                                                                                                                                                                                                                                                                                                                                                                                                        ....++++++++++++++++++++++++++++....@@@@@@@@@@@@@@@@@@@@@@@@@@@@@@@@@@@@@@@@@@@@@@@@....                                                                                                                                                                                                                                                                                        ",
"                                                    ....@@@@@@@@@@@@@@@@@@@@@@@@@@@@@@@@@@@@@@@@@@@@@@@@@@@@....++++++++++++++++++++....                                                                                                                                                                                                                                                                                                                                                                                                                                                                                                                                        ....++++++++++++++++++++++++++++....@@@@@@@@@@@@@@@@@@@@@@@@@@@@@@@@@@@@@@@@@@@@@@@@....                                                                                                                                                                                                                                                                                        ",
"                                                    ....@@@@@@@@@@@@@@@@@@@@@@@@@@@@@@@@@@@@@@@@@@@@@@@@@@@@....++++++++++++++++++++....                                                                                                                                                                                                                                                                                                                                                                                                                                                                                                                                        ....++++++++++++++++++++++++++++....@@@@@@@@@@@@@@@@@@@@@@@@@@@@@@@@@@@@@@@@@@@@@@@@....                                                                                                                                                                                                                                                                                        ",
"                                                    ....@@@@@@@@@@@@@@@@@@@@@@@@@@@@@@@@@@@@@@@@@@@@@@@@@@@@....++++++++++++++++++++....                                                                                                                                                                                                                                                                                                                                                                                                                                                                                                                                        ....++++++++++++++++++++++++++++....@@@@@@@@@@@@@@@@@@@@@@@@@@@@@@@@@@@@@@@@@@@@@@@@....                                                                                                                                                                                                                                                                                        ",
"                                                    ....@@@@@@@@@@@@@@@@@@@@@@@@@@@@@@@@@@@@@@@@@@@@@@@@@@@@....++++++++++++++++++++....                                                                                                                                                                                                                                                                                                                                                                                                                                                                                                                                        ....++++++++++++++++++++++++++++....@@@@@@@@@@@@@@@@@@@@@@@@@@@@@@@@@@@@@@@@@@@@@@@@....                                                                                                                                                                                                                                                                                        ",
"                                                    ....@@@@@@@@@@@@@@@@@@@@@@@@@@@@@@@@@@@@@@@@@@@@@@@@@@@@....++++++++++++++++++++....                                                                                                                                                                                                                                                                                                                                                                                                                                                                                                                                        ....++++++++++++++++++++++++++++....@@@@@@@@@@@@@@@@@@@@@@@@@@@@@@@@@@@@@@@@@@@@@@@@....                                                                                                                                                                                                                                                                                        ",
"                                                    ....@@@@@@@@@@@@@@@@@@@@@@@@@@@@@@@@@@@@@@@@@@@@@@@@@@@@....++++++++++++++++++++....                                                                                                                                                                                                                                                                                                                                                                                                                                                                                                                                        ....++++++++++++++++++++++++++++....@@@@@@@@@@@@@@@@@@@@@@@@@@@@@@@@@@@@@@@@@@@@@@@@....                                                                                                                                                                                                                                                                                        ",
"                                                    ....@@@@@@@@@@@@@@@@@@@@@@@@@@@@@@@@@@@@@@@@@@@@@@@@@@@@....++++++++++++++++++++....                                                                                                                                                                                                                                                                                                                                                                                                                                                                                                                                        ....++++++++++++++++++++++++++++....@@@@@@@@@@@@@@@@@@@@@@@@@@@@@@@@@@@@@@@@@@@@@@@@....                                                                                                                                                                                                                                                                                        ",
"                                                    ....@@@@@@@@@@@@@@@@@@@@@@@@@@@@@@@@@@@@@@@@@@@@@@@@....++++++++++++++++++++++++++++....                                                                                                                                                                                                                                                                                                                                                                                                                                                                                                                                    ....++++++++++++++++++++++++++++....@@@@@@@@@@@@@@@@@@@@@@@@@@@@@@@@@@@@@@@@@@@@@@@@....                                                                                                                                                                                                                                                                                        ",
"                                                    ....@@@@@@@@@@@@@@@@@@@@@@@@@@@@@@@@@@@@@@@@@@@@@@@@....++++++++++++++++++++++++++++....                                                                                                                                                                                                                                                                                                                                                                                                                                                                                                                                    ....++++++++++++++++++++++++++++....@@@@@@@@@@@@@@@@@@@@@@@@@@@@@@@@@@@@@@@@@@@@@@@@....                                                                                                                                                                                                                                                                                        ",
"                                                    ....@@@@@@@@@@@@@@@@@@@@@@@@@@@@@@@@@@@@@@@@@@@@@@@@....++++++++++++++++++++++++++++....                                                                                                                                                                                                                                                                                                                                                                                                                                                                                                                                    ....++++++++++++++++++++++++++++....@@@@@@@@@@@@@@@@@@@@@@@@@@@@@@@@@@@@@@@@@@@@@@@@....                                                                                                                                                                                                                                                                                        ",
"                                                    ....@@@@@@@@@@@@@@@@@@@@@@@@@@@@@@@@@@@@@@@@@@@@@@@@....++++++++++++++++++++++++++++....                                                                                                                                                                                                                                                                                                                                                                                                                                                                                                                                    ....++++++++++++++++++++++++++++....@@@@@@@@@@@@@@@@@@@@@@@@@@@@@@@@@@@@@@@@@@@@@@@@....                                                                                                                                                                                                                                                                                        ",
"                                                    ....@@@@@@@@@@@@@@@@@@@@@@@@@@@@@@@@@@@@@@@@@@@@@@@@....++++++++++++++++++++++++++++....                                                                                                                                                                                                                                                                                                                                                                                                                                                                                                                                    ....++++++++++++++++++++++++++++....@@@@@@@@@@@@@@@@@@@@@@@@@@@@@@@@@@@@@@@@@@@@@@@@....                                                                                                                                                                                                                                                                                        ",
"                                                    ....@@@@@@@@@@@@@@@@@@@@@@@@@@@@@@@@@@@@@@@@@@@@@@@@....++++++++++++++++++++++++++++....                                                                                                                                                                                                                                                                                                                                                                                                                                                                                                                                    ....++++++++++++++++++++++++++++....@@@@@@@@@@@@@@@@@@@@@@@@@@@@@@@@@@@@@@@@@@@@@@@@....                                                                                                                                                                                                                                                                                        ",
"                                                    ....@@@@@@@@@@@@@@@@@@@@@@@@@@@@@@@@@@@@@@@@@@@@@@@@....++++++++++++++++++++++++++++....                                                                                                                                                                                                                                                                                                                                                                                                                                                                                                                                    ....++++++++++++++++++++++++++++....@@@@@@@@@@@@@@@@@@@@@@@@@@@@@@@@@@@@@@@@@@@@@@@@....                                                                                                                                                                                                                                                                                        ",
"                                                    ....@@@@@@@@@@@@@@@@@@@@@@@@@@@@@@@@@@@@@@@@@@@@@@@@....++++++++++++++++++++++++++++....                                                                                                                                                                                                                                                                                                                                                                                                                                                                                                                                    ....++++++++++++++++++++++++++++....@@@@@@@@@@@@@@@@@@@@@@@@@@@@@@@@@@@@@@@@@@@@@@@@....                                                                                                                                                                                                                                                                                        ",
"                                                    ....@@@@@@@@@@@@@@@@@@@@@@@@@@@@@@@@@@@@@@@@@@@@@@@@....++++++++++++++++++++++++++++....                                                                                                                                                                                                                                                                                                                                                                                                                                                                                                                                    ....++++++++++++++++++++++++++++....@@@@@@@@@@@@@@@@@@@@@@@@@@@@@@@@@@@@@@@@@@@@@@@@....                                                                                                                                                                                                                                                                                        ",
"                                                    ....@@@@@@@@@@@@@@@@@@@@@@@@@@@@@@@@@@@@@@@@@@@@@@@@....++++++++++++++++++++++++++++....                                                                                                                                                                                                                                                                                                                                                                                                                                                                                                                                    ....++++++++++++++++++++++++++++....@@@@@@@@@@@@@@@@@@@@@@@@@@@@@@@@@@@@@@@@@@@@@@@@....                                                                                                                                                                                                                                                                                        ",
"                                                    ....@@@@@@@@@@@@@@@@@@@@@@@@@@@@@@@@@@@@@@@@@@@@@@@@....++++++++++++++++++++++++++++....                                                                                                                                                                                                                                                                                                                                                                                                                                                                                                                                    ....++++++++++++++++++++++++++++....@@@@@@@@@@@@@@@@@@@@@@@@@@@@@@@@@@@@@@@@@@@@@@@@....                                                                                                                                                                                                                                                                                        ",
"                                                    ....@@@@@@@@@@@@@@@@@@@@@@@@@@@@@@@@@@@@@@@@@@@@@@@@....++++++++++++++++++++++++++++....                                                                                                                                                                                                                                                                                                                                                                                                                                                                                                                                    ....++++++++++++++++++++++++++++....@@@@@@@@@@@@@@@@@@@@@@@@@@@@@@@@@@@@@@@@@@@@@@@@....                                                                                                                                                                                                                                                                                        ",
"                                                    ....@@@@@@@@@@@@@@@@@@@@@@@@@@@@@@@@@@@@@@@@@@@@@@@@....++++++++++++++++++++++++++++....                                                                                                                                                                                                                                                                                                                                                                                                                                                                                                                                    ....++++++++++++++++++++++++++++....@@@@@@@@@@@@@@@@@@@@@@@@@@@@@@@@@@@@@@@@@@@@@@@@....                                                                                                                                                                                                                                                                                        ",
"                                                    ....@@@@@@@@@@@@@@@@@@@@@@@@@@@@@@@@@@@@@@@@@@@@@@@@....++++++++++++++++++++++++++++....                                                                                                                                                                                                                                                                                                                                                                                                                                                                                                                                    ....++++++++++++++++++++++++++++....@@@@@@@@@@@@@@@@@@@@@@@@@@@@@@@@@@@@@@@@@@@@@@@@....                                                                                                                                                                                                                                                                                        ",
"                                                    ....@@@@@@@@@@@@@@@@@@@@@@@@@@@@@@@@@@@@@@@@@@@@@@@@....++++++++++++++++++++++++++++....                                                                                                                                                                                                                                                                                                                                                                                                                                                                                                                                    ....++++++++++++++++++++++++++++....@@@@@@@@@@@@@@@@@@@@@@@@@@@@@@@@@@@@@@@@@@@@@@@@....                                                                                                                                                                                                                                                                                        ",
"                                                    ....@@@@@@@@@@@@@@@@@@@@@@@@@@@@@@@@@@@@@@@@@@@@@@@@....++++++++++++++++++++++++++++....                                                                                                                                                                                                                                                                                                                                                                                                                                                                                                                                    ....++++++++++++++++++++++++++++....@@@@@@@@@@@@@@@@@@@@@@@@@@@@@@@@@@@@@@@@@@@@@@@@....                                                                                                                                                                                                                                                                                        ",
"                                                    ....@@@@@@@@@@@@@@@@@@@@@@@@@@@@@@@@@@@@@@@@@@@@@@@@....++++++++++++++++++++++++++++....                                                                                                                                                                                                                                                                                                                                                                                                                                                                                                                                    ....++++++++++++++++++++++++++++....@@@@@@@@@@@@@@@@@@@@@@@@@@@@@@@@@@@@@@@@@@@@@@@@....                                                                                                                                                                                                                                                                                        ",
"                                                    ....@@@@@@@@@@@@@@@@@@@@@@@@@@@@@@@@@@@@@@@@@@@@@@@@....++++++++++++++++++++++++++++....                                                                                                                                                                                                                                                                                                                                                                                                                                                                                                                                    ....++++++++++++++++++++++++++++....@@@@@@@@@@@@@@@@@@@@@@@@@@@@@@@@@@@@@@@@@@@@@@@@....                                                                                                                                                                                                                                                                                        ",
"                                                    ....@@@@@@@@@@@@@@@@@@@@@@@@@@@@@@@@@@@@@@@@@@@@@@@@....++++++++++++++++++++++++++++....                                                                                                                                                                                                                                                                                                                                                                                                                                                                                                                                    ....++++++++++++++++++++++++++++....@@@@@@@@@@@@@@@@@@@@@@@@@@@@@@@@@@@@@@@@@@@@@@@@....                                                                                                                                                                                                                                                                                        ",
"                                                    ....@@@@@@@@@@@@@@@@@@@@@@@@@@@@@@@@@@@@@@@@@@@@@@@@....++++++++++++++++++++++++++++....                                                                                                                                                                                                                                                                                                                                                                                                                                                                                                                                    ....++++++++++++++++++++++++++++....@@@@@@@@@@@@@@@@@@@@@@@@@@@@@@@@@@@@@@@@@@@@@@@@....                                                                                                                                                                                                                                                                                        ",
"                                                    ....@@@@@@@@@@@@@@@@@@@@@@@@@@@@@@@@@@@@@@@@@@@@@@@@....++++++++++++++++++++++++++++....                                                                                                                                                                                                                                                                                                                                                                                                                                                                                                                                    ....++++++++++++++++++++++++++++....@@@@@@@@@@@@@@@@@@@@@@@@@@@@@@@@@@@@@@@@@@@@@@@@....                                                                                                                                                                                                                                                                                        ",
"                                                    ....@@@@@@@@@@@@@@@@@@@@@@@@@@@@@@@@@@@@@@@@@@@@@@@@....++++++++++++++++++++++++++++....                                                                                                                                                                                                                                                                                                                                                                                                                                                                                                                                    ....++++++++++++++++++++++++++++....@@@@@@@@@@@@@@@@@@@@@@@@@@@@@@@@@@@@@@@@@@@@@@@@....                                                                                                                                                                                                                                                                                        ",
"                                                    ....@@@@@@@@@@@@@@@@@@@@@@@@@@@@@@@@@@@@@@@@@@@@@@@@....++++++++++++++++++++++++++++....                                                                                                                                                                                                                                                                                                                                                                                                                                                                                                                                    ....++++++++++++++++++++++++++++....@@@@@@@@@@@@@@@@@@@@@@@@@@@@@@@@@@@@@@@@@@@@@@@@....                                                                                                                                                                                                                                                                                        ",
"                                                    ....@@@@@@@@@@@@@@@@@@@@@@@@@@@@@@@@@@@@@@@@@@@@@@@@....++++++++++++++++++++++++++++....                                                                                                                                                                                                                                                                                                                                                                                                                                                                                                                                    ....++++++++++++++++++++++++++++....@@@@@@@@@@@@@@@@@@@@@@@@@@@@@@@@@@@@@@@@@@@@@@@@....                                                                                                                                                                                                                                                                                        ",
"                                                    ....@@@@@@@@@@@@@@@@@@@@@@@@@@@@@@@@@@@@@@@@@@@@@@@@....++++++++++++++++++++++++++++....                                                                                                                                                                                                                                                                                                                                                                                                                                                                                                                                    ....++++++++++++++++++++++++++++....@@@@@@@@@@@@@@@@@@@@@@@@............................                                                                                                                                                                                                                                                                                        ",
"                                                    ....@@@@@@@@@@@@@@@@@@@@@@@@@@@@@@@@@@@@@@@@@@@@@@@@....++++++++++++++++++++++++++++....                                                                                                                                                                                                                                                                                                                                                                                                                                                                                                                                    ....++++++++++++++++++++++++++++....@@@@@@@@@@@@@@@@@@@@@@@@............................                                                                                                                                                                                                                                                                                        ",
"                                                    ....@@@@@@@@@@@@@@@@@@@@@@@@@@@@@@@@@@@@@@@@@@@@@@@@....++++++++++++++++++++++++++++....                                                                                                                                                                                                                                                                                                                                                                                                                                                                                                                                    ....++++++++++++++++++++++++++++....@@@@@@@@@@@@@@@@@@@@@@@@............................                                                                                                                                                                                                                                                                                        ",
"                                                    ....@@@@@@@@@@@@@@@@@@@@@@@@@@@@@@@@@@@@@@@@@@@@@@@@....++++++++++++++++++++++++++++....                                                                                                                                                                                                                                                                                                                                                                                                                                                                                                                                    ....++++++++++++++++++++++++++++....@@@@@@@@@@@@@@@@@@@@@@@@............................                                                                                                                                                                                                                                                                                        ",
"                                                    ....@@@@@@@@@@@@@@@@@@@@@@@@@@@@@@@@@@@@@@@@@@@@@@@@....++++++++++++++++++++++++++++....                                                                                                                                                                                                                                                                                                                                                                                                                                                                                                                                    ....++++++++++++++++++++++++++++....@@@@@@@@................++++++++++++++++++++++++................                                                                                                                                                                                                                                                                            ",
"                                                    ....@@@@@@@@@@@@@@@@@@@@@@@@@@@@@@@@@@@@@@@@@@@@@@@@....++++++++++++++++++++++++++++....                                                                                                                                                                                                                                                                                                                                                                                                                                                                                                                                    ....++++++++++++++++++++++++++++....@@@@@@@@................++++++++++++++++++++++++................                                                                                                                                                                                                                                                                            ",
"                                                    ....@@@@@@@@@@@@@@@@@@@@@@@@@@@@@@@@@@@@@@@@@@@@@@@@....++++++++++++++++++++++++++++....                                                                                                                                                                                                                                                                                                                                                                                                                                                                                                                                    ....++++++++++++++++++++++++++++....@@@@@@@@................++++++++++++++++++++++++................                                                                                                                                                                                                                                                                            ",
"                                                    ....@@@@@@@@@@@@@@@@@@@@@@@@@@@@@@@@@@@@@@@@@@@@@@@@....++++++++++++++++++++++++++++....                                                                                                                                                                                                                                                                                                                                                                                                                                                                                                                                    ....++++++++++++++++++++++++++++....@@@@@@@@................++++++++++++++++++++++++................                                                                                                                                                                                                                                                                            ",
"                                                    ....@@@@@@@@@@@@@@@@@@@@@@@@@@@@@@@@@@@@@@@@@@@@@@@@....++++++++++++++++++++++++++++....                                                                                                                                                                                                                                                                                                                                                                                                                                                                                                                                    ....++++++++++++++++++++++++................++++++++++++++++++++++++++++++++++++++++++++++++++++++++........                                                                                                                                                                                                                                                                    ",
"                                                    ....@@@@@@@@@@@@@@@@@@@@@@@@@@@@@@@@@@@@@@@@@@@@@@@@....++++++++++++++++++++++++++++....                                                                                                                                                                                                                                                                                                                                                                                                                                                                                                                                    ....++++++++++++++++++++++++................++++++++++++++++++++++++++++++++++++++++++++++++++++++++........                                                                                                                                                                                                                                                                    ",
"                                                    ....@@@@@@@@@@@@@@@@@@@@@@@@@@@@@@@@@@@@@@@@@@@@@@@@....++++++++++++++++++++++++++++....                                                                                                                                                                                                                                                                                                                                                                                                                                                                                                                                    ....++++++++++++++++++++++++................++++++++++++++++++++++++++++++++++++++++++++++++++++++++........                                                                                                                                                                                                                                                                    ",
"                                                    ....@@@@@@@@@@@@@@@@@@@@@@@@@@@@@@@@@@@@@@@@@@@@@@@@....++++++++++++++++++++++++++++....                                                                                                                                                                                                                                                                                                                                                                                                                                                                                                                                    ....++++++++++++++++++++++++................++++++++++++++++++++++++++++++++++++++++++++++++++++++++........                                                                                                                                                                                                                                                                    ",
"                                                    ....@@@@@@@@@@@@@@@@@@@@@@@@@@@@@@@@@@@@@@@@@@@@@@@@....++++++++++++++++++++++++++++....                                                                                                                                                                                                                                                                                                                                                                                                                                                                                                                                    ....++++++++++++++++........++++++++++++++++++++++++++++++++++++++++++++++++++++++++++++++++++++++++++++++++........                                                                                                                                                                                                                                                            ",
"                                                    ....@@@@@@@@@@@@@@@@@@@@@@@@@@@@@@@@@@@@@@@@@@@@@@@@....++++++++++++++++++++++++++++....                                                                                                                                                                                                                                                                                                                                                                                                                                                                                                                                    ....++++++++++++++++........++++++++++++++++++++++++++++++++++++++++++++++++++++++++++++++++++++++++++++++++........                                                                                                                                                                                                                                                            ",
"                                                    ....@@@@@@@@@@@@@@@@@@@@@@@@@@@@@@@@@@@@@@@@@@@@@@@@....++++++++++++++++++++++++++++....                                                                                                                                                                                                                                                                                                                                                                                                                                                                                                                                    ....++++++++++++++++........++++++++++++++++++++++++++++++++++++++++++++++++++++++++++++++++++++++++++++++++........                                                                                                                                                                                                                                                            ",
"                                                    ....@@@@@@@@@@@@@@@@@@@@@@@@@@@@@@@@@@@@@@@@@@@@@@@@....++++++++++++++++++++++++++++....                                                                                                                                                                                                                                                                                                                                                                                                                                                                                                                                    ....++++++++++++++++........++++++++++++++++++++++++++++++++++++++++++++++++++++++++++++++++++++++++++++++++........                                                                                                                                                                                                                                                            ",
"                                                    ....@@@@@@@@@@@@@@@@@@@@@@@@@@@@@@@@@@@@@@@@@@@@@@@@....++++++++++++++++++++++++++++....                                                                                                                                                                                                                                                                                                                                                                                                                                                                                                                                    ....++++++++++++....++++++++++++++++++++++++++++++++++++++++............................++++++++++++++++++++++++++++....                                                                                                                                                                                                                                                        ",
"                                                    ....@@@@@@@@@@@@@@@@@@@@@@@@@@@@@@@@@@@@@@@@@@@@@@@@....++++++++++++++++++++++++++++....                                                                                                                                                                                                                                                                                                                                                                                                                                                                                                                                    ....++++++++++++....++++++++++++++++++++++++++++++++++++++++............................++++++++++++++++++++++++++++....                                                                                                                                                                                                                                                        ",
"                                                    ....@@@@@@@@@@@@@@@@@@@@@@@@@@@@@@@@@@@@@@@@@@@@@@@@....++++++++++++++++++++++++++++....                                                                                                                                                                                                                                                                                                                                                                                                                                                                                                                                    ....++++++++++++....++++++++++++++++++++++++++++++++++++++++............................++++++++++++++++++++++++++++....                                                                                                                                                                                                                                                        ",
"                                                    ....@@@@@@@@@@@@@@@@@@@@@@@@@@@@@@@@@@@@@@@@@@@@@@@@....++++++++++++++++++++++++++++....                                                                                                                                                                                                                                                                                                                                                                                                                                                                                                                                    ....++++++++++++....++++++++++++++++++++++++++++++++++++++++............................++++++++++++++++++++++++++++....                                                                                                                                                                                                                                                        ",
"                                                    ............................@@@@@@@@@@@@@@@@@@@@@@@@....++++++++++++++++++++++++++++....                                                                                                                                                                                                                                                                                                                                                                                                                                                                                                                                    ....++++++++....++++++++++++++++++++++++++++................@@@@@@@@@@@@@@@@@@@@@@@@@@@@....................++++++++++++....                                                                                                                                                                                                                                                    ",
"                                                    ............................@@@@@@@@@@@@@@@@@@@@@@@@....++++++++++++++++++++++++++++....                                                                                                                                                                                                                                                                                                                                                                                                                                                                                                                                    ....++++++++....++++++++++++++++++++++++++++................@@@@@@@@@@@@@@@@@@@@@@@@@@@@....................++++++++++++....                                                                                                                                                                                                                                                    ",
"                                                    ............................@@@@@@@@@@@@@@@@@@@@@@@@....++++++++++++++++++++++++++++....                                                                                                                                                                                                                                                                                                                                                                                                                                                                                                                                    ....++++++++....++++++++++++++++++++++++++++................@@@@@@@@@@@@@@@@@@@@@@@@@@@@....................++++++++++++....                                                                                                                                                                                                                                                    ",
"                                                    ............................@@@@@@@@@@@@@@@@@@@@@@@@....++++++++++++++++++++++++++++....                                                                                                                                                                                                                                                                                                                                                                                                                                                                                                                                    ....++++++++....++++++++++++++++++++++++++++................@@@@@@@@@@@@@@@@@@@@@@@@@@@@....................++++++++++++....                                                                                                                                                                                                                                                    ",
"                                        ................++++++++++++++++++++++++................@@@@@@@@....++++++++++++++++++++++++++++....                                                                                                                                                                                                                                                                                                                                                                                                                                                                                                                                    ............++++++++++++++++++++++++........++++++++@@@@++++@@@@++++@@@@................++++++++++++++++........................                                                                                                                                                                                                                                                ",
"                                        ................++++++++++++++++++++++++................@@@@@@@@....++++++++++++++++++++++++++++....                                                                                                                                                                                                                                                                                                                                                                                                                                                                                                                                    ............++++++++++++++++++++++++........++++++++@@@@++++@@@@++++@@@@................++++++++++++++++........................                                                                                                                                                                                                                                                ",
"                                        ................++++++++++++++++++++++++................@@@@@@@@....++++++++++++++++++++++++++++....                                                                                                                                                                                                                                                                                                                                                                                                                                                                                                                                    ............++++++++++++++++++++++++........++++++++@@@@++++@@@@++++@@@@................++++++++++++++++........................                                                                                                                                                                                                                                                ",
"                                        ................++++++++++++++++++++++++................@@@@@@@@....++++++++++++++++++++++++++++....                                                                                                                                                                                                                                                                                                                                                                                                                                                                                                                                    ............++++++++++++++++++++++++........++++++++@@@@++++@@@@++++@@@@................++++++++++++++++........................                                                                                                                                                                                                                                                ",
"                                ........++++++++++++++++++++++++++++++++++++++++++++++++++++++++................++++++++++++++++++++++++....                                                                                                                                                                                                                                                                                                                                                                                                                                                                                                                                    ....++++++++++++++++++++++++++++....++++@@@@++++@@@@++++@@@@@@@@............++++++++............++++++++++++++++++++....########....                                                                                                                                                                                                                                            ",
"                                ........++++++++++++++++++++++++++++++++++++++++++++++++++++++++................++++++++++++++++++++++++....                                                                                                                                                                                                                                                                                                                                                                                                                                                                                                                                    ....++++++++++++++++++++++++++++....++++@@@@++++@@@@++++@@@@@@@@............++++++++............++++++++++++++++++++....########....                                                                                                                                                                                                                                            ",
"                                ........++++++++++++++++++++++++++++++++++++++++++++++++++++++++................++++++++++++++++++++++++....                                                                                                                                                                                                                                                                                                                                                                                                                                                                                                                                    ....++++++++++++++++++++++++++++....++++@@@@++++@@@@++++@@@@@@@@............++++++++............++++++++++++++++++++....########....                                                                                                                                                                                                                                            ",
"                                ........++++++++++++++++++++++++++++++++++++++++++++++++++++++++................++++++++++++++++++++++++....                                                                                                                                                                                                                                                                                                                                                                                                                                                                                                                                    ....++++++++++++++++++++++++++++....++++@@@@++++@@@@++++@@@@@@@@............++++++++............++++++++++++++++++++....########....                                                                                                                                                                                                                                            ",
"                        ........++++++++++++++++++++++++++++++++++++++++++++++++++++++++++++++++++++++++++++++++........++++++++++++++++....                                                                                                                                                                                                                                                                                                                                                                                                                                                                                                                                ....++++++++++++++++++++++++++++....++++++++++++++++....................++++++++++++++++++++....####........++++++++++++++++....########....                                                                                                                                                                                                                                        ",
"                        ........++++++++++++++++++++++++++++++++++++++++++++++++++++++++++++++++++++++++++++++++........++++++++++++++++....                                                                                                                                                                                                                                                                                                                                                                                                                                                                                                                                ....++++++++++++++++++++++++++++....++++++++++++++++....................++++++++++++++++++++....####........++++++++++++++++....########....                                                                                                                                                                                                                                        ",
"                        ........++++++++++++++++++++++++++++++++++++++++++++++++++++++++++++++++++++++++++++++++........++++++++++++++++....                                                                                                                                                                                                                                                                                                                                                                                                                                                                                                                                ....++++++++++++++++++++++++++++....++++++++++++++++....................++++++++++++++++++++....####........++++++++++++++++....########....                                                                                                                                                                                                                                        ",
"                        ........++++++++++++++++++++++++++++++++++++++++++++++++++++++++++++++++++++++++++++++++........++++++++++++++++....                                                                                                                                                                                                                                                                                                                                                                                                                                                                                                                                ....++++++++++++++++++++++++++++....++++++++++++++++....................++++++++++++++++++++....####........++++++++++++++++....########....                                                                                                                                                                                                                                        ",
"                    ....++++++++++++++++++++++++++++............................++++++++++++++++++++++++++++++++++++++++....++++++++++++....                                                                                                                                                                                                                                                                                                                                                                                                                                                                                                                            ....++++++++++++++++++++++++........++++++++++++........++++++++++++++++........++++++++++++++++++++........####....++++++++++++++++........####........                                                                                                                                                                                                                                ",
"                    ....++++++++++++++++++++++++++++............................++++++++++++++++++++++++++++++++++++++++....++++++++++++....                                                                                                                                                                                                                                                                                                                                                                                                                                                                                                                            ....++++++++++++++++++++++++........++++++++++++........++++++++++++++++........++++++++++++++++++++........####....++++++++++++++++........####........                                                                                                                                                                                                                                ",
"                    ....++++++++++++++++++++++++++++............................++++++++++++++++++++++++++++++++++++++++....++++++++++++....                                                                                                                                                                                                                                                                                                                                                                                                                                                                                                                            ....++++++++++++++++++++++++........++++++++++++........++++++++++++++++........++++++++++++++++++++........####....++++++++++++++++........####........                                                                                                                                                                                                                                ",
"                    ....++++++++++++++++++++++++++++............................++++++++++++++++++++++++++++++++++++++++....++++++++++++....                                                                                                                                                                                                                                                                                                                                                                                                                                                                                                                            ....++++++++++++++++++++++++........++++++++++++........++++++++++++++++........++++++++++++++++++++........####....++++++++++++++++........####........                                                                                                                                                                                                                                ",
"                ....++++++++++++....................@@@@@@@@@@@@@@@@@@@@@@@@@@@@................++++++++++++++++++++++++++++....++++++++....                                                                                                                                                                                                                                                                                                                                                                                                                                                                                                                        ....++++++++++++++++++++++++....++++++++++++++++....++++++++++++++++++++++++++++++++....++++++++++++++++++++++++....####........++++++++++++++++....########........                                                                                                                                                                                                                        ",
"                ....++++++++++++....................@@@@@@@@@@@@@@@@@@@@@@@@@@@@................++++++++++++++++++++++++++++....++++++++....                                                                                                                                                                                                                                                                                                                                                                                                                                                                                                                        ....++++++++++++++++++++++++....++++++++++++++++....++++++++++++++++++++++++++++++++....++++++++++++++++++++++++....####........++++++++++++++++....########........                                                                                                                                                                                                                        ",
"                ....++++++++++++....................@@@@@@@@@@@@@@@@@@@@@@@@@@@@................++++++++++++++++++++++++++++....++++++++....                                                                                                                                                                                                                                                                                                                                                                                                                                                                                                                        ....++++++++++++++++++++++++....++++++++++++++++....++++++++++++++++++++++++++++++++....++++++++++++++++++++++++....####........++++++++++++++++....########........                                                                                                                                                                                                                        ",
"                ....++++++++++++....................@@@@@@@@@@@@@@@@@@@@@@@@@@@@................++++++++++++++++++++++++++++....++++++++....                                                                                                                                                                                                                                                                                                                                                                                                                                                                                                                        ....++++++++++++++++++++++++....++++++++++++++++....++++++++++++++++++++++++++++++++....++++++++++++++++++++++++....####........++++++++++++++++....########........                                                                                                                                                                                                                        ",
"            ........................++++++++++++++++................@@@@++++@@@@++++@@@@++++++++........++++++++++++++++++++++++............                                                                                                                                                                                                                                                                                                                                                                                                                                                                                                                        ....++++++++++++++++++++....++++++++++++++++........++++++++++++++++++++++++++++++++++++........++++++++++++++++++++........####....++++++++++++++++........########....                                                                                                                                                                                                                    ",
"            ........................++++++++++++++++................@@@@++++@@@@++++@@@@++++++++........++++++++++++++++++++++++............                                                                                                                                                                                                                                                                                                                                                                                                                                                                                                                        ....++++++++++++++++++++....++++++++++++++++........++++++++++++++++++++++++++++++++++++........++++++++++++++++++++........####....++++++++++++++++........########....                                                                                                                                                                                                                    ",
"            ........................++++++++++++++++................@@@@++++@@@@++++@@@@++++++++........++++++++++++++++++++++++............                                                                                                                                                                                                                                                                                                                                                                                                                                                                                                                        ....++++++++++++++++++++....++++++++++++++++........++++++++++++++++++++++++++++++++++++........++++++++++++++++++++........####....++++++++++++++++........########....                                                                                                                                                                                                                    ",
"            ........................++++++++++++++++................@@@@++++@@@@++++@@@@++++++++........++++++++++++++++++++++++............                                                                                                                                                                                                                                                                                                                                                                                                                                                                                                                        ....++++++++++++++++++++....++++++++++++++++........++++++++++++++++++++++++++++++++++++........++++++++++++++++++++........####....++++++++++++++++........########....                                                                                                                                                                                                                    ",
"        ....########....++++++++++++++++++++............++++++++............@@@@@@@@++++@@@@++++@@@@++++....++++++++++++++++++++++++++++....                                                                                                                                                                                                                                                                                                                                                                                                                                                                                                                    ....++++++++++++++++++++....++++++++++++++++++++....++++....++++++++++++++++++++++++++++++++++++++++....++++++++++++++++++++++++....####........++++++++++++++++........####........                                                                                                                                                                                                            ",
"        ....########....++++++++++++++++++++............++++++++............@@@@@@@@++++@@@@++++@@@@++++....++++++++++++++++++++++++++++....                                                                                                                                                                                                                                                                                                                                                                                                                                                                                                                    ....++++++++++++++++++++....++++++++++++++++++++....++++....++++++++++++++++++++++++++++++++++++++++....++++++++++++++++++++++++....####........++++++++++++++++........####........                                                                                                                                                                                                            ",
"        ....########....++++++++++++++++++++............++++++++............@@@@@@@@++++@@@@++++@@@@++++....++++++++++++++++++++++++++++....                                                                                                                                                                                                                                                                                                                                                                                                                                                                                                                    ....++++++++++++++++++++....++++++++++++++++++++....++++....++++++++++++++++++++++++++++++++++++++++....++++++++++++++++++++++++....####........++++++++++++++++........####........                                                                                                                                                                                                            ",
"        ....########....++++++++++++++++++++............++++++++............@@@@@@@@++++@@@@++++@@@@++++....++++++++++++++++++++++++++++....                                                                                                                                                                                                                                                                                                                                                                                                                                                                                                                    ....++++++++++++++++++++....++++++++++++++++++++....++++....++++++++++++++++++++++++++++++++++++++++....++++++++++++++++++++++++....####........++++++++++++++++........####........                                                                                                                                                                                                            ",
"    ....########....++++++++++++++++........####....++++++++++++++++++++....................++++++++++++++++....++++++++++++++++++++++++++++....                                                                                                                                                                                                                                                                                                                                                                                                                                                                                                            ....++++++++++++++++++++....++++++++++++++++++++++++....++++++++....++++++++++++++++++++++++++++++++++++++++........++++++++++++++++++++........####........++++++++++++++++....########........                                                                                                                                                                                                    ",
"    ....########....++++++++++++++++........####....++++++++++++++++++++....................++++++++++++++++....++++++++++++++++++++++++++++....                                                                                                                                                                                                                                                                                                                                                                                                                                                                                                            ....++++++++++++++++++++....++++++++++++++++++++++++....++++++++....++++++++++++++++++++++++++++++++++++++++........++++++++++++++++++++........####........++++++++++++++++....########........                                                                                                                                                                                                    ",
"    ....########....++++++++++++++++........####....++++++++++++++++++++....................++++++++++++++++....++++++++++++++++++++++++++++....                                                                                                                                                                                                                                                                                                                                                                                                                                                                                                            ....++++++++++++++++++++....++++++++++++++++++++++++....++++++++....++++++++++++++++++++++++++++++++++++++++........++++++++++++++++++++........####........++++++++++++++++....########........                                                                                                                                                                                                    ",
"    ....########....++++++++++++++++........####....++++++++++++++++++++....................++++++++++++++++....++++++++++++++++++++++++++++....                                                                                                                                                                                                                                                                                                                                                                                                                                                                                                            ....++++++++++++++++++++....++++++++++++++++++++++++....++++++++....++++++++++++++++++++++++++++++++++++++++........++++++++++++++++++++........####........++++++++++++++++....########........                                                                                                                                                                                                    ",
"....####........++++++++++++++++....####........++++++++++++++++++++........++++++++++++++++........++++++++++++........++++++++++++++++++++++++....                                                                                                                                                                                                                                                                                                                                                                                                                                                                                                        ....++++++++++++++++....++++++++++++++++++++++++@@@@....++++++++++++................++++++++++++++++++++++++++++++++....++++++++++++++++++++++++....########....++++++++++++++++........########........                                                                                                                                                                                            ",
"....####........++++++++++++++++....####........++++++++++++++++++++........++++++++++++++++........++++++++++++........++++++++++++++++++++++++....                                                                                                                                                                                                                                                                                                                                                                                                                                                                                                        ....++++++++++++++++....++++++++++++++++++++++++@@@@....++++++++++++................++++++++++++++++++++++++++++++++....++++++++++++++++++++++++....########....++++++++++++++++........########........                                                                                                                                                                                            ",
"....####........++++++++++++++++....####........++++++++++++++++++++........++++++++++++++++........++++++++++++........++++++++++++++++++++++++....                                                                                                                                                                                                                                                                                                                                                                                                                                                                                                        ....++++++++++++++++....++++++++++++++++++++++++@@@@....++++++++++++................++++++++++++++++++++++++++++++++....++++++++++++++++++++++++....########....++++++++++++++++........########........                                                                                                                                                                                            ",
"....####........++++++++++++++++....####........++++++++++++++++++++........++++++++++++++++........++++++++++++........++++++++++++++++++++++++....                                                                                                                                                                                                                                                                                                                                                                                                                                                                                                        ....++++++++++++++++....++++++++++++++++++++++++@@@@....++++++++++++................++++++++++++++++++++++++++++++++....++++++++++++++++++++++++....########....++++++++++++++++........########........                                                                                                                                                                                            ",
"####....++++++++++++++++........####....++++++++++++++++++++++++....++++++++++++++++++++++++++++++++....++++++++++++++++....++++++++++++++++++++++++....                                                                                                                                                                                                                                                                                                                                                                                                                                                                                                ....++++++++++++++++....++++++++++++++++++++++++@@@@++++....++++++++++++++++++++++++++++....................++++++++++++++++....++++++++++++++++++++++++........####........++++++++++++++++....############....                                                                                                                                                                                        ",
"####....++++++++++++++++........####....++++++++++++++++++++++++....++++++++++++++++++++++++++++++++....++++++++++++++++....++++++++++++++++++++++++....                                                                                                                                                                                                                                                                                                                                                                                                                                                                                                ....++++++++++++++++....++++++++++++++++++++++++@@@@++++....++++++++++++++++++++++++++++....................++++++++++++++++....++++++++++++++++++++++++........####........++++++++++++++++....############....                                                                                                                                                                                        ",
"####....++++++++++++++++........####....++++++++++++++++++++++++....++++++++++++++++++++++++++++++++....++++++++++++++++....++++++++++++++++++++++++....                                                                                                                                                                                                                                                                                                                                                                                                                                                                                                ....++++++++++++++++....++++++++++++++++++++++++@@@@++++....++++++++++++++++++++++++++++....................++++++++++++++++....++++++++++++++++++++++++........####........++++++++++++++++....############....                                                                                                                                                                                        ",
"####....++++++++++++++++........####....++++++++++++++++++++++++....++++++++++++++++++++++++++++++++....++++++++++++++++....++++++++++++++++++++++++....                                                                                                                                                                                                                                                                                                                                                                                                                                                                                                ....++++++++++++++++....++++++++++++++++++++++++@@@@++++....++++++++++++++++++++++++++++....................++++++++++++++++....++++++++++++++++++++++++........####........++++++++++++++++....############....                                                                                                                                                                                        ",
"....++++++++++++++++....####........++++++++++++++++++++........++++++++++++++++++++++++++++++++++++........++++++++++++++++....++++++++++++++++++++....                                                                                                                                                                                                                                                                                                                                                                                                                                                                                                ....++++++++++++++++....++++++++++++++++++++++++++++@@@@....++++++++++++++++++++@@@@++++++++@@@@++++@@@@@@@@............................++++++++++++++++++++++++....########....++++++++++++++++........########........                                                                                                                                                                                ",
"....++++++++++++++++....####........++++++++++++++++++++........++++++++++++++++++++++++++++++++++++........++++++++++++++++....++++++++++++++++++++....                                                                                                                                                                                                                                                                                                                                                                                                                                                                                                ....++++++++++++++++....++++++++++++++++++++++++++++@@@@....++++++++++++++++++++@@@@++++++++@@@@++++@@@@@@@@............................++++++++++++++++++++++++....########....++++++++++++++++........########........                                                                                                                                                                                ",
"....++++++++++++++++....####........++++++++++++++++++++........++++++++++++++++++++++++++++++++++++........++++++++++++++++....++++++++++++++++++++....                                                                                                                                                                                                                                                                                                                                                                                                                                                                                                ....++++++++++++++++....++++++++++++++++++++++++++++@@@@....++++++++++++++++++++@@@@++++++++@@@@++++@@@@@@@@............................++++++++++++++++++++++++....########....++++++++++++++++........########........                                                                                                                                                                                ",
"....++++++++++++++++....####........++++++++++++++++++++........++++++++++++++++++++++++++++++++++++........++++++++++++++++....++++++++++++++++++++....                                                                                                                                                                                                                                                                                                                                                                                                                                                                                                ....++++++++++++++++....++++++++++++++++++++++++++++@@@@....++++++++++++++++++++@@@@++++++++@@@@++++@@@@@@@@............................++++++++++++++++++++++++....########....++++++++++++++++........########........                                                                                                                                                                                ",
"++++++++++++........####....++++++++++++++++++++++++....++++++++++++++++++++++++++++++++++++++++....++++....++++++++++++++++++++....++++++++++++++++++++....                                                                                                                                                                                                                                                                                                                                                                                                                                                                                            ....++++++++++++....++++++++++++++++++++++++++++@@@@............++++++++++++++++++++++++@@@@++++@@@@@@@@@@@@@@@@@@@@++++........++++++++....++++++++++++++++++++++++........####........++++++++++++++++........########........                                                                                                                                                                        ",
"++++++++++++........####....++++++++++++++++++++++++....++++++++++++++++++++++++++++++++++++++++....++++....++++++++++++++++++++....++++++++++++++++++++....                                                                                                                                                                                                                                                                                                                                                                                                                                                                                            ....++++++++++++....++++++++++++++++++++++++++++@@@@............++++++++++++++++++++++++@@@@++++@@@@@@@@@@@@@@@@@@@@++++........++++++++....++++++++++++++++++++++++........####........++++++++++++++++........########........                                                                                                                                                                        ",
"++++++++++++........####....++++++++++++++++++++++++....++++++++++++++++++++++++++++++++++++++++....++++....++++++++++++++++++++....++++++++++++++++++++....                                                                                                                                                                                                                                                                                                                                                                                                                                                                                            ....++++++++++++....++++++++++++++++++++++++++++@@@@............++++++++++++++++++++++++@@@@++++@@@@@@@@@@@@@@@@@@@@++++........++++++++....++++++++++++++++++++++++........####........++++++++++++++++........########........                                                                                                                                                                        ",
"++++++++++++........####....++++++++++++++++++++++++....++++++++++++++++++++++++++++++++++++++++....++++....++++++++++++++++++++....++++++++++++++++++++....                                                                                                                                                                                                                                                                                                                                                                                                                                                                                            ....++++++++++++....++++++++++++++++++++++++++++@@@@............++++++++++++++++++++++++@@@@++++@@@@@@@@@@@@@@@@@@@@++++........++++++++....++++++++++++++++++++++++........####........++++++++++++++++........########........                                                                                                                                                                        ",
"++++........####........++++++++++++++++++++........++++++++++++++++++++++++++++++++++++++++....++++++++....++++++++++++++++++++++++....++++++++++++++++++++....                                                                                                                                                                                                                                                                                                                                                                                                                                                                                        ....++++++++++++....++++++++++++++++++++++++........++++++++++++....++++++++++++@@@@++++++++@@@@++++@@@@@@@@@@@@@@@@++++....++++++++++++++++........++++++++++++++++++++++++....########........++++++++++++++++....############....                                                                                                                                                                    ",
"++++........####........++++++++++++++++++++........++++++++++++++++++++++++++++++++++++++++....++++++++....++++++++++++++++++++++++....++++++++++++++++++++....                                                                                                                                                                                                                                                                                                                                                                                                                                                                                        ....++++++++++++....++++++++++++++++++++++++........++++++++++++....++++++++++++@@@@++++++++@@@@++++@@@@@@@@@@@@@@@@++++....++++++++++++++++........++++++++++++++++++++++++....########........++++++++++++++++....############....                                                                                                                                                                    ",
"++++........####........++++++++++++++++++++........++++++++++++++++++++++++++++++++++++++++....++++++++....++++++++++++++++++++++++....++++++++++++++++++++....                                                                                                                                                                                                                                                                                                                                                                                                                                                                                        ....++++++++++++....++++++++++++++++++++++++........++++++++++++....++++++++++++@@@@++++++++@@@@++++@@@@@@@@@@@@@@@@++++....++++++++++++++++........++++++++++++++++++++++++....########........++++++++++++++++....############....                                                                                                                                                                    ",
"++++........####........++++++++++++++++++++........++++++++++++++++++++++++++++++++++++++++....++++++++....++++++++++++++++++++++++....++++++++++++++++++++....                                                                                                                                                                                                                                                                                                                                                                                                                                                                                        ....++++++++++++....++++++++++++++++++++++++........++++++++++++....++++++++++++@@@@++++++++@@@@++++@@@@@@@@@@@@@@@@++++....++++++++++++++++........++++++++++++++++++++++++....########........++++++++++++++++....############....                                                                                                                                                                    ",
"....########....++++++++++++++++++++++++....++++++++++++++++++++++++++++++++................++++++++++++....@@@@++++++++++++++++++++++++....++++++++++++++++....                                                                                                                                                                                                                                                                                                                                                                                                                                                                                    ....++++++++++++....++++++++++++++++++++++++++++....++++++++++++++++................++++++++@@@@++++@@@@@@@@@@@@@@@@@@@@++++....++++++++####++++++++++++....++++++++@@@@++++@@@@++++........########....++++++++++++++++........########........                                                                                                                                                            ",
"....########....++++++++++++++++++++++++....++++++++++++++++++++++++++++++++................++++++++++++....@@@@++++++++++++++++++++++++....++++++++++++++++....                                                                                                                                                                                                                                                                                                                                                                                                                                                                                    ....++++++++++++....++++++++++++++++++++++++++++....++++++++++++++++................++++++++@@@@++++@@@@@@@@@@@@@@@@@@@@++++....++++++++####++++++++++++....++++++++@@@@++++@@@@++++........########....++++++++++++++++........########........                                                                                                                                                            ",
"....########....++++++++++++++++++++++++....++++++++++++++++++++++++++++++++................++++++++++++....@@@@++++++++++++++++++++++++....++++++++++++++++....                                                                                                                                                                                                                                                                                                                                                                                                                                                                                    ....++++++++++++....++++++++++++++++++++++++++++....++++++++++++++++................++++++++@@@@++++@@@@@@@@@@@@@@@@@@@@++++....++++++++####++++++++++++....++++++++@@@@++++@@@@++++........########....++++++++++++++++........########........                                                                                                                                                            ",
"....########....++++++++++++++++++++++++....++++++++++++++++++++++++++++++++................++++++++++++....@@@@++++++++++++++++++++++++....++++++++++++++++....                                                                                                                                                                                                                                                                                                                                                                                                                                                                                    ....++++++++++++....++++++++++++++++++++++++++++....++++++++++++++++................++++++++@@@@++++@@@@@@@@@@@@@@@@@@@@++++....++++++++####++++++++++++....++++++++@@@@++++@@@@++++........########....++++++++++++++++........########........                                                                                                                                                            ",
"####........++++++++++++++++++++++++....++++++++++++++++....................++++++++++++++++++++++++++++....++++@@@@++++++++++++++++++++++++....++++++++++++++++....                                                                                                                                                                                                                                                                                                                                                                                                                                                                                ....++++++++++++....++++++++++++++++++++++++++++....++++++++++++++++....++++++++++++....................@@@@@@@@@@@@@@@@++++....++++++++++++########++++++++........++++++++++++++++++++++++....########........++++++++++++++++....############........                                                                                                                                                    ",
"####........++++++++++++++++++++++++....++++++++++++++++....................++++++++++++++++++++++++++++....++++@@@@++++++++++++++++++++++++....++++++++++++++++....                                                                                                                                                                                                                                                                                                                                                                                                                                                                                ....++++++++++++....++++++++++++++++++++++++++++....++++++++++++++++....++++++++++++....................@@@@@@@@@@@@@@@@++++....++++++++++++########++++++++........++++++++++++++++++++++++....########........++++++++++++++++....############........                                                                                                                                                    ",
"####........++++++++++++++++++++++++....++++++++++++++++....................++++++++++++++++++++++++++++....++++@@@@++++++++++++++++++++++++....++++++++++++++++....                                                                                                                                                                                                                                                                                                                                                                                                                                                                                ....++++++++++++....++++++++++++++++++++++++++++....++++++++++++++++....++++++++++++....................@@@@@@@@@@@@@@@@++++....++++++++++++########++++++++........++++++++++++++++++++++++....########........++++++++++++++++....############........                                                                                                                                                    ",
"####........++++++++++++++++++++++++....++++++++++++++++....................++++++++++++++++++++++++++++....++++@@@@++++++++++++++++++++++++....++++++++++++++++....                                                                                                                                                                                                                                                                                                                                                                                                                                                                                ....++++++++++++....++++++++++++++++++++++++++++....++++++++++++++++....++++++++++++....................@@@@@@@@@@@@@@@@++++....++++++++++++########++++++++........++++++++++++++++++++++++....########........++++++++++++++++....############........                                                                                                                                                    ",
"....++++++++++++++++++++++++............................@@@@@@@@++++@@@@++++++++@@@@++++++++++++++++++++....@@@@++++++++++++++++++++++++++++....++++++++++++++++....                                                                                                                                                                                                                                                                                                                                                                                                                                    ................                            ....++++++++++++....++++++++++++++++++++++++@@@@....++++++++++++++++....++++++++++++++++++++####++++####........................++++++++####++++########++++++++++++....++++@@@@++++@@@@++++@@@@........########........++++++++++++........############....                                                                                                                                                ",
"....++++++++++++++++++++++++............................@@@@@@@@++++@@@@++++++++@@@@++++++++++++++++++++....@@@@++++++++++++++++++++++++++++....++++++++++++++++....                                                                                                                                                                                                                                                                                                                                                                                                                                    ................                            ....++++++++++++....++++++++++++++++++++++++@@@@....++++++++++++++++....++++++++++++++++++++####++++####........................++++++++####++++########++++++++++++....++++@@@@++++@@@@++++@@@@........########........++++++++++++........############....                                                                                                                                                ",
"....++++++++++++++++++++++++............................@@@@@@@@++++@@@@++++++++@@@@++++++++++++++++++++....@@@@++++++++++++++++++++++++++++....++++++++++++++++....                                                                                                                                                                                                                                                                                                                                                                                                                                    ................                            ....++++++++++++....++++++++++++++++++++++++@@@@....++++++++++++++++....++++++++++++++++++++####++++####........................++++++++####++++########++++++++++++....++++@@@@++++@@@@++++@@@@........########........++++++++++++........############....                                                                                                                                                ",
"....++++++++++++++++++++++++............................@@@@@@@@++++@@@@++++++++@@@@++++++++++++++++++++....@@@@++++++++++++++++++++++++++++....++++++++++++++++....                                                                                                                                                                                                                                                                                                                                                                                                                                    ................                            ....++++++++++++....++++++++++++++++++++++++@@@@....++++++++++++++++....++++++++++++++++++++####++++####........................++++++++####++++########++++++++++++....++++@@@@++++@@@@++++@@@@........########........++++++++++++........############....                                                                                                                                                ",
"++++++++++++++++++++++++....++++++++........++++@@@@@@@@@@@@@@@@@@@@++++@@@@++++++++++++++++++++++++............@@@@++++++++++++++++++++++++++++....++++++++++++....                                                                                                                                                                                                                                                                                                                                                                                                                            ........++++++++++++++++....                        ....++++++++++++....++++++++++++++++++++++++++++....++++++++++++++++....++++++++++++++++++++++++++++++++####++++########++++....++++++++++++####################++++++++........++++++++++++++++++++++++....############....++++++++++++++++........########........                                                                                                                                        ",
"++++++++++++++++++++++++....++++++++........++++@@@@@@@@@@@@@@@@@@@@++++@@@@++++++++++++++++++++++++............@@@@++++++++++++++++++++++++++++....++++++++++++....                                                                                                                                                                                                                                                                                                                                                                                                                            ........++++++++++++++++....                        ....++++++++++++....++++++++++++++++++++++++++++....++++++++++++++++....++++++++++++++++++++++++++++++++####++++########++++....++++++++++++####################++++++++........++++++++++++++++++++++++....############....++++++++++++++++........########........                                                                                                                                        ",
"++++++++++++++++++++++++....++++++++........++++@@@@@@@@@@@@@@@@@@@@++++@@@@++++++++++++++++++++++++............@@@@++++++++++++++++++++++++++++....++++++++++++....                                                                                                                                                                                                                                                                                                                                                                                                                            ........++++++++++++++++....                        ....++++++++++++....++++++++++++++++++++++++++++....++++++++++++++++....++++++++++++++++++++++++++++++++####++++########++++....++++++++++++####################++++++++........++++++++++++++++++++++++....############....++++++++++++++++........########........                                                                                                                                        ",
"++++++++++++++++++++++++....++++++++........++++@@@@@@@@@@@@@@@@@@@@++++@@@@++++++++++++++++++++++++............@@@@++++++++++++++++++++++++++++....++++++++++++....                                                                                                                                                                                                                                                                                                                                                                                                                            ........++++++++++++++++....                        ....++++++++++++....++++++++++++++++++++++++++++....++++++++++++++++....++++++++++++++++++++++++++++++++####++++########++++....++++++++++++####################++++++++........++++++++++++++++++++++++....############....++++++++++++++++........########........                                                                                                                                        ",
"++++++++++++++++........++++++++++++++++....++++@@@@@@@@@@@@@@@@++++@@@@++++++++@@@@++++++++++++....++++++++++++........++++++++++++++++++++++++....++++++++++++....                                                                                                                                                                                                                                                                                                                                                                                                                        ........++++++++++++++++++++++++........                ....++++++++++++....++++++++++++++++++++++++@@@@++++....++++++++++++....++++++++++++####++++####++++####++++############++++....++++++++####++++####################++++++++++++....@@@@++++@@@@++++@@@@++++........########........++++++++++++++++....############........                                                                                                                                ",
"++++++++++++++++........++++++++++++++++....++++@@@@@@@@@@@@@@@@++++@@@@++++++++@@@@++++++++++++....++++++++++++........++++++++++++++++++++++++....++++++++++++....                                                                                                                                                                                                                                                                                                                                                                                                                        ........++++++++++++++++++++++++........                ....++++++++++++....++++++++++++++++++++++++@@@@++++....++++++++++++....++++++++++++####++++####++++####++++############++++....++++++++####++++####################++++++++++++....@@@@++++@@@@++++@@@@++++........########........++++++++++++++++....############........                                                                                                                                ",
"++++++++++++++++........++++++++++++++++....++++@@@@@@@@@@@@@@@@++++@@@@++++++++@@@@++++++++++++....++++++++++++........++++++++++++++++++++++++....++++++++++++....                                                                                                                                                                                                                                                                                                                                                                                                                        ........++++++++++++++++++++++++........                ....++++++++++++....++++++++++++++++++++++++@@@@++++....++++++++++++....++++++++++++####++++####++++####++++############++++....++++++++####++++####################++++++++++++....@@@@++++@@@@++++@@@@++++........########........++++++++++++++++....############........                                                                                                                                ",
"++++++++++++++++........++++++++++++++++....++++@@@@@@@@@@@@@@@@++++@@@@++++++++@@@@++++++++++++....++++++++++++........++++++++++++++++++++++++....++++++++++++....                                                                                                                                                                                                                                                                                                                                                                                                                        ........++++++++++++++++++++++++........                ....++++++++++++....++++++++++++++++++++++++@@@@++++....++++++++++++....++++++++++++####++++####++++####++++############++++....++++++++####++++####################++++++++++++....@@@@++++@@@@++++@@@@++++........########........++++++++++++++++....############........                                                                                                                                ",
"@@@@++++++++....++++++++++++####++++++++....++++@@@@@@@@@@@@@@@@@@@@++++@@@@++++++++................++++++++++++++++....++++++++++++++++++++++++++++....++++++++++++....                                                                                                                                                                                                                                                                                                                                                                                                                    ....++++....++++++++++++++++++++++++++++....            ....++++++++++++....++++++++++++++++++++++++++++@@@@....++++++++++++....++++++++++++++++++++++++++++++++####++++########++++....++++++++++++################################++++++++........++++++++++++@@@@++++@@@@....############....++++++++++++++++........############....                                                                                                                            ",
"@@@@++++++++....++++++++++++####++++++++....++++@@@@@@@@@@@@@@@@@@@@++++@@@@++++++++................++++++++++++++++....++++++++++++++++++++++++++++....++++++++++++....                                                                                                                                                                                                                                                                                                                                                                                                                    ....++++....++++++++++++++++++++++++++++....            ....++++++++++++....++++++++++++++++++++++++++++@@@@....++++++++++++....++++++++++++++++++++++++++++++++####++++########++++....++++++++++++################################++++++++........++++++++++++@@@@++++@@@@....############....++++++++++++++++........############....                                                                                                                            ",
"@@@@++++++++....++++++++++++####++++++++....++++@@@@@@@@@@@@@@@@@@@@++++@@@@++++++++................++++++++++++++++....++++++++++++++++++++++++++++....++++++++++++....                                                                                                                                                                                                                                                                                                                                                                                                                    ....++++....++++++++++++++++++++++++++++....            ....++++++++++++....++++++++++++++++++++++++++++@@@@....++++++++++++....++++++++++++++++++++++++++++++++####++++########++++....++++++++++++################################++++++++........++++++++++++@@@@++++@@@@....############....++++++++++++++++........############....                                                                                                                            ",
"@@@@++++++++....++++++++++++####++++++++....++++@@@@@@@@@@@@@@@@@@@@++++@@@@++++++++................++++++++++++++++....++++++++++++++++++++++++++++....++++++++++++....                                                                                                                                                                                                                                                                                                                                                                                                                    ....++++....++++++++++++++++++++++++++++....            ....++++++++++++....++++++++++++++++++++++++++++@@@@....++++++++++++....++++++++++++++++++++++++++++++++####++++########++++....++++++++++++################################++++++++........++++++++++++@@@@++++@@@@....############....++++++++++++++++........############....                                                                                                                            ",
"++++........++++++++########++++++++++++....++++@@@@@@@@@@@@@@@@....................++++++++++++....++++++++++++++++....++++++++++++++++++++++++++++....++++++++++++....                                                                                                                                                                                                                                                                                                                                                                                                                    ....++++++++....++++++++++++++++++++++++++++....        ....++++++++++++....++++++++++++++++@@@@++++@@@@++++@@@@....++++++++....++++++++++++####++++####++++####++++############++++....++++++++++++....................################++++++++++++....++++@@@@++++@@@@++++@@@@........########........++++++++++++++++....############........                                                                                                                    ",
"++++........++++++++########++++++++++++....++++@@@@@@@@@@@@@@@@....................++++++++++++....++++++++++++++++....++++++++++++++++++++++++++++....++++++++++++....                                                                                                                                                                                                                                                                                                                                                                                                                    ....++++++++....++++++++++++++++++++++++++++....        ....++++++++++++....++++++++++++++++@@@@++++@@@@++++@@@@....++++++++....++++++++++++####++++####++++####++++############++++....++++++++++++....................################++++++++++++....++++@@@@++++@@@@++++@@@@........########........++++++++++++++++....############........                                                                                                                    ",
"++++........++++++++########++++++++++++....++++@@@@@@@@@@@@@@@@....................++++++++++++....++++++++++++++++....++++++++++++++++++++++++++++....++++++++++++....                                                                                                                                                                                                                                                                                                                                                                                                                    ....++++++++....++++++++++++++++++++++++++++....        ....++++++++++++....++++++++++++++++@@@@++++@@@@++++@@@@....++++++++....++++++++++++####++++####++++####++++############++++....++++++++++++....................################++++++++++++....++++@@@@++++@@@@++++@@@@........########........++++++++++++++++....############........                                                                                                                    ",
"++++........++++++++########++++++++++++....++++@@@@@@@@@@@@@@@@....................++++++++++++....++++++++++++++++....++++++++++++++++++++++++++++....++++++++++++....                                                                                                                                                                                                                                                                                                                                                                                                                    ....++++++++....++++++++++++++++++++++++++++....        ....++++++++++++....++++++++++++++++@@@@++++@@@@++++@@@@....++++++++....++++++++++++####++++####++++####++++############++++....++++++++++++....................################++++++++++++....++++@@@@++++@@@@++++@@@@........########........++++++++++++++++....############........                                                                                                                    ",
"....++++++++++++########++++####++++++++........................####++++####++++++++++++++++++++....++++++++++++++++....@@@@++++++++++++++++++++++++....++++++++++++....                            ................                                                                                                                                                                                                                                                                                                                                                                ............++++++++++++....++++++++++++++++............            ....++++++++....++++++++++++++++++++++++++++@@@@++++....++++++++....++++++++++++++++++++++++++++++++####++++########++++....++++++++....####################....####################++++++++........@@@@++++@@@@++++@@@@++++....############........++++++++++++........############........                                                                                                            ",
"....++++++++++++########++++####++++++++........................####++++####++++++++++++++++++++....++++++++++++++++....@@@@++++++++++++++++++++++++....++++++++++++....                            ................                                                                                                                                                                                                                                                                                                                                                                ............++++++++++++....++++++++++++++++............            ....++++++++....++++++++++++++++++++++++++++@@@@++++....++++++++....++++++++++++++++++++++++++++++++####++++########++++....++++++++....####################....####################++++++++........@@@@++++@@@@++++@@@@++++....############........++++++++++++........############........                                                                                                            ",
"....++++++++++++########++++####++++++++........................####++++####++++++++++++++++++++....++++++++++++++++....@@@@++++++++++++++++++++++++....++++++++++++....                            ................                                                                                                                                                                                                                                                                                                                                                                ............++++++++++++....++++++++++++++++............            ....++++++++....++++++++++++++++++++++++++++@@@@++++....++++++++....++++++++++++++++++++++++++++++++####++++########++++....++++++++....####################....####################++++++++........@@@@++++@@@@++++@@@@++++....############........++++++++++++........############........                                                                                                            ",
"....++++++++++++########++++####++++++++........................####++++####++++++++++++++++++++....++++++++++++++++....@@@@++++++++++++++++++++++++....++++++++++++....                            ................                                                                                                                                                                                                                                                                                                                                                                ............++++++++++++....++++++++++++++++............            ....++++++++....++++++++++++++++++++++++++++@@@@++++....++++++++....++++++++++++++++++++++++++++++++####++++########++++....++++++++....####################....####################++++++++........@@@@++++@@@@++++@@@@++++....############........++++++++++++........############........                                                                                                            ",
"++++++++####################++++++++++++....++++########++++####++++++++++++++++++++++++++++++++....++++++++++++++++....++++++++++++++++++++++++++++....++++++++++++....                        ....++++++++++++++++........                                                                                                                                                                                                                                                                                                                                                        ....++++....++++++++++++++++....++++........++++++++....            ....++++++++++++....++++++++++++@@@@++++@@@@@@@@@@@@@@@@....++++....++++++++++++####++++####++++####++++############++++....++++++++............################....####################++++++++++++....@@@@++++@@@@++++@@@@++++........############....++++++++++++++++........############........                                                                                                    ",
"++++++++####################++++++++++++....++++########++++####++++++++++++++++++++++++++++++++....++++++++++++++++....++++++++++++++++++++++++++++....++++++++++++....                        ....++++++++++++++++........                                                                                                                                                                                                                                                                                                                                                        ....++++....++++++++++++++++....++++........++++++++....            ....++++++++++++....++++++++++++@@@@++++@@@@@@@@@@@@@@@@....++++....++++++++++++####++++####++++####++++############++++....++++++++............################....####################++++++++++++....@@@@++++@@@@++++@@@@++++........############....++++++++++++++++........############........                                                                                                    ",
"++++++++####################++++++++++++....++++########++++####++++++++++++++++++++++++++++++++....++++++++++++++++....++++++++++++++++++++++++++++....++++++++++++....                        ....++++++++++++++++........                                                                                                                                                                                                                                                                                                                                                        ....++++....++++++++++++++++....++++........++++++++....            ....++++++++++++....++++++++++++@@@@++++@@@@@@@@@@@@@@@@....++++....++++++++++++####++++####++++####++++############++++....++++++++............################....####################++++++++++++....@@@@++++@@@@++++@@@@++++........############....++++++++++++++++........############........                                                                                                    ",
"++++++++####################++++++++++++....++++########++++####++++++++++++++++++++++++++++++++....++++++++++++++++....++++++++++++++++++++++++++++....++++++++++++....                        ....++++++++++++++++........                                                                                                                                                                                                                                                                                                                                                        ....++++....++++++++++++++++....++++........++++++++....            ....++++++++++++....++++++++++++@@@@++++@@@@@@@@@@@@@@@@....++++....++++++++++++####++++####++++####++++############++++....++++++++............################....####################++++++++++++....@@@@++++@@@@++++@@@@++++........############....++++++++++++++++........############........                                                                                                    ",
"++++####################++++####++++++++....++++############++++####++++####++++####++++++++++++....++++++++++++....++++@@@@++++++++++++++++++++++++....++++++++++++....                ........++++++++++++++++++++++++........                                                                                                                                                                                                                                                                                                                                                    ....++++++++....++++++++++++++++....++++++++++++++++....            ....++++++++++++....++++++++++++++++@@@@++++@@@@++++@@@@@@@@........++++++++++++++++++++++++++++++++####++++########++++....++++++++....++++++++....################........####################++++++++........++++@@@@++++@@@@++++@@@@....############........++++++++++++++++....################....                                                                                                ",
"++++####################++++####++++++++....++++############++++####++++####++++####++++++++++++....++++++++++++....++++@@@@++++++++++++++++++++++++....++++++++++++....                ........++++++++++++++++++++++++........                                                                                                                                                                                                                                                                                                                                                    ....++++++++....++++++++++++++++....++++++++++++++++....            ....++++++++++++....++++++++++++++++@@@@++++@@@@++++@@@@@@@@........++++++++++++++++++++++++++++++++####++++########++++....++++++++....++++++++....################........####################++++++++........++++@@@@++++@@@@++++@@@@....############........++++++++++++++++....################....                                                                                                ",
"++++####################++++####++++++++....++++############++++####++++####++++####++++++++++++....++++++++++++....++++@@@@++++++++++++++++++++++++....++++++++++++....                ........++++++++++++++++++++++++........                                                                                                                                                                                                                                                                                                                                                    ....++++++++....++++++++++++++++....++++++++++++++++....            ....++++++++++++....++++++++++++++++@@@@++++@@@@++++@@@@@@@@........++++++++++++++++++++++++++++++++####++++########++++....++++++++....++++++++....################........####################++++++++........++++@@@@++++@@@@++++@@@@....############........++++++++++++++++....################....                                                                                                ",
"++++####################++++####++++++++....++++############++++####++++####++++####++++++++++++....++++++++++++....++++@@@@++++++++++++++++++++++++....++++++++++++....                ........++++++++++++++++++++++++........                                                                                                                                                                                                                                                                                                                                                    ....++++++++....++++++++++++++++....++++++++++++++++....            ....++++++++++++....++++++++++++++++@@@@++++@@@@++++@@@@@@@@........++++++++++++++++++++++++++++++++####++++########++++....++++++++....++++++++....################........####################++++++++........++++@@@@++++@@@@++++@@@@....############........++++++++++++++++....################....                                                                                                ",
"############################++++++++++++....++++########++++####++++++++++++++++++++++++++++++++....++++++++++++....@@@@++++++++++++++++++++++++++++....++++++++++++....            ....++++++++++++++++++++++++++++....++++....                                                                                                                                                                                                                                                                                                                                                    ....++++++++....++++++++++++++++....++++++++++++++++........            ....++++++++....++++@@@@++++@@@@++++@@@@@@@@@@@@@@@@@@@@........++++++++++++####++++####++++####++++############++++....++++++++....++++++++++++....####################....####################++++++++++++....++++@@@@++++@@@@@@@@@@@@........############....++++++++++++++++........############........                                                                                        ",
"############################++++++++++++....++++########++++####++++++++++++++++++++++++++++++++....++++++++++++....@@@@++++++++++++++++++++++++++++....++++++++++++....            ....++++++++++++++++++++++++++++....++++....                                                                                                                                                                                                                                                                                                                                                    ....++++++++....++++++++++++++++....++++++++++++++++........            ....++++++++....++++@@@@++++@@@@++++@@@@@@@@@@@@@@@@@@@@........++++++++++++####++++####++++####++++############++++....++++++++....++++++++++++....####################....####################++++++++++++....++++@@@@++++@@@@@@@@@@@@........############....++++++++++++++++........############........                                                                                        ",
"############################++++++++++++....++++########++++####++++++++++++++++++++++++++++++++....++++++++++++....@@@@++++++++++++++++++++++++++++....++++++++++++....            ....++++++++++++++++++++++++++++....++++....                                                                                                                                                                                                                                                                                                                                                    ....++++++++....++++++++++++++++....++++++++++++++++........            ....++++++++....++++@@@@++++@@@@++++@@@@@@@@@@@@@@@@@@@@........++++++++++++####++++####++++####++++############++++....++++++++....++++++++++++....####################....####################++++++++++++....++++@@@@++++@@@@@@@@@@@@........############....++++++++++++++++........############........                                                                                        ",
"############################++++++++++++....++++########++++####++++++++++++++++++++++++++++++++....++++++++++++....@@@@++++++++++++++++++++++++++++....++++++++++++....            ....++++++++++++++++++++++++++++....++++....                                                                                                                                                                                                                                                                                                                                                    ....++++++++....++++++++++++++++....++++++++++++++++........            ....++++++++....++++@@@@++++@@@@++++@@@@@@@@@@@@@@@@@@@@........++++++++++++####++++####++++####++++############++++....++++++++....++++++++++++....####################....####################++++++++++++....++++@@@@++++@@@@@@@@@@@@........############....++++++++++++++++........############........                                                                                        ",
"########....................++++++++++++....++++############++++####++++####++++####++++++++++++....++++++++....@@@@++++@@@@++++@@@@++++++++++++++++....++++++++++++....        ....++++++++++++++++++++++++++++....++++++++....                                                                                                                                                                                                                                                                                                                                                        ....++++++++....++++++++++++....++++++++++++++++............        ....++++++++....++++++++++++++++@@@@++++@@@@@@@@@@@@@@@@@@@@....++++++++++++++++++++++++++++++++####++++########++++....++++++++....++++++++++++++++........################........####################++++++++....++++@@@@++++@@@@++++@@@@++++....############........++++++++++++++++....################........                                                                                ",
"########....................++++++++++++....++++############++++####++++####++++####++++++++++++....++++++++....@@@@++++@@@@++++@@@@++++++++++++++++....++++++++++++....        ....++++++++++++++++++++++++++++....++++++++....                                                                                                                                                                                                                                                                                                                                                        ....++++++++....++++++++++++....++++++++++++++++............        ....++++++++....++++++++++++++++@@@@++++@@@@@@@@@@@@@@@@@@@@....++++++++++++++++++++++++++++++++####++++########++++....++++++++....++++++++++++++++........################........####################++++++++....++++@@@@++++@@@@++++@@@@++++....############........++++++++++++++++....################........                                                                                ",
"########....................++++++++++++....++++############++++####++++####++++####++++++++++++....++++++++....@@@@++++@@@@++++@@@@++++++++++++++++....++++++++++++....        ....++++++++++++++++++++++++++++....++++++++....                                                                                                                                                                                                                                                                                                                                                        ....++++++++....++++++++++++....++++++++++++++++............        ....++++++++....++++++++++++++++@@@@++++@@@@@@@@@@@@@@@@@@@@....++++++++++++++++++++++++++++++++####++++########++++....++++++++....++++++++++++++++........################........####################++++++++....++++@@@@++++@@@@++++@@@@++++....############........++++++++++++++++....################........                                                                                ",
"########....................++++++++++++....++++############++++####++++####++++####++++++++++++....++++++++....@@@@++++@@@@++++@@@@++++++++++++++++....++++++++++++....        ....++++++++++++++++++++++++++++....++++++++....                                                                                                                                                                                                                                                                                                                                                        ....++++++++....++++++++++++....++++++++++++++++............        ....++++++++....++++++++++++++++@@@@++++@@@@@@@@@@@@@@@@@@@@....++++++++++++++++++++++++++++++++####++++########++++....++++++++....++++++++++++++++........################........####################++++++++....++++@@@@++++@@@@++++@@@@++++....############........++++++++++++++++....################........                                                                                ",
"####....####################....++++++++....++++########++++####++++++++++++++++++++++++++++++++....++++++++....++++@@@@++++++++++++++++++++++++++++....++++++++....            ............++++++++++++++++....++++++++++++............                                                                                                                                                                                                                                                                                                                                                    ....++++++++....++++++++....++++............++++++++++++....        ....++++++++....@@@@++++@@@@++++@@@@@@@@@@@@@@@@@@@@@@@@....++++++++++++####++++####++++####++++############++++....++++++++....++++++++++++++++++++++++....####################....####################++++++++........@@@@@@@@@@@@@@@@@@@@@@@@........############........++++++++++++........################....                                                                            ",
"####....####################....++++++++....++++########++++####++++++++++++++++++++++++++++++++....++++++++....++++@@@@++++++++++++++++++++++++++++....++++++++....            ............++++++++++++++++....++++++++++++............                                                                                                                                                                                                                                                                                                                                                    ....++++++++....++++++++....++++............++++++++++++....        ....++++++++....@@@@++++@@@@++++@@@@@@@@@@@@@@@@@@@@@@@@....++++++++++++####++++####++++####++++############++++....++++++++....++++++++++++++++++++++++....####################....####################++++++++........@@@@@@@@@@@@@@@@@@@@@@@@........############........++++++++++++........################....                                                                            ",
"####....####################....++++++++....++++########++++####++++++++++++++++++++++++++++++++....++++++++....++++@@@@++++++++++++++++++++++++++++....++++++++....            ............++++++++++++++++....++++++++++++............                                                                                                                                                                                                                                                                                                                                                    ....++++++++....++++++++....++++............++++++++++++....        ....++++++++....@@@@++++@@@@++++@@@@@@@@@@@@@@@@@@@@@@@@....++++++++++++####++++####++++####++++############++++....++++++++....++++++++++++++++++++++++....####################....####################++++++++........@@@@@@@@@@@@@@@@@@@@@@@@........############........++++++++++++........################....                                                                            ",
"####....####################....++++++++....++++########++++####++++++++++++++++++++++++++++++++....++++++++....++++@@@@++++++++++++++++++++++++++++....++++++++....            ............++++++++++++++++....++++++++++++............                                                                                                                                                                                                                                                                                                                                                    ....++++++++....++++++++....++++............++++++++++++....        ....++++++++....@@@@++++@@@@++++@@@@@@@@@@@@@@@@@@@@@@@@....++++++++++++####++++####++++####++++############++++....++++++++....++++++++++++++++++++++++....####################....####################++++++++........@@@@@@@@@@@@@@@@@@@@@@@@........############........++++++++++++........################....                                                                            ",
"....################............++++++++....++++############++++####++++####++++####++++++++++++....++++....@@@@@@@@@@@@@@@@++++@@@@++++++++++++....++++++++++++....            ....++++++++........++++....++++++++++++++++....++++....                                                                                                                                                                                                                                                                                                                                                    ....++++++++++++....++++........++++++++++++++++++++++++++++....    ....++++++++........@@@@++++@@@@++++@@@@@@@@@@@@@@@@........++++++++++++++++++++++++++++++++####++++########++++....++++++++....++++++++++++++++++++++++++++....####################........####################++++++++....@@@@++++@@@@++++@@@@++++@@@@....################....++++++++++++++++........############........                                                                    ",
"....################............++++++++....++++############++++####++++####++++####++++++++++++....++++....@@@@@@@@@@@@@@@@++++@@@@++++++++++++....++++++++++++....            ....++++++++........++++....++++++++++++++++....++++....                                                                                                                                                                                                                                                                                                                                                    ....++++++++++++....++++........++++++++++++++++++++++++++++....    ....++++++++........@@@@++++@@@@++++@@@@@@@@@@@@@@@@........++++++++++++++++++++++++++++++++####++++########++++....++++++++....++++++++++++++++++++++++++++....####################........####################++++++++....@@@@++++@@@@++++@@@@++++@@@@....################....++++++++++++++++........############........                                                                    ",
"....################............++++++++....++++############++++####++++####++++####++++++++++++....++++....@@@@@@@@@@@@@@@@++++@@@@++++++++++++....++++++++++++....            ....++++++++........++++....++++++++++++++++....++++....                                                                                                                                                                                                                                                                                                                                                    ....++++++++++++....++++........++++++++++++++++++++++++++++....    ....++++++++........@@@@++++@@@@++++@@@@@@@@@@@@@@@@........++++++++++++++++++++++++++++++++####++++########++++....++++++++....++++++++++++++++++++++++++++....####################........####################++++++++....@@@@++++@@@@++++@@@@++++@@@@....################....++++++++++++++++........############........                                                                    ",
"....################............++++++++....++++############++++####++++####++++####++++++++++++....++++....@@@@@@@@@@@@@@@@++++@@@@++++++++++++....++++++++++++....            ....++++++++........++++....++++++++++++++++....++++....                                                                                                                                                                                                                                                                                                                                                    ....++++++++++++....++++........++++++++++++++++++++++++++++....    ....++++++++........@@@@++++@@@@++++@@@@@@@@@@@@@@@@........++++++++++++++++++++++++++++++++####++++########++++....++++++++....++++++++++++++++++++++++++++....####################........####################++++++++....@@@@++++@@@@++++@@@@++++@@@@....################....++++++++++++++++........############........                                                                    ",
"################....++++++++....++++++++....++++########++++####++++++++++++++++++++++++++++++++........@@@@@@@@++++@@@@++++@@@@++++++++++++++++....++++++++++++....            ....++++++++++++++++....++++++++++++++++....++++++++....                                                                                                                                                                                                                                                                                                                                                        ....++++++++++++....++++++++++++++++++++++++++++++++++++++++....    ....++++++++++++....@@@@@@@@@@@@@@@@@@@@@@@@....++++++++++++++++++++++++++++####++++####++++############++++....++++++++....@@@@++++@@@@++++@@@@++++@@@@++++........####################....####################++++++++........@@@@@@@@@@@@@@@@@@@@@@@@........############........++++++++++++++++....################........                                                            ",
"################....++++++++....++++++++....++++########++++####++++++++++++++++++++++++++++++++........@@@@@@@@++++@@@@++++@@@@++++++++++++++++....++++++++++++....            ....++++++++++++++++....++++++++++++++++....++++++++....                                                                                                                                                                                                                                                                                                                                                        ....++++++++++++....++++++++++++++++++++++++++++++++++++++++....    ....++++++++++++....@@@@@@@@@@@@@@@@@@@@@@@@....++++++++++++++++++++++++++++####++++####++++############++++....++++++++....@@@@++++@@@@++++@@@@++++@@@@++++........####################....####################++++++++........@@@@@@@@@@@@@@@@@@@@@@@@........############........++++++++++++++++....################........                                                            ",
"################....++++++++....++++++++....++++########++++####++++++++++++++++++++++++++++++++........@@@@@@@@++++@@@@++++@@@@++++++++++++++++....++++++++++++....            ....++++++++++++++++....++++++++++++++++....++++++++....                                                                                                                                                                                                                                                                                                                                                        ....++++++++++++....++++++++++++++++++++++++++++++++++++++++....    ....++++++++++++....@@@@@@@@@@@@@@@@@@@@@@@@....++++++++++++++++++++++++++++####++++####++++############++++....++++++++....@@@@++++@@@@++++@@@@++++@@@@++++........####################....####################++++++++........@@@@@@@@@@@@@@@@@@@@@@@@........############........++++++++++++++++....################........                                                            ",
"################....++++++++....++++++++....++++########++++####++++++++++++++++++++++++++++++++........@@@@@@@@++++@@@@++++@@@@++++++++++++++++....++++++++++++....            ....++++++++++++++++....++++++++++++++++....++++++++....                                                                                                                                                                                                                                                                                                                                                        ....++++++++++++....++++++++++++++++++++++++++++++++++++++++....    ....++++++++++++....@@@@@@@@@@@@@@@@@@@@@@@@....++++++++++++++++++++++++++++####++++####++++############++++....++++++++....@@@@++++@@@@++++@@@@++++@@@@++++........####################....####################++++++++........@@@@@@@@@@@@@@@@@@@@@@@@........############........++++++++++++++++....################........                                                            ",
"############....++++++++++++....++++++++....++++############++++####++++####++++####++++++++++++........@@@@@@@@@@@@@@@@@@@@++++@@@@++++@@@@++++....++++++++....            ........++++++++++++++++....++++++++++++++++....++++++++....                                                                                                                                                                                                                                                                                                                                                            ....++++++++++++....++++++++++++++++++++++++++++++++++++++++....    ....++++++++....++++@@@@@@@@@@@@@@@@@@@@............++++++++++++++++++++++++++++++++####++++########++++....++++++++....++++++++++++++++++++++++++++++++++++++++....####################....########################++++++++....++++@@@@++++@@@@++++@@@@@@@@....################........++++++++++++........################....                                                        ",
"############....++++++++++++....++++++++....++++############++++####++++####++++####++++++++++++........@@@@@@@@@@@@@@@@@@@@++++@@@@++++@@@@++++....++++++++....            ........++++++++++++++++....++++++++++++++++....++++++++....                                                                                                                                                                                                                                                                                                                                                            ....++++++++++++....++++++++++++++++++++++++++++++++++++++++....    ....++++++++....++++@@@@@@@@@@@@@@@@@@@@............++++++++++++++++++++++++++++++++####++++########++++....++++++++....++++++++++++++++++++++++++++++++++++++++....####################....########################++++++++....++++@@@@++++@@@@++++@@@@@@@@....################........++++++++++++........################....                                                        ",
"############....++++++++++++....++++++++....++++############++++####++++####++++####++++++++++++........@@@@@@@@@@@@@@@@@@@@++++@@@@++++@@@@++++....++++++++....            ........++++++++++++++++....++++++++++++++++....++++++++....                                                                                                                                                                                                                                                                                                                                                            ....++++++++++++....++++++++++++++++++++++++++++++++++++++++....    ....++++++++....++++@@@@@@@@@@@@@@@@@@@@............++++++++++++++++++++++++++++++++####++++########++++....++++++++....++++++++++++++++++++++++++++++++++++++++....####################....########################++++++++....++++@@@@++++@@@@++++@@@@@@@@....################........++++++++++++........################....                                                        ",
"############....++++++++++++....++++++++....++++############++++####++++####++++####++++++++++++........@@@@@@@@@@@@@@@@@@@@++++@@@@++++@@@@++++....++++++++....            ........++++++++++++++++....++++++++++++++++....++++++++....                                                                                                                                                                                                                                                                                                                                                            ....++++++++++++....++++++++++++++++++++++++++++++++++++++++....    ....++++++++....++++@@@@@@@@@@@@@@@@@@@@............++++++++++++++++++++++++++++++++####++++########++++....++++++++....++++++++++++++++++++++++++++++++++++++++....####################....########################++++++++....++++@@@@++++@@@@++++@@@@@@@@....################........++++++++++++........################....                                                        ",
"####........++++++++++++++++....++++++++....++++########++++####++++++++++++++++++++++++++++++++....@@@@@@@@@@@@@@@@@@@@++++@@@@++++++++++++++++....++++++++....        ............++++++++++++++++....++++++++++++....++++++++....                                                                                                                                                                                                                                                                                                                                                                    ....++++++++++++....++++++++++++++++++++++++++++++++++++++++........++++++++++++....@@@@@@@@@@@@@@@@@@@@....++++++++........++++++++++++####++++####++++############++++....++++++++....@@@@++++@@@@++++@@@@++++@@@@++++@@@@++++@@@@....####################........####################++++++++........@@@@@@@@@@@@@@@@@@@@@@@@........################....++++++++++++++++....################........                                                ",
"####........++++++++++++++++....++++++++....++++########++++####++++++++++++++++++++++++++++++++....@@@@@@@@@@@@@@@@@@@@++++@@@@++++++++++++++++....++++++++....        ............++++++++++++++++....++++++++++++....++++++++....                                                                                                                                                                                                                                                                                                                                                                    ....++++++++++++....++++++++++++++++++++++++++++++++++++++++........++++++++++++....@@@@@@@@@@@@@@@@@@@@....++++++++........++++++++++++####++++####++++############++++....++++++++....@@@@++++@@@@++++@@@@++++@@@@++++@@@@++++@@@@....####################........####################++++++++........@@@@@@@@@@@@@@@@@@@@@@@@........################....++++++++++++++++....################........                                                ",
"####........++++++++++++++++....++++++++....++++########++++####++++++++++++++++++++++++++++++++....@@@@@@@@@@@@@@@@@@@@++++@@@@++++++++++++++++....++++++++....        ............++++++++++++++++....++++++++++++....++++++++....                                                                                                                                                                                                                                                                                                                                                                    ....++++++++++++....++++++++++++++++++++++++++++++++++++++++........++++++++++++....@@@@@@@@@@@@@@@@@@@@....++++++++........++++++++++++####++++####++++############++++....++++++++....@@@@++++@@@@++++@@@@++++@@@@++++@@@@++++@@@@....####################........####################++++++++........@@@@@@@@@@@@@@@@@@@@@@@@........################....++++++++++++++++....################........                                                ",
"####........++++++++++++++++....++++++++....++++########++++####++++++++++++++++++++++++++++++++....@@@@@@@@@@@@@@@@@@@@++++@@@@++++++++++++++++....++++++++....        ............++++++++++++++++....++++++++++++....++++++++....                                                                                                                                                                                                                                                                                                                                                                    ....++++++++++++....++++++++++++++++++++++++++++++++++++++++........++++++++++++....@@@@@@@@@@@@@@@@@@@@....++++++++........++++++++++++####++++####++++############++++....++++++++....@@@@++++@@@@++++@@@@++++@@@@++++@@@@++++@@@@....####################........####################++++++++........@@@@@@@@@@@@@@@@@@@@@@@@........################....++++++++++++++++....################........                                                ",
"....++++++++++++++++++++++++....++++++++....++++############++++####++++####++++####++++++++++++....@@@@@@@@@@@@@@@@@@@@@@@@++++@@@@++++@@@@....++++++++....        ....++++++++++++............++++....++++++++....++++++++....                                                                                                                                                                                                                                                                                                                                                                        ....++++++++++++++++....++++++++++++++++++++++++++++++++++++++++........++++++++++++....@@@@@@@@@@@@@@@@....++++++++++++++++............++++++++++++++++############++++....++++++++....++++++++++++++++++++@@@@++++@@@@++++@@@@++++@@@@........####################....####################++++++++++++....@@@@@@@@@@@@@@@@@@@@@@@@@@@@....################........++++++++++++........################........                                        ",
"....++++++++++++++++++++++++....++++++++....++++############++++####++++####++++####++++++++++++....@@@@@@@@@@@@@@@@@@@@@@@@++++@@@@++++@@@@....++++++++....        ....++++++++++++............++++....++++++++....++++++++....                                                                                                                                                                                                                                                                                                                                                                        ....++++++++++++++++....++++++++++++++++++++++++++++++++++++++++........++++++++++++....@@@@@@@@@@@@@@@@....++++++++++++++++............++++++++++++++++############++++....++++++++....++++++++++++++++++++@@@@++++@@@@++++@@@@++++@@@@........####################....####################++++++++++++....@@@@@@@@@@@@@@@@@@@@@@@@@@@@....################........++++++++++++........################........                                        ",
"....++++++++++++++++++++++++....++++++++....++++############++++####++++####++++####++++++++++++....@@@@@@@@@@@@@@@@@@@@@@@@++++@@@@++++@@@@....++++++++....        ....++++++++++++............++++....++++++++....++++++++....                                                                                                                                                                                                                                                                                                                                                                        ....++++++++++++++++....++++++++++++++++++++++++++++++++++++++++........++++++++++++....@@@@@@@@@@@@@@@@....++++++++++++++++............++++++++++++++++############++++....++++++++....++++++++++++++++++++@@@@++++@@@@++++@@@@++++@@@@........####################....####################++++++++++++....@@@@@@@@@@@@@@@@@@@@@@@@@@@@....################........++++++++++++........################........                                        ",
"....++++++++++++++++++++++++....++++++++....++++############++++####++++####++++####++++++++++++....@@@@@@@@@@@@@@@@@@@@@@@@++++@@@@++++@@@@....++++++++....        ....++++++++++++............++++....++++++++....++++++++....                                                                                                                                                                                                                                                                                                                                                                        ....++++++++++++++++....++++++++++++++++++++++++++++++++++++++++........++++++++++++....@@@@@@@@@@@@@@@@....++++++++++++++++............++++++++++++++++############++++....++++++++....++++++++++++++++++++@@@@++++@@@@++++@@@@++++@@@@........####################....####################++++++++++++....@@@@@@@@@@@@@@@@@@@@@@@@@@@@....################........++++++++++++........################........                                        ",
"++++++++++++++++++++++++++++....++++++++....++++########++++####++++++++++++++++++++++++++++++++........@@@@@@@@@@@@@@@@++++@@@@++++@@@@........++++++++....    ....++++++++++++++++++++++++++++........++++....++++++++++++....                                                                                                                                                                                                                                                                                                                                                                            ....++++++++++++....++++++++++++++++++++++++++++++++++++++++....++++........++++++++........@@@@@@@@....++++++++++++++++++++@@@@++++............++++++++++++++++++++....++++++++....@@@@++++@@@@++++@@@@++++@@@@++++@@@@++++@@@@++++@@@@++++....####################........####################++++++++........@@@@@@@@@@@@@@@@@@@@@@@@........################....++++++++++++++++........################....                                    ",
"++++++++++++++++++++++++++++....++++++++....++++########++++####++++++++++++++++++++++++++++++++........@@@@@@@@@@@@@@@@++++@@@@++++@@@@........++++++++....    ....++++++++++++++++++++++++++++........++++....++++++++++++....                                                                                                                                                                                                                                                                                                                                                                            ....++++++++++++....++++++++++++++++++++++++++++++++++++++++....++++........++++++++........@@@@@@@@....++++++++++++++++++++@@@@++++............++++++++++++++++++++....++++++++....@@@@++++@@@@++++@@@@++++@@@@++++@@@@++++@@@@++++@@@@++++....####################........####################++++++++........@@@@@@@@@@@@@@@@@@@@@@@@........################....++++++++++++++++........################....                                    ",
"++++++++++++++++++++++++++++....++++++++....++++########++++####++++++++++++++++++++++++++++++++........@@@@@@@@@@@@@@@@++++@@@@++++@@@@........++++++++....    ....++++++++++++++++++++++++++++........++++....++++++++++++....                                                                                                                                                                                                                                                                                                                                                                            ....++++++++++++....++++++++++++++++++++++++++++++++++++++++....++++........++++++++........@@@@@@@@....++++++++++++++++++++@@@@++++............++++++++++++++++++++....++++++++....@@@@++++@@@@++++@@@@++++@@@@++++@@@@++++@@@@++++@@@@++++....####################........####################++++++++........@@@@@@@@@@@@@@@@@@@@@@@@........################....++++++++++++++++........################....                                    ",
"++++++++++++++++++++++++++++....++++++++....++++########++++####++++++++++++++++++++++++++++++++........@@@@@@@@@@@@@@@@++++@@@@++++@@@@........++++++++....    ....++++++++++++++++++++++++++++........++++....++++++++++++....                                                                                                                                                                                                                                                                                                                                                                            ....++++++++++++....++++++++++++++++++++++++++++++++++++++++....++++........++++++++........@@@@@@@@....++++++++++++++++++++@@@@++++............++++++++++++++++++++....++++++++....@@@@++++@@@@++++@@@@++++@@@@++++@@@@++++@@@@++++@@@@++++....####################........####################++++++++........@@@@@@@@@@@@@@@@@@@@@@@@........################....++++++++++++++++........################....                                    ",
"@@@@++++@@@@++++@@@@++++@@@@....++++++++....++++############++++####++++####++++++++++++++++++++++++++++....@@@@@@@@@@@@@@@@@@@@@@@@....++++++++++++....    ....++++++++++++++++++++++++++++++++++++++++....++++++++++++....                                                                                                                                                                                                                                                                                                                                                                                    ....++++++++++++....++++++++++++++++++++++++++++++++++++....++++++++++++........++++++++............++++++++++++@@@@++++++++@@@@++++@@@@@@@@........................++++++++....++++@@@@++++@@@@++++@@@@++++@@@@++++@@@@++++@@@@++++@@@@++++....########################....####################++++++++++++....@@@@@@@@@@@@@@@@@@@@@@@@@@@@....################........++++++++++++++++....################........                            ",
"@@@@++++@@@@++++@@@@++++@@@@....++++++++....++++############++++####++++####++++++++++++++++++++++++++++....@@@@@@@@@@@@@@@@@@@@@@@@....++++++++++++....    ....++++++++++++++++++++++++++++++++++++++++....++++++++++++....                                                                                                                                                                                                                                                                                                                                                                                    ....++++++++++++....++++++++++++++++++++++++++++++++++++....++++++++++++........++++++++............++++++++++++@@@@++++++++@@@@++++@@@@@@@@........................++++++++....++++@@@@++++@@@@++++@@@@++++@@@@++++@@@@++++@@@@++++@@@@++++....########################....####################++++++++++++....@@@@@@@@@@@@@@@@@@@@@@@@@@@@....################........++++++++++++++++....################........                            ",
"@@@@++++@@@@++++@@@@++++@@@@....++++++++....++++############++++####++++####++++++++++++++++++++++++++++....@@@@@@@@@@@@@@@@@@@@@@@@....++++++++++++....    ....++++++++++++++++++++++++++++++++++++++++....++++++++++++....                                                                                                                                                                                                                                                                                                                                                                                    ....++++++++++++....++++++++++++++++++++++++++++++++++++....++++++++++++........++++++++............++++++++++++@@@@++++++++@@@@++++@@@@@@@@........................++++++++....++++@@@@++++@@@@++++@@@@++++@@@@++++@@@@++++@@@@++++@@@@++++....########################....####################++++++++++++....@@@@@@@@@@@@@@@@@@@@@@@@@@@@....################........++++++++++++++++....################........                            ",
"@@@@++++@@@@++++@@@@++++@@@@....++++++++....++++############++++####++++####++++++++++++++++++++++++++++....@@@@@@@@@@@@@@@@@@@@@@@@....++++++++++++....    ....++++++++++++++++++++++++++++++++++++++++....++++++++++++....                                                                                                                                                                                                                                                                                                                                                                                    ....++++++++++++....++++++++++++++++++++++++++++++++++++....++++++++++++........++++++++............++++++++++++@@@@++++++++@@@@++++@@@@@@@@........................++++++++....++++@@@@++++@@@@++++@@@@++++@@@@++++@@@@++++@@@@++++@@@@++++....########################....####################++++++++++++....@@@@@@@@@@@@@@@@@@@@@@@@@@@@....################........++++++++++++++++....################........                            ",
"++++++++++++++++++++++++++++....++++++++....++++########++++####++++++++++++++++++++++++++++++++............@@@@@@@@@@@@@@@@@@@@++++....++++++++....    ....++++++++++++++++++++++++++++++++++++++++....++++++++++++....                                                                                                                                                                                                                                                                                                                                                                                            ....++++++++++++....++++++++++++++++++++++++++++++++....++++++++++++++++++++........++++++++........++++++++++++++++@@@@++++@@@@@@@@@@@@@@@@@@@@@@@@++++++++....++++++++....@@@@++++@@@@++++@@@@++++@@@@++++@@@@++++@@@@@@@@@@@@@@@@@@@@@@@@........####################........####################++++++++........@@@@@@@@@@@@@@@@@@@@@@@@........################........++++++++++++........################........                    ",
"++++++++++++++++++++++++++++....++++++++....++++########++++####++++++++++++++++++++++++++++++++............@@@@@@@@@@@@@@@@@@@@++++....++++++++....    ....++++++++++++++++++++++++++++++++++++++++....++++++++++++....                                                                                                                                                                                                                                                                                                                                                                                            ....++++++++++++....++++++++++++++++++++++++++++++++....++++++++++++++++++++........++++++++........++++++++++++++++@@@@++++@@@@@@@@@@@@@@@@@@@@@@@@++++++++....++++++++....@@@@++++@@@@++++@@@@++++@@@@++++@@@@++++@@@@@@@@@@@@@@@@@@@@@@@@........####################........####################++++++++........@@@@@@@@@@@@@@@@@@@@@@@@........################........++++++++++++........################........                    ",
"++++++++++++++++++++++++++++....++++++++....++++########++++####++++++++++++++++++++++++++++++++............@@@@@@@@@@@@@@@@@@@@++++....++++++++....    ....++++++++++++++++++++++++++++++++++++++++....++++++++++++....                                                                                                                                                                                                                                                                                                                                                                                            ....++++++++++++....++++++++++++++++++++++++++++++++....++++++++++++++++++++........++++++++........++++++++++++++++@@@@++++@@@@@@@@@@@@@@@@@@@@@@@@++++++++....++++++++....@@@@++++@@@@++++@@@@++++@@@@++++@@@@++++@@@@@@@@@@@@@@@@@@@@@@@@........####################........####################++++++++........@@@@@@@@@@@@@@@@@@@@@@@@........################........++++++++++++........################........                    ",
"++++++++++++++++++++++++++++....++++++++....++++########++++####++++++++++++++++++++++++++++++++............@@@@@@@@@@@@@@@@@@@@++++....++++++++....    ....++++++++++++++++++++++++++++++++++++++++....++++++++++++....                                                                                                                                                                                                                                                                                                                                                                                            ....++++++++++++....++++++++++++++++++++++++++++++++....++++++++++++++++++++........++++++++........++++++++++++++++@@@@++++@@@@@@@@@@@@@@@@@@@@@@@@++++++++....++++++++....@@@@++++@@@@++++@@@@++++@@@@++++@@@@++++@@@@@@@@@@@@@@@@@@@@@@@@........####################........####################++++++++........@@@@@@@@@@@@@@@@@@@@@@@@........################........++++++++++++........################........                    ",
"@@@@++++@@@@++++@@@@++++@@@@....++++++++....++++############++++####++++####++++++++++++........++++++++....@@@@@@@@@@@@@@@@@@@@....++++++++++++........++++++++++++++++++++++++++++++++++++++++....++++++++++++....                                                                                                                                                                                                                                                                                                                                                                                                ....++++++++++++++++....++++++++++++++++++++++++++++....++++++++++++++++++++++++............++++............@@@@++++++++@@@@++++@@@@@@@@@@@@@@@@@@@@++++++++....++++++++....++++@@@@++++@@@@++++@@@@++++@@@@++++@@@@++++@@@@++++@@@@++++@@@@++++@@@@....########################....####################++++++++++++....@@@@@@@@@@@@@@@@@@@@@@@@@@@@....####################....++++++++++++++++....####################........        ....",
"@@@@++++@@@@++++@@@@++++@@@@....++++++++....++++############++++####++++####++++++++++++........++++++++....@@@@@@@@@@@@@@@@@@@@....++++++++++++........++++++++++++++++++++++++++++++++++++++++....++++++++++++....                                                                                                                                                                                                                                                                                                                                                                                                ....++++++++++++++++....++++++++++++++++++++++++++++....++++++++++++++++++++++++............++++............@@@@++++++++@@@@++++@@@@@@@@@@@@@@@@@@@@++++++++....++++++++....++++@@@@++++@@@@++++@@@@++++@@@@++++@@@@++++@@@@++++@@@@++++@@@@++++@@@@....########################....####################++++++++++++....@@@@@@@@@@@@@@@@@@@@@@@@@@@@....####################....++++++++++++++++....####################........        ....",
"@@@@++++@@@@++++@@@@++++@@@@....++++++++....++++############++++####++++####++++++++++++........++++++++....@@@@@@@@@@@@@@@@@@@@....++++++++++++........++++++++++++++++++++++++++++++++++++++++....++++++++++++....                                                                                                                                                                                                                                                                                                                                                                                                ....++++++++++++++++....++++++++++++++++++++++++++++....++++++++++++++++++++++++............++++............@@@@++++++++@@@@++++@@@@@@@@@@@@@@@@@@@@++++++++....++++++++....++++@@@@++++@@@@++++@@@@++++@@@@++++@@@@++++@@@@++++@@@@++++@@@@++++@@@@....########################....####################++++++++++++....@@@@@@@@@@@@@@@@@@@@@@@@@@@@....####################....++++++++++++++++....####################........        ....",
"@@@@++++@@@@++++@@@@++++@@@@....++++++++....++++############++++####++++####++++++++++++........++++++++....@@@@@@@@@@@@@@@@@@@@....++++++++++++........++++++++++++++++++++++++++++++++++++++++....++++++++++++....                                                                                                                                                                                                                                                                                                                                                                                                ....++++++++++++++++....++++++++++++++++++++++++++++....++++++++++++++++++++++++............++++............@@@@++++++++@@@@++++@@@@@@@@@@@@@@@@@@@@++++++++....++++++++....++++@@@@++++@@@@++++@@@@++++@@@@++++@@@@++++@@@@++++@@@@++++@@@@++++@@@@....########################....####################++++++++++++....@@@@@@@@@@@@@@@@@@@@@@@@@@@@....####################....++++++++++++++++....####################........        ....",
"++++@@@@++++++++++++++++++++....++++++++....++++############++++++++++++++++............++++++++++++++++....@@@@@@@@@@@@@@@@....++++++++++++........++++++++++++++++++++++++++++++++++++++++....++++++++++++++++....                                                                                                                                                                                                                                                                                                                                                                                                    ....++++++++++++++++....++++++++++++++++++++++++....++++++++++++++++++++++++....@@@@++++........++++............@@@@++++@@@@@@@@@@@@@@@@@@@@@@@@++++++++....++++++++....@@@@++++....@@@@@@@@@@@@@@@@@@@@@@@@@@@@@@@@@@@@@@@@@@@@@@@@@@@@@@@@@@@@@@@@....########################....########################++++++++........@@@@@@@@@@@@@@@@@@@@@@@@........################........++++++++++++........####################........@@@@",
"++++@@@@++++++++++++++++++++....++++++++....++++############++++++++++++++++............++++++++++++++++....@@@@@@@@@@@@@@@@....++++++++++++........++++++++++++++++++++++++++++++++++++++++....++++++++++++++++....                                                                                                                                                                                                                                                                                                                                                                                                    ....++++++++++++++++....++++++++++++++++++++++++....++++++++++++++++++++++++....@@@@++++........++++............@@@@++++@@@@@@@@@@@@@@@@@@@@@@@@++++++++....++++++++....@@@@++++....@@@@@@@@@@@@@@@@@@@@@@@@@@@@@@@@@@@@@@@@@@@@@@@@@@@@@@@@@@@@@@@@....########################....########################++++++++........@@@@@@@@@@@@@@@@@@@@@@@@........################........++++++++++++........####################........@@@@",
"++++@@@@++++++++++++++++++++....++++++++....++++############++++++++++++++++............++++++++++++++++....@@@@@@@@@@@@@@@@....++++++++++++........++++++++++++++++++++++++++++++++++++++++....++++++++++++++++....                                                                                                                                                                                                                                                                                                                                                                                                    ....++++++++++++++++....++++++++++++++++++++++++....++++++++++++++++++++++++....@@@@++++........++++............@@@@++++@@@@@@@@@@@@@@@@@@@@@@@@++++++++....++++++++....@@@@++++....@@@@@@@@@@@@@@@@@@@@@@@@@@@@@@@@@@@@@@@@@@@@@@@@@@@@@@@@@@@@@@@@....########################....########################++++++++........@@@@@@@@@@@@@@@@@@@@@@@@........################........++++++++++++........####################........@@@@",
"++++@@@@++++++++++++++++++++....++++++++....++++############++++++++++++++++............++++++++++++++++....@@@@@@@@@@@@@@@@....++++++++++++........++++++++++++++++++++++++++++++++++++++++....++++++++++++++++....                                                                                                                                                                                                                                                                                                                                                                                                    ....++++++++++++++++....++++++++++++++++++++++++....++++++++++++++++++++++++....@@@@++++........++++............@@@@++++@@@@@@@@@@@@@@@@@@@@@@@@++++++++....++++++++....@@@@++++....@@@@@@@@@@@@@@@@@@@@@@@@@@@@@@@@@@@@@@@@@@@@@@@@@@@@@@@@@@@@@@@@....########################....########################++++++++........@@@@@@@@@@@@@@@@@@@@@@@@........################........++++++++++++........####################........@@@@",
"@@@@++++@@@@++++@@@@++++@@@@....++++++++....++++++++++++++++++++............++++@@@@++++++++++++++++++++....@@@@@@@@........++++++++........++++....++++++++++++++++++++++++++++++++++++++++....++++++++++++....                                                                                                                                                                                                                                                                                                                                                                                                            ....++++++++++++++++....++++++++++++++++++++....++++++++++++++++++++++++....++++@@@@++++@@@@............................@@@@@@@@@@@@@@@@@@@@++++++++....++++++++....++++@@@@............@@@@++++@@@@++++@@@@++++@@@@++++@@@@++++@@@@++++@@@@@@@@@@@@........####################........####################++++++++++++....@@@@@@@@@@@@@@@@@@@@@@@@@@@@....####################....++++++++++++++++........################....@@@@",
"@@@@++++@@@@++++@@@@++++@@@@....++++++++....++++++++++++++++++++............++++@@@@++++++++++++++++++++....@@@@@@@@........++++++++........++++....++++++++++++++++++++++++++++++++++++++++....++++++++++++....                                                                                                                                                                                                                                                                                                                                                                                                            ....++++++++++++++++....++++++++++++++++++++....++++++++++++++++++++++++....++++@@@@++++@@@@............................@@@@@@@@@@@@@@@@@@@@++++++++....++++++++....++++@@@@............@@@@++++@@@@++++@@@@++++@@@@++++@@@@++++@@@@++++@@@@@@@@@@@@........####################........####################++++++++++++....@@@@@@@@@@@@@@@@@@@@@@@@@@@@....####################....++++++++++++++++........################....@@@@",
"@@@@++++@@@@++++@@@@++++@@@@....++++++++....++++++++++++++++++++............++++@@@@++++++++++++++++++++....@@@@@@@@........++++++++........++++....++++++++++++++++++++++++++++++++++++++++....++++++++++++....                                                                                                                                                                                                                                                                                                                                                                                                            ....++++++++++++++++....++++++++++++++++++++....++++++++++++++++++++++++....++++@@@@++++@@@@............................@@@@@@@@@@@@@@@@@@@@++++++++....++++++++....++++@@@@............@@@@++++@@@@++++@@@@++++@@@@++++@@@@++++@@@@++++@@@@@@@@@@@@........####################........####################++++++++++++....@@@@@@@@@@@@@@@@@@@@@@@@@@@@....####################....++++++++++++++++........################....@@@@",
"@@@@++++@@@@++++@@@@++++@@@@....++++++++....++++++++++++++++++++............++++@@@@++++++++++++++++++++....@@@@@@@@........++++++++........++++....++++++++++++++++++++++++++++++++++++++++....++++++++++++....                                                                                                                                                                                                                                                                                                                                                                                                            ....++++++++++++++++....++++++++++++++++++++....++++++++++++++++++++++++....++++@@@@++++@@@@............................@@@@@@@@@@@@@@@@@@@@++++++++....++++++++....++++@@@@............@@@@++++@@@@++++@@@@++++@@@@++++@@@@++++@@@@++++@@@@@@@@@@@@........####################........####################++++++++++++....@@@@@@@@@@@@@@@@@@@@@@@@@@@@....####################....++++++++++++++++........################....@@@@",
"++++@@@@++++@@@@++++@@@@++++....++++++++........................@@@@@@@@++++@@@@++++++++@@@@++++++++++++............++++++++........++++++++++++....++++++++++++++++++++++++++++++++++++....++++++++++++....                                                                                                                                                                                                                                                                                                                                                                                                                    ....++++++++++++++++....++++++++++++++++....++++++++++++++++++++....@@@@@@@@++++@@@@++++@@@@++++@@@@++++@@@@........................................++++++++....@@@@++++....++++++++....@@@@@@@@@@@@@@@@@@@@@@@@@@@@@@@@@@@@@@@@@@@@@@@@@@@@@@@@@@@@@@@@....########################....########################++++++++....@@@@@@@@@@@@@@@@@@@@@@@@@@@@........################........++++++++++++++++....########....@@@@@@@@",
"++++@@@@++++@@@@++++@@@@++++....++++++++........................@@@@@@@@++++@@@@++++++++@@@@++++++++++++............++++++++........++++++++++++....++++++++++++++++++++++++++++++++++++....++++++++++++....                                                                                                                                                                                                                                                                                                                                                                                                                    ....++++++++++++++++....++++++++++++++++....++++++++++++++++++++....@@@@@@@@++++@@@@++++@@@@++++@@@@++++@@@@........................................++++++++....@@@@++++....++++++++....@@@@@@@@@@@@@@@@@@@@@@@@@@@@@@@@@@@@@@@@@@@@@@@@@@@@@@@@@@@@@@@@....########################....########################++++++++....@@@@@@@@@@@@@@@@@@@@@@@@@@@@........################........++++++++++++++++....########....@@@@@@@@",
"++++@@@@++++@@@@++++@@@@++++....++++++++........................@@@@@@@@++++@@@@++++++++@@@@++++++++++++............++++++++........++++++++++++....++++++++++++++++++++++++++++++++++++....++++++++++++....                                                                                                                                                                                                                                                                                                                                                                                                                    ....++++++++++++++++....++++++++++++++++....++++++++++++++++++++....@@@@@@@@++++@@@@++++@@@@++++@@@@++++@@@@........................................++++++++....@@@@++++....++++++++....@@@@@@@@@@@@@@@@@@@@@@@@@@@@@@@@@@@@@@@@@@@@@@@@@@@@@@@@@@@@@@@@....########################....########################++++++++....@@@@@@@@@@@@@@@@@@@@@@@@@@@@........################........++++++++++++++++....########....@@@@@@@@",
"++++@@@@++++@@@@++++@@@@++++....++++++++........................@@@@@@@@++++@@@@++++++++@@@@++++++++++++............++++++++........++++++++++++....++++++++++++++++++++++++++++++++++++....++++++++++++....                                                                                                                                                                                                                                                                                                                                                                                                                    ....++++++++++++++++....++++++++++++++++....++++++++++++++++++++....@@@@@@@@++++@@@@++++@@@@++++@@@@++++@@@@........................................++++++++....@@@@++++....++++++++....@@@@@@@@@@@@@@@@@@@@@@@@@@@@@@@@@@@@@@@@@@@@@@@@@@@@@@@@@@@@@@@@....########################....########################++++++++....@@@@@@@@@@@@@@@@@@@@@@@@@@@@........################........++++++++++++++++....########....@@@@@@@@",
"@@@@++++@@@@++++@@@@++++@@@@....++++++++....++++++++@@@@@@@@@@@@@@@@@@@@@@@@++++@@@@++++++++++++++++........++++++++........++++++++++++++++++++....++++++++++++++++++++++++++++++++....++++++++++++....                                                                                                                                                                                                                                                                                                                                                                                                                        ....++++++++++++++++++++....++++++++++++....++++++++++++++++++++....@@@@@@@@@@@@@@@@@@@@++++@@@@++++@@@@++++@@@@++++....                        ....++++++++....++++@@@@....++++++++++++....@@@@++++@@@@++++@@@@++++@@@@@@@@@@@@@@@@@@@@@@@@@@@@@@@@@@@@@@@@........####################........####################++++++++........@@@@@@@@@@@@@@@@@@@@@@@@@@@@....####################........++++++++++++........@@@@++++@@@@",
"@@@@++++@@@@++++@@@@++++@@@@....++++++++....++++++++@@@@@@@@@@@@@@@@@@@@@@@@++++@@@@++++++++++++++++........++++++++........++++++++++++++++++++....++++++++++++++++++++++++++++++++....++++++++++++....                                                                                                                                                                                                                                                                                                                                                                                                                        ....++++++++++++++++++++....++++++++++++....++++++++++++++++++++....@@@@@@@@@@@@@@@@@@@@++++@@@@++++@@@@++++@@@@++++....                        ....++++++++....++++@@@@....++++++++++++....@@@@++++@@@@++++@@@@++++@@@@@@@@@@@@@@@@@@@@@@@@@@@@@@@@@@@@@@@@........####################........####################++++++++........@@@@@@@@@@@@@@@@@@@@@@@@@@@@....####################........++++++++++++........@@@@++++@@@@",
"@@@@++++@@@@++++@@@@++++@@@@....++++++++....++++++++@@@@@@@@@@@@@@@@@@@@@@@@++++@@@@++++++++++++++++........++++++++........++++++++++++++++++++....++++++++++++++++++++++++++++++++....++++++++++++....                                                                                                                                                                                                                                                                                                                                                                                                                        ....++++++++++++++++++++....++++++++++++....++++++++++++++++++++....@@@@@@@@@@@@@@@@@@@@++++@@@@++++@@@@++++@@@@++++....                        ....++++++++....++++@@@@....++++++++++++....@@@@++++@@@@++++@@@@++++@@@@@@@@@@@@@@@@@@@@@@@@@@@@@@@@@@@@@@@@........####################........####################++++++++........@@@@@@@@@@@@@@@@@@@@@@@@@@@@....####################........++++++++++++........@@@@++++@@@@",
"@@@@++++@@@@++++@@@@++++@@@@....++++++++....++++++++@@@@@@@@@@@@@@@@@@@@@@@@++++@@@@++++++++++++++++........++++++++........++++++++++++++++++++....++++++++++++++++++++++++++++++++....++++++++++++....                                                                                                                                                                                                                                                                                                                                                                                                                        ....++++++++++++++++++++....++++++++++++....++++++++++++++++++++....@@@@@@@@@@@@@@@@@@@@++++@@@@++++@@@@++++@@@@++++....                        ....++++++++....++++@@@@....++++++++++++....@@@@++++@@@@++++@@@@++++@@@@@@@@@@@@@@@@@@@@@@@@@@@@@@@@@@@@@@@@........####################........####################++++++++........@@@@@@@@@@@@@@@@@@@@@@@@@@@@....####################........++++++++++++........@@@@++++@@@@",
"++++@@@@++++@@@@++++@@@@++++....++++++++....++++++++@@@@@@@@@@@@@@@@@@@@++++@@@@++++++++@@@@............++++............++++++++++++++++++++++++....++++++++++++++++++++++++++++....++++++++++++++++....                                                                                                                                                                                                                                                                                                                                                                                                                            ....++++++++++++++++....++++++++++++....++++++++++++++++++++....@@@@@@@@@@@@@@@@@@@@@@@@@@@@@@@@@@@@@@@@++++@@@@....                        ....++++++++....@@@@++++....++++++++++++++++........@@@@@@@@@@@@@@@@@@@@@@@@@@@@@@@@@@@@@@@@@@@@@@@@@@@@@@@@@@@@@@@@....########################....########################++++++++....@@@@@@@@@@@@@@@@@@@@@@@@@@@@........####################....++++++++....@@@@@@@@@@@@@@@@",
"++++@@@@++++@@@@++++@@@@++++....++++++++....++++++++@@@@@@@@@@@@@@@@@@@@++++@@@@++++++++@@@@............++++............++++++++++++++++++++++++....++++++++++++++++++++++++++++....++++++++++++++++....                                                                                                                                                                                                                                                                                                                                                                                                                            ....++++++++++++++++....++++++++++++....++++++++++++++++++++....@@@@@@@@@@@@@@@@@@@@@@@@@@@@@@@@@@@@@@@@++++@@@@....                        ....++++++++....@@@@++++....++++++++++++++++........@@@@@@@@@@@@@@@@@@@@@@@@@@@@@@@@@@@@@@@@@@@@@@@@@@@@@@@@@@@@@@@@....########################....########################++++++++....@@@@@@@@@@@@@@@@@@@@@@@@@@@@........####################....++++++++....@@@@@@@@@@@@@@@@",
"++++@@@@++++@@@@++++@@@@++++....++++++++....++++++++@@@@@@@@@@@@@@@@@@@@++++@@@@++++++++@@@@............++++............++++++++++++++++++++++++....++++++++++++++++++++++++++++....++++++++++++++++....                                                                                                                                                                                                                                                                                                                                                                                                                            ....++++++++++++++++....++++++++++++....++++++++++++++++++++....@@@@@@@@@@@@@@@@@@@@@@@@@@@@@@@@@@@@@@@@++++@@@@....                        ....++++++++....@@@@++++....++++++++++++++++........@@@@@@@@@@@@@@@@@@@@@@@@@@@@@@@@@@@@@@@@@@@@@@@@@@@@@@@@@@@@@@@@....########################....########################++++++++....@@@@@@@@@@@@@@@@@@@@@@@@@@@@........####################....++++++++....@@@@@@@@@@@@@@@@",
"++++@@@@++++@@@@++++@@@@++++....++++++++....++++++++@@@@@@@@@@@@@@@@@@@@++++@@@@++++++++@@@@............++++............++++++++++++++++++++++++....++++++++++++++++++++++++++++....++++++++++++++++....                                                                                                                                                                                                                                                                                                                                                                                                                            ....++++++++++++++++....++++++++++++....++++++++++++++++++++....@@@@@@@@@@@@@@@@@@@@@@@@@@@@@@@@@@@@@@@@++++@@@@....                        ....++++++++....@@@@++++....++++++++++++++++........@@@@@@@@@@@@@@@@@@@@@@@@@@@@@@@@@@@@@@@@@@@@@@@@@@@@@@@@@@@@@@@@....########################....########################++++++++....@@@@@@@@@@@@@@@@@@@@@@@@@@@@........####################....++++++++....@@@@@@@@@@@@@@@@",
"@@@@@@@@@@@@@@@@....++++@@@@....++++++++....++++++++@@@@@@@@@@@@@@@@@@@@@@@@++++@@@@............++++........++++@@@@....++++++++++++++++++++++++....++++++++++++++++++++++++....++++++++++++++++....                                                                                                                                                                                                                                                                                                                                                                                                                                    ....++++++++++++++++....++++++++....++++++++++++++++++++....@@@@@@@@@@@@@@@@@@@@@@@@@@@@@@@@@@@@@@@@@@@@....                            ....++++++++....++++++++++++....++++++++++++++++++++....++++@@@@++++@@@@++++@@@@++++@@@@@@@@@@@@@@@@@@@@@@@@@@@@@@@@@@@@....########################........####################++++++++........@@@@@@@@@@@@@@@@@@@@@@@@@@@@....################....++++....@@@@++++@@@@++++@@@@",
"@@@@@@@@@@@@@@@@....++++@@@@....++++++++....++++++++@@@@@@@@@@@@@@@@@@@@@@@@++++@@@@............++++........++++@@@@....++++++++++++++++++++++++....++++++++++++++++++++++++....++++++++++++++++....                                                                                                                                                                                                                                                                                                                                                                                                                                    ....++++++++++++++++....++++++++....++++++++++++++++++++....@@@@@@@@@@@@@@@@@@@@@@@@@@@@@@@@@@@@@@@@@@@@....                            ....++++++++....++++++++++++....++++++++++++++++++++....++++@@@@++++@@@@++++@@@@++++@@@@@@@@@@@@@@@@@@@@@@@@@@@@@@@@@@@@....########################........####################++++++++........@@@@@@@@@@@@@@@@@@@@@@@@@@@@....################....++++....@@@@++++@@@@++++@@@@",
"@@@@@@@@@@@@@@@@....++++@@@@....++++++++....++++++++@@@@@@@@@@@@@@@@@@@@@@@@++++@@@@............++++........++++@@@@....++++++++++++++++++++++++....++++++++++++++++++++++++....++++++++++++++++....                                                                                                                                                                                                                                                                                                                                                                                                                                    ....++++++++++++++++....++++++++....++++++++++++++++++++....@@@@@@@@@@@@@@@@@@@@@@@@@@@@@@@@@@@@@@@@@@@@....                            ....++++++++....++++++++++++....++++++++++++++++++++....++++@@@@++++@@@@++++@@@@++++@@@@@@@@@@@@@@@@@@@@@@@@@@@@@@@@@@@@....########################........####################++++++++........@@@@@@@@@@@@@@@@@@@@@@@@@@@@....################....++++....@@@@++++@@@@++++@@@@",
"@@@@@@@@@@@@@@@@....++++@@@@....++++++++....++++++++@@@@@@@@@@@@@@@@@@@@@@@@++++@@@@............++++........++++@@@@....++++++++++++++++++++++++....++++++++++++++++++++++++....++++++++++++++++....                                                                                                                                                                                                                                                                                                                                                                                                                                    ....++++++++++++++++....++++++++....++++++++++++++++++++....@@@@@@@@@@@@@@@@@@@@@@@@@@@@@@@@@@@@@@@@@@@@....                            ....++++++++....++++++++++++....++++++++++++++++++++....++++@@@@++++@@@@++++@@@@++++@@@@@@@@@@@@@@@@@@@@@@@@@@@@@@@@@@@@....########################........####################++++++++........@@@@@@@@@@@@@@@@@@@@@@@@@@@@....################....++++....@@@@++++@@@@++++@@@@",
"++++@@@@............@@@@++++....++++++++....++++++++@@@@@@@@@@@@@@@@@@@@............................@@@@++++@@@@++++....++++++++++++++++++++++++....++++++++++++++++++++....++++++++++++++++....                                                                                                                                                                                                                                                                                                                                                                                                                                        ....++++++++++++++++++++....++++....++++++++++++++++++++....@@@@@@@@@@@@@@@@@@@@@@@@@@@@@@@@@@@@@@@@@@@@....                                ....++++....@@@@++++@@@@++++........++++++++++++++++....@@@@@@@@@@@@@@@@@@@@@@@@@@@@@@@@@@@@@@@@@@@@@@@@@@@@@@@@@@@@@@@@........########################....########################++++++++....@@@@@@@@@@@@@@@@@@@@@@@@....################........@@@@@@@@@@@@@@@@@@@@@@@@",
"++++@@@@............@@@@++++....++++++++....++++++++@@@@@@@@@@@@@@@@@@@@............................@@@@++++@@@@++++....++++++++++++++++++++++++....++++++++++++++++++++....++++++++++++++++....                                                                                                                                                                                                                                                                                                                                                                                                                                        ....++++++++++++++++++++....++++....++++++++++++++++++++....@@@@@@@@@@@@@@@@@@@@@@@@@@@@@@@@@@@@@@@@@@@@....                                ....++++....@@@@++++@@@@++++........++++++++++++++++....@@@@@@@@@@@@@@@@@@@@@@@@@@@@@@@@@@@@@@@@@@@@@@@@@@@@@@@@@@@@@@@@........########################....########################++++++++....@@@@@@@@@@@@@@@@@@@@@@@@....################........@@@@@@@@@@@@@@@@@@@@@@@@",
"++++@@@@............@@@@++++....++++++++....++++++++@@@@@@@@@@@@@@@@@@@@............................@@@@++++@@@@++++....++++++++++++++++++++++++....++++++++++++++++++++....++++++++++++++++....                                                                                                                                                                                                                                                                                                                                                                                                                                        ....++++++++++++++++++++....++++....++++++++++++++++++++....@@@@@@@@@@@@@@@@@@@@@@@@@@@@@@@@@@@@@@@@@@@@....                                ....++++....@@@@++++@@@@++++........++++++++++++++++....@@@@@@@@@@@@@@@@@@@@@@@@@@@@@@@@@@@@@@@@@@@@@@@@@@@@@@@@@@@@@@@@........########################....########################++++++++....@@@@@@@@@@@@@@@@@@@@@@@@....################........@@@@@@@@@@@@@@@@@@@@@@@@",
"++++@@@@............@@@@++++....++++++++....++++++++@@@@@@@@@@@@@@@@@@@@............................@@@@++++@@@@++++....++++++++++++++++++++++++....++++++++++++++++++++....++++++++++++++++....                                                                                                                                                                                                                                                                                                                                                                                                                                        ....++++++++++++++++++++....++++....++++++++++++++++++++....@@@@@@@@@@@@@@@@@@@@@@@@@@@@@@@@@@@@@@@@@@@@....                                ....++++....@@@@++++@@@@++++........++++++++++++++++....@@@@@@@@@@@@@@@@@@@@@@@@@@@@@@@@@@@@@@@@@@@@@@@@@@@@@@@@@@@@@@@@........########################....########################++++++++....@@@@@@@@@@@@@@@@@@@@@@@@....################........@@@@@@@@@@@@@@@@@@@@@@@@",
"@@@@....++++++++....++++@@@@....++++++++........................................@@@@++++@@@@++++@@@@++++@@@@++++@@@@@@@@....++++++++++++++++++++....++++++++++++++++....++++++++++++++++....                                                                                                                                                                                                                                                                                                                                                                                                                                                ....++++++++++++++++++++........++++++++++++++++++++....@@@@@@@@@@@@@@@@@@@@@@@@@@@@@@@@@@@@@@@@@@@@....                                    ........++++++++++++++++++++@@@@....++++++++++++++++........@@@@++++@@@@++++@@@@++++@@@@@@@@@@@@@@@@@@@@@@@@@@@@@@@@@@@@@@@@....########################....########################++++++++........@@@@@@@@@@@@@@@@....################....@@@@++++@@@@++++@@@@++++@@@@",
"@@@@....++++++++....++++@@@@....++++++++........................................@@@@++++@@@@++++@@@@++++@@@@++++@@@@@@@@....++++++++++++++++++++....++++++++++++++++....++++++++++++++++....                                                                                                                                                                                                                                                                                                                                                                                                                                                ....++++++++++++++++++++........++++++++++++++++++++....@@@@@@@@@@@@@@@@@@@@@@@@@@@@@@@@@@@@@@@@@@@@....                                    ........++++++++++++++++++++@@@@....++++++++++++++++........@@@@++++@@@@++++@@@@++++@@@@@@@@@@@@@@@@@@@@@@@@@@@@@@@@@@@@@@@@....########################....########################++++++++........@@@@@@@@@@@@@@@@....################....@@@@++++@@@@++++@@@@++++@@@@",
"@@@@....++++++++....++++@@@@....++++++++........................................@@@@++++@@@@++++@@@@++++@@@@++++@@@@@@@@....++++++++++++++++++++....++++++++++++++++....++++++++++++++++....                                                                                                                                                                                                                                                                                                                                                                                                                                                ....++++++++++++++++++++........++++++++++++++++++++....@@@@@@@@@@@@@@@@@@@@@@@@@@@@@@@@@@@@@@@@@@@@....                                    ........++++++++++++++++++++@@@@....++++++++++++++++........@@@@++++@@@@++++@@@@++++@@@@@@@@@@@@@@@@@@@@@@@@@@@@@@@@@@@@@@@@....########################....########################++++++++........@@@@@@@@@@@@@@@@....################....@@@@++++@@@@++++@@@@++++@@@@",
"@@@@....++++++++....++++@@@@....++++++++........................................@@@@++++@@@@++++@@@@++++@@@@++++@@@@@@@@....++++++++++++++++++++....++++++++++++++++....++++++++++++++++....                                                                                                                                                                                                                                                                                                                                                                                                                                                ....++++++++++++++++++++........++++++++++++++++++++....@@@@@@@@@@@@@@@@@@@@@@@@@@@@@@@@@@@@@@@@@@@@....                                    ........++++++++++++++++++++@@@@....++++++++++++++++........@@@@++++@@@@++++@@@@++++@@@@@@@@@@@@@@@@@@@@@@@@@@@@@@@@@@@@@@@@....########################....########################++++++++........@@@@@@@@@@@@@@@@....################....@@@@++++@@@@++++@@@@++++@@@@",
"....++++++++++++....@@@@++++....++++++++....                        ....++++@@@@++++@@@@++++@@@@++++@@@@@@@@@@@@@@@@@@@@....++++++++++++++++++++....++++++++++++....++++++++++++++++++++....                                                                                                                                                                                                                                                                                                                                                                                                                                                ....++++++++++++++++++++++++....++++++++++++++++++++....@@@@@@@@@@@@@@@@@@@@@@@@@@@@@@@@@@@@@@@@@@@@....                                        ....@@@@++++@@@@++++@@@@++++@@@@....++++++++++++++++++++....@@@@@@@@@@@@@@@@@@@@@@@@@@@@@@@@@@@@@@@@@@@@@@@@@@@@@@@@@@@@@@@@....########################........########################++++++++........@@@@@@@@....############....@@@@@@@@@@@@@@@@@@@@@@@@@@@@@@@@",
"....++++++++++++....@@@@++++....++++++++....                        ....++++@@@@++++@@@@++++@@@@++++@@@@@@@@@@@@@@@@@@@@....++++++++++++++++++++....++++++++++++....++++++++++++++++++++....                                                                                                                                                                                                                                                                                                                                                                                                                                                ....++++++++++++++++++++++++....++++++++++++++++++++....@@@@@@@@@@@@@@@@@@@@@@@@@@@@@@@@@@@@@@@@@@@@....                                        ....@@@@++++@@@@++++@@@@++++@@@@....++++++++++++++++++++....@@@@@@@@@@@@@@@@@@@@@@@@@@@@@@@@@@@@@@@@@@@@@@@@@@@@@@@@@@@@@@@@....########################........########################++++++++........@@@@@@@@....############....@@@@@@@@@@@@@@@@@@@@@@@@@@@@@@@@",
"....++++++++++++....@@@@++++....++++++++....                        ....++++@@@@++++@@@@++++@@@@++++@@@@@@@@@@@@@@@@@@@@....++++++++++++++++++++....++++++++++++....++++++++++++++++++++....                                                                                                                                                                                                                                                                                                                                                                                                                                                ....++++++++++++++++++++++++....++++++++++++++++++++....@@@@@@@@@@@@@@@@@@@@@@@@@@@@@@@@@@@@@@@@@@@@....                                        ....@@@@++++@@@@++++@@@@++++@@@@....++++++++++++++++++++....@@@@@@@@@@@@@@@@@@@@@@@@@@@@@@@@@@@@@@@@@@@@@@@@@@@@@@@@@@@@@@@@....########################........########################++++++++........@@@@@@@@....############....@@@@@@@@@@@@@@@@@@@@@@@@@@@@@@@@",
"....++++++++++++....@@@@++++....++++++++....                        ....++++@@@@++++@@@@++++@@@@++++@@@@@@@@@@@@@@@@@@@@....++++++++++++++++++++....++++++++++++....++++++++++++++++++++....                                                                                                                                                                                                                                                                                                                                                                                                                                                ....++++++++++++++++++++++++....++++++++++++++++++++....@@@@@@@@@@@@@@@@@@@@@@@@@@@@@@@@@@@@@@@@@@@@....                                        ....@@@@++++@@@@++++@@@@++++@@@@....++++++++++++++++++++....@@@@@@@@@@@@@@@@@@@@@@@@@@@@@@@@@@@@@@@@@@@@@@@@@@@@@@@@@@@@@@@@....########################........########################++++++++........@@@@@@@@....############....@@@@@@@@@@@@@@@@@@@@@@@@@@@@@@@@",
"++++++++++++++++....++++@@@@....++++++++....                        ....@@@@++++@@@@@@@@@@@@@@@@@@@@@@@@@@@@@@@@@@@@@@@@....++++++++++++++++++++....++++++++++++....++++++++++++++++....                                                                                                                                                                                                                                                                                                                                                                                                                                                    ....++++++++++++++++++++++++....++++++++++++++++++++....@@@@@@@@@@@@@@@@@@@@@@@@@@@@@@@@@@@@@@@@@@@@....                                            ....++++++++++++++++++++++++++++....++++++++++++++++++++....@@@@++++@@@@++++@@@@++++@@@@++++@@@@@@@@@@@@@@@@@@@@@@@@@@@@@@@@........########################....########################++++++++........@@@@....########....@@@@++++@@@@++++@@@@++++@@@@++++@@@@",
"++++++++++++++++....++++@@@@....++++++++....                        ....@@@@++++@@@@@@@@@@@@@@@@@@@@@@@@@@@@@@@@@@@@@@@@....++++++++++++++++++++....++++++++++++....++++++++++++++++....                                                                                                                                                                                                                                                                                                                                                                                                                                                    ....++++++++++++++++++++++++....++++++++++++++++++++....@@@@@@@@@@@@@@@@@@@@@@@@@@@@@@@@@@@@@@@@@@@@....                                            ....++++++++++++++++++++++++++++....++++++++++++++++++++....@@@@++++@@@@++++@@@@++++@@@@++++@@@@@@@@@@@@@@@@@@@@@@@@@@@@@@@@........########################....########################++++++++........@@@@....########....@@@@++++@@@@++++@@@@++++@@@@++++@@@@",
"++++++++++++++++....++++@@@@....++++++++....                        ....@@@@++++@@@@@@@@@@@@@@@@@@@@@@@@@@@@@@@@@@@@@@@@....++++++++++++++++++++....++++++++++++....++++++++++++++++....                                                                                                                                                                                                                                                                                                                                                                                                                                                    ....++++++++++++++++++++++++....++++++++++++++++++++....@@@@@@@@@@@@@@@@@@@@@@@@@@@@@@@@@@@@@@@@@@@@....                                            ....++++++++++++++++++++++++++++....++++++++++++++++++++....@@@@++++@@@@++++@@@@++++@@@@++++@@@@@@@@@@@@@@@@@@@@@@@@@@@@@@@@........########################....########################++++++++........@@@@....########....@@@@++++@@@@++++@@@@++++@@@@++++@@@@",
"++++++++++++++++....++++@@@@....++++++++....                        ....@@@@++++@@@@@@@@@@@@@@@@@@@@@@@@@@@@@@@@@@@@@@@@....++++++++++++++++++++....++++++++++++....++++++++++++++++....                                                                                                                                                                                                                                                                                                                                                                                                                                                    ....++++++++++++++++++++++++....++++++++++++++++++++....@@@@@@@@@@@@@@@@@@@@@@@@@@@@@@@@@@@@@@@@@@@@....                                            ....++++++++++++++++++++++++++++....++++++++++++++++++++....@@@@++++@@@@++++@@@@++++@@@@++++@@@@@@@@@@@@@@@@@@@@@@@@@@@@@@@@........########################....########################++++++++........@@@@....########....@@@@++++@@@@++++@@@@++++@@@@++++@@@@",
"++++++++++++....++++++++++++....++++++++....                            ....@@@@@@@@@@@@@@@@@@@@@@@@@@@@@@@@@@@@@@@@@@@@....++++++++++++++++++++....++++++++....++++++++++++++++....                                                                                                                                                                                                                                                                                                                                                                                                                                                            ....++++++++++++++++++++....++++++++++++++++....@@@@@@@@@@@@@@@@@@@@@@@@@@@@@@@@@@@@@@@@@@@@@@@@....                                                ....@@@@++++@@@@++++@@@@++++@@@@....++++++++++++++++++++........@@@@@@@@@@@@@@@@@@@@@@@@@@@@@@@@@@@@@@@@@@@@@@@@@@@@@@@@@@@@@@@@....########################........########################++++++++................@@@@@@@@@@@@@@@@@@@@@@@@@@@@@@@@@@@@@@@@",
"++++++++++++....++++++++++++....++++++++....                            ....@@@@@@@@@@@@@@@@@@@@@@@@@@@@@@@@@@@@@@@@@@@@....++++++++++++++++++++....++++++++....++++++++++++++++....                                                                                                                                                                                                                                                                                                                                                                                                                                                            ....++++++++++++++++++++....++++++++++++++++....@@@@@@@@@@@@@@@@@@@@@@@@@@@@@@@@@@@@@@@@@@@@@@@@....                                                ....@@@@++++@@@@++++@@@@++++@@@@....++++++++++++++++++++........@@@@@@@@@@@@@@@@@@@@@@@@@@@@@@@@@@@@@@@@@@@@@@@@@@@@@@@@@@@@@@@@....########################........########################++++++++................@@@@@@@@@@@@@@@@@@@@@@@@@@@@@@@@@@@@@@@@",
"++++++++++++....++++++++++++....++++++++....                            ....@@@@@@@@@@@@@@@@@@@@@@@@@@@@@@@@@@@@@@@@@@@@....++++++++++++++++++++....++++++++....++++++++++++++++....                                                                                                                                                                                                                                                                                                                                                                                                                                                            ....++++++++++++++++++++....++++++++++++++++....@@@@@@@@@@@@@@@@@@@@@@@@@@@@@@@@@@@@@@@@@@@@@@@@....                                                ....@@@@++++@@@@++++@@@@++++@@@@....++++++++++++++++++++........@@@@@@@@@@@@@@@@@@@@@@@@@@@@@@@@@@@@@@@@@@@@@@@@@@@@@@@@@@@@@@@@....########################........########################++++++++................@@@@@@@@@@@@@@@@@@@@@@@@@@@@@@@@@@@@@@@@",
"++++++++++++....++++++++++++....++++++++....                            ....@@@@@@@@@@@@@@@@@@@@@@@@@@@@@@@@@@@@@@@@@@@@....++++++++++++++++++++....++++++++....++++++++++++++++....                                                                                                                                                                                                                                                                                                                                                                                                                                                            ....++++++++++++++++++++....++++++++++++++++....@@@@@@@@@@@@@@@@@@@@@@@@@@@@@@@@@@@@@@@@@@@@@@@@....                                                ....@@@@++++@@@@++++@@@@++++@@@@....++++++++++++++++++++........@@@@@@@@@@@@@@@@@@@@@@@@@@@@@@@@@@@@@@@@@@@@@@@@@@@@@@@@@@@@@@@@....########################........########################++++++++................@@@@@@@@@@@@@@@@@@@@@@@@@@@@@@@@@@@@@@@@",
"++++........++++@@@@++++@@@@....++++....                                ....@@@@@@@@@@@@@@@@@@@@@@@@@@@@@@@@@@@@@@@@@@@@....++++++++++++++++++++....++++....++++++++++++++++++++....                                                                                                                                                                                                                                                                                                                                                                                                                                                            ....++++++++++++++++++++....++++++++++++++++....@@@@@@@@@@@@@@@@@@@@@@@@@@@@@@@@@@@@@@@@@@@@....                                                        ....++++++++++++++++++++++++++++........++++++++++++++++++++....++++@@@@++++@@@@++++@@@@++++@@@@@@@@@@@@@@@@@@@@@@@@@@@@@@@@@@@@....############################....########################++++++++++++........@@@@@@@@++++@@@@++++@@@@++++@@@@++++@@@@",
"++++........++++@@@@++++@@@@....++++....                                ....@@@@@@@@@@@@@@@@@@@@@@@@@@@@@@@@@@@@@@@@@@@@....++++++++++++++++++++....++++....++++++++++++++++++++....                                                                                                                                                                                                                                                                                                                                                                                                                                                            ....++++++++++++++++++++....++++++++++++++++....@@@@@@@@@@@@@@@@@@@@@@@@@@@@@@@@@@@@@@@@@@@@....                                                        ....++++++++++++++++++++++++++++........++++++++++++++++++++....++++@@@@++++@@@@++++@@@@++++@@@@@@@@@@@@@@@@@@@@@@@@@@@@@@@@@@@@....############################....########################++++++++++++........@@@@@@@@++++@@@@++++@@@@++++@@@@++++@@@@",
"++++........++++@@@@++++@@@@....++++....                                ....@@@@@@@@@@@@@@@@@@@@@@@@@@@@@@@@@@@@@@@@@@@@....++++++++++++++++++++....++++....++++++++++++++++++++....                                                                                                                                                                                                                                                                                                                                                                                                                                                            ....++++++++++++++++++++....++++++++++++++++....@@@@@@@@@@@@@@@@@@@@@@@@@@@@@@@@@@@@@@@@@@@@....                                                        ....++++++++++++++++++++++++++++........++++++++++++++++++++....++++@@@@++++@@@@++++@@@@++++@@@@@@@@@@@@@@@@@@@@@@@@@@@@@@@@@@@@....############################....########################++++++++++++........@@@@@@@@++++@@@@++++@@@@++++@@@@++++@@@@",
"++++........++++@@@@++++@@@@....++++....                                ....@@@@@@@@@@@@@@@@@@@@@@@@@@@@@@@@@@@@@@@@@@@@....++++++++++++++++++++....++++....++++++++++++++++++++....                                                                                                                                                                                                                                                                                                                                                                                                                                                            ....++++++++++++++++++++....++++++++++++++++....@@@@@@@@@@@@@@@@@@@@@@@@@@@@@@@@@@@@@@@@@@@@....                                                        ....++++++++++++++++++++++++++++........++++++++++++++++++++....++++@@@@++++@@@@++++@@@@++++@@@@@@@@@@@@@@@@@@@@@@@@@@@@@@@@@@@@....############################....########################++++++++++++........@@@@@@@@++++@@@@++++@@@@++++@@@@++++@@@@",
"....@@@@++++++++++++++++++++........                                    ....@@@@@@@@@@@@@@@@@@@@@@@@@@@@@@@@@@@@@@@@@@@@....++++++++++++++++++++........++++++++++++++++++++....                                                                                                                                                                                                                                                                                                                                                                                                                                                                ....++++++++++++++++++++....++++++++++++++++....@@@@@@@@@@@@@@@@@@@@@@@@@@@@@@@@@@@@@@@@@@@@....                                                            ....@@@@++++@@@@++++@@@@++++@@@@++++....++++++++++++++++++++....@@@@@@@@@@@@@@@@@@@@@@@@@@@@@@@@@@@@@@@@@@@@@@@@@@@@@@@@@@@@@@@@........########################........########################++++....@@@@@@@@@@@@@@@@@@@@@@@@@@@@@@@@@@@@@@@@@@@@",
"....@@@@++++++++++++++++++++........                                    ....@@@@@@@@@@@@@@@@@@@@@@@@@@@@@@@@@@@@@@@@@@@@....++++++++++++++++++++........++++++++++++++++++++....                                                                                                                                                                                                                                                                                                                                                                                                                                                                ....++++++++++++++++++++....++++++++++++++++....@@@@@@@@@@@@@@@@@@@@@@@@@@@@@@@@@@@@@@@@@@@@....                                                            ....@@@@++++@@@@++++@@@@++++@@@@++++....++++++++++++++++++++....@@@@@@@@@@@@@@@@@@@@@@@@@@@@@@@@@@@@@@@@@@@@@@@@@@@@@@@@@@@@@@@@........########################........########################++++....@@@@@@@@@@@@@@@@@@@@@@@@@@@@@@@@@@@@@@@@@@@@",
"....@@@@++++++++++++++++++++........                                    ....@@@@@@@@@@@@@@@@@@@@@@@@@@@@@@@@@@@@@@@@@@@@....++++++++++++++++++++........++++++++++++++++++++....                                                                                                                                                                                                                                                                                                                                                                                                                                                                ....++++++++++++++++++++....++++++++++++++++....@@@@@@@@@@@@@@@@@@@@@@@@@@@@@@@@@@@@@@@@@@@@....                                                            ....@@@@++++@@@@++++@@@@++++@@@@++++....++++++++++++++++++++....@@@@@@@@@@@@@@@@@@@@@@@@@@@@@@@@@@@@@@@@@@@@@@@@@@@@@@@@@@@@@@@@........########################........########################++++....@@@@@@@@@@@@@@@@@@@@@@@@@@@@@@@@@@@@@@@@@@@@",
"....@@@@++++++++++++++++++++........                                    ....@@@@@@@@@@@@@@@@@@@@@@@@@@@@@@@@@@@@@@@@@@@@....++++++++++++++++++++........++++++++++++++++++++....                                                                                                                                                                                                                                                                                                                                                                                                                                                                ....++++++++++++++++++++....++++++++++++++++....@@@@@@@@@@@@@@@@@@@@@@@@@@@@@@@@@@@@@@@@@@@@....                                                            ....@@@@++++@@@@++++@@@@++++@@@@++++....++++++++++++++++++++....@@@@@@@@@@@@@@@@@@@@@@@@@@@@@@@@@@@@@@@@@@@@@@@@@@@@@@@@@@@@@@@@........########################........########################++++....@@@@@@@@@@@@@@@@@@@@@@@@@@@@@@@@@@@@@@@@@@@@",
"@@@@++++@@@@++++@@@@++++@@@@....                                        ....@@@@@@@@@@@@@@@@@@@@@@@@@@@@@@@@@@@@@@@@@@@@....++++++++++++++++++++....++++++++++++++++++++++++....                                                                                                                                                                                                                                                                                                                                                                                                                                                                    ....++++++++++++++++....++++++++++++++++....++++@@@@++++@@@@++++@@@@++++@@@@++++@@@@++++....                                                                ........++++++++++++++++++++++++++++....++++++++++++++++++++........@@@@++++@@@@++++@@@@++++@@@@@@@@@@@@@@@@@@@@@@@@@@@@@@@@@@@@@@@@....############################....########################....@@@@@@@@@@@@++++@@@@++++@@@@++++@@@@++++@@@@",
"@@@@++++@@@@++++@@@@++++@@@@....                                        ....@@@@@@@@@@@@@@@@@@@@@@@@@@@@@@@@@@@@@@@@@@@@....++++++++++++++++++++....++++++++++++++++++++++++....                                                                                                                                                                                                                                                                                                                                                                                                                                                                    ....++++++++++++++++....++++++++++++++++....++++@@@@++++@@@@++++@@@@++++@@@@++++@@@@++++....                                                                ........++++++++++++++++++++++++++++....++++++++++++++++++++........@@@@++++@@@@++++@@@@++++@@@@@@@@@@@@@@@@@@@@@@@@@@@@@@@@@@@@@@@@....############################....########################....@@@@@@@@@@@@++++@@@@++++@@@@++++@@@@++++@@@@",
"@@@@++++@@@@++++@@@@++++@@@@....                                        ....@@@@@@@@@@@@@@@@@@@@@@@@@@@@@@@@@@@@@@@@@@@@....++++++++++++++++++++....++++++++++++++++++++++++....                                                                                                                                                                                                                                                                                                                                                                                                                                                                    ....++++++++++++++++....++++++++++++++++....++++@@@@++++@@@@++++@@@@++++@@@@++++@@@@++++....                                                                ........++++++++++++++++++++++++++++....++++++++++++++++++++........@@@@++++@@@@++++@@@@++++@@@@@@@@@@@@@@@@@@@@@@@@@@@@@@@@@@@@@@@@....############################....########################....@@@@@@@@@@@@++++@@@@++++@@@@++++@@@@++++@@@@",
"@@@@++++@@@@++++@@@@++++@@@@....                                        ....@@@@@@@@@@@@@@@@@@@@@@@@@@@@@@@@@@@@@@@@@@@@....++++++++++++++++++++....++++++++++++++++++++++++....                                                                                                                                                                                                                                                                                                                                                                                                                                                                    ....++++++++++++++++....++++++++++++++++....++++@@@@++++@@@@++++@@@@++++@@@@++++@@@@++++....                                                                ........++++++++++++++++++++++++++++....++++++++++++++++++++........@@@@++++@@@@++++@@@@++++@@@@@@@@@@@@@@@@@@@@@@@@@@@@@@@@@@@@@@@@....############################....########################....@@@@@@@@@@@@++++@@@@++++@@@@++++@@@@++++@@@@",
"++++++++++++++++++++++++....                                            ....@@@@@@@@@@@@@@@@@@@@@@@@@@@@@@@@@@@@@@@@@@@@....++++++++++++++++++++....++++++++++++++++++++++++....                                                                                                                                                                                                                                                                                                                                                                                                                                                                    ....++++++++++++++++....++++++++++++++++....@@@@@@@@@@@@@@@@@@@@@@@@@@@@@@@@@@@@@@@@@@@@....                                                                        ....++++@@@@++++@@@@++++@@@@++++....++++++++++++++++++++++++....@@@@@@@@@@@@@@@@@@@@@@@@@@@@@@@@@@@@@@@@@@@@@@@@@@@@@@@@@@@@@@@@....############################....####################....@@@@@@@@@@@@@@@@@@@@@@@@@@@@@@@@@@@@@@@@@@@@",
"++++++++++++++++++++++++....                                            ....@@@@@@@@@@@@@@@@@@@@@@@@@@@@@@@@@@@@@@@@@@@@....++++++++++++++++++++....++++++++++++++++++++++++....                                                                                                                                                                                                                                                                                                                                                                                                                                                                    ....++++++++++++++++....++++++++++++++++....@@@@@@@@@@@@@@@@@@@@@@@@@@@@@@@@@@@@@@@@@@@@....                                                                        ....++++@@@@++++@@@@++++@@@@++++....++++++++++++++++++++++++....@@@@@@@@@@@@@@@@@@@@@@@@@@@@@@@@@@@@@@@@@@@@@@@@@@@@@@@@@@@@@@@@....############################....####################....@@@@@@@@@@@@@@@@@@@@@@@@@@@@@@@@@@@@@@@@@@@@",
"++++++++++++++++++++++++....                                            ....@@@@@@@@@@@@@@@@@@@@@@@@@@@@@@@@@@@@@@@@@@@@....++++++++++++++++++++....++++++++++++++++++++++++....                                                                                                                                                                                                                                                                                                                                                                                                                                                                    ....++++++++++++++++....++++++++++++++++....@@@@@@@@@@@@@@@@@@@@@@@@@@@@@@@@@@@@@@@@@@@@....                                                                        ....++++@@@@++++@@@@++++@@@@++++....++++++++++++++++++++++++....@@@@@@@@@@@@@@@@@@@@@@@@@@@@@@@@@@@@@@@@@@@@@@@@@@@@@@@@@@@@@@@@....############################....####################....@@@@@@@@@@@@@@@@@@@@@@@@@@@@@@@@@@@@@@@@@@@@",
"++++++++++++++++++++++++....                                            ....@@@@@@@@@@@@@@@@@@@@@@@@@@@@@@@@@@@@@@@@@@@@....++++++++++++++++++++....++++++++++++++++++++++++....                                                                                                                                                                                                                                                                                                                                                                                                                                                                    ....++++++++++++++++....++++++++++++++++....@@@@@@@@@@@@@@@@@@@@@@@@@@@@@@@@@@@@@@@@@@@@....                                                                        ....++++@@@@++++@@@@++++@@@@++++....++++++++++++++++++++++++....@@@@@@@@@@@@@@@@@@@@@@@@@@@@@@@@@@@@@@@@@@@@@@@@@@@@@@@@@@@@@@@@....############################....####################....@@@@@@@@@@@@@@@@@@@@@@@@@@@@@@@@@@@@@@@@@@@@",
"@@@@++++@@@@++++@@@@....                                                ....@@@@@@@@@@@@@@@@@@@@@@@@@@@@@@@@@@@@@@@@@@@@@@@@....++++++++++++++++....++++++++++++++++++++....                                                                                                                                                                                                                                                                                                                                                                                                                                                                        ....++++++++++++++++....++++++++++++++++....++++@@@@++++@@@@++++@@@@++++@@@@++++@@@@++++....                                                                            ....++++++++++++++++++++++++++++....++++++++++++++++++++++++....@@@@++++@@@@++++@@@@++++@@@@++++@@@@@@@@@@@@@@@@@@@@@@@@@@@@@@@@........########################........############....@@@@@@@@@@@@++++@@@@++++@@@@++++@@@@++++@@@@",
"@@@@++++@@@@++++@@@@....                                                ....@@@@@@@@@@@@@@@@@@@@@@@@@@@@@@@@@@@@@@@@@@@@@@@@....++++++++++++++++....++++++++++++++++++++....                                                                                                                                                                                                                                                                                                                                                                                                                                                                        ....++++++++++++++++....++++++++++++++++....++++@@@@++++@@@@++++@@@@++++@@@@++++@@@@++++....                                                                            ....++++++++++++++++++++++++++++....++++++++++++++++++++++++....@@@@++++@@@@++++@@@@++++@@@@++++@@@@@@@@@@@@@@@@@@@@@@@@@@@@@@@@........########################........############....@@@@@@@@@@@@++++@@@@++++@@@@++++@@@@++++@@@@",
"@@@@++++@@@@++++@@@@....                                                ....@@@@@@@@@@@@@@@@@@@@@@@@@@@@@@@@@@@@@@@@@@@@@@@@....++++++++++++++++....++++++++++++++++++++....                                                                                                                                                                                                                                                                                                                                                                                                                                                                        ....++++++++++++++++....++++++++++++++++....++++@@@@++++@@@@++++@@@@++++@@@@++++@@@@++++....                                                                            ....++++++++++++++++++++++++++++....++++++++++++++++++++++++....@@@@++++@@@@++++@@@@++++@@@@++++@@@@@@@@@@@@@@@@@@@@@@@@@@@@@@@@........########################........############....@@@@@@@@@@@@++++@@@@++++@@@@++++@@@@++++@@@@",
"@@@@++++@@@@++++@@@@....                                                ....@@@@@@@@@@@@@@@@@@@@@@@@@@@@@@@@@@@@@@@@@@@@@@@@....++++++++++++++++....++++++++++++++++++++....                                                                                                                                                                                                                                                                                                                                                                                                                                                                        ....++++++++++++++++....++++++++++++++++....++++@@@@++++@@@@++++@@@@++++@@@@++++@@@@++++....                                                                            ....++++++++++++++++++++++++++++....++++++++++++++++++++++++....@@@@++++@@@@++++@@@@++++@@@@++++@@@@@@@@@@@@@@@@@@@@@@@@@@@@@@@@........########################........############....@@@@@@@@@@@@++++@@@@++++@@@@++++@@@@++++@@@@",
"++++++++++++++++....                                                        ....@@@@@@@@@@@@@@@@@@@@@@@@@@@@@@@@@@@@@@@@@@@@....++++++++++++++++....++++++++++++++++++++....                                                                                                                                                                                                                                                                                                                                                                                                                                                                            ....++++++++++++....++++++++++++++++....@@@@++++@@@@++++@@@@++++@@@@++++@@@@++++@@@@....                                                                                ....++++@@@@++++@@@@++++@@@@++++........++++++++++++++++++++........@@@@@@@@@@@@@@@@@@@@@@@@@@@@@@@@@@@@@@@@@@@@@@@@@@@@@@@@@@@@@@@@........########################................@@@@@@@@@@@@@@@@@@@@@@@@@@@@@@@@@@@@@@@@@@@@",
"++++++++++++++++....                                                        ....@@@@@@@@@@@@@@@@@@@@@@@@@@@@@@@@@@@@@@@@@@@@....++++++++++++++++....++++++++++++++++++++....                                                                                                                                                                                                                                                                                                                                                                                                                                                                            ....++++++++++++....++++++++++++++++....@@@@++++@@@@++++@@@@++++@@@@++++@@@@++++@@@@....                                                                                ....++++@@@@++++@@@@++++@@@@++++........++++++++++++++++++++........@@@@@@@@@@@@@@@@@@@@@@@@@@@@@@@@@@@@@@@@@@@@@@@@@@@@@@@@@@@@@@@@........########################................@@@@@@@@@@@@@@@@@@@@@@@@@@@@@@@@@@@@@@@@@@@@",
"++++++++++++++++....                                                        ....@@@@@@@@@@@@@@@@@@@@@@@@@@@@@@@@@@@@@@@@@@@@....++++++++++++++++....++++++++++++++++++++....                                                                                                                                                                                                                                                                                                                                                                                                                                                                            ....++++++++++++....++++++++++++++++....@@@@++++@@@@++++@@@@++++@@@@++++@@@@++++@@@@....                                                                                ....++++@@@@++++@@@@++++@@@@++++........++++++++++++++++++++........@@@@@@@@@@@@@@@@@@@@@@@@@@@@@@@@@@@@@@@@@@@@@@@@@@@@@@@@@@@@@@@@........########################................@@@@@@@@@@@@@@@@@@@@@@@@@@@@@@@@@@@@@@@@@@@@",
"++++++++++++++++....                                                        ....@@@@@@@@@@@@@@@@@@@@@@@@@@@@@@@@@@@@@@@@@@@@....++++++++++++++++....++++++++++++++++++++....                                                                                                                                                                                                                                                                                                                                                                                                                                                                            ....++++++++++++....++++++++++++++++....@@@@++++@@@@++++@@@@++++@@@@++++@@@@++++@@@@....                                                                                ....++++@@@@++++@@@@++++@@@@++++........++++++++++++++++++++........@@@@@@@@@@@@@@@@@@@@@@@@@@@@@@@@@@@@@@@@@@@@@@@@@@@@@@@@@@@@@@@@........########################................@@@@@@@@@@@@@@@@@@@@@@@@@@@@@@@@@@@@@@@@@@@@",
"@@@@++++@@@@....                                                            ....@@@@@@@@@@@@@@@@@@@@@@@@@@@@@@@@@@@@@@@@@@@@....++++++++++++++++....++++++++++++++++++++....                                                                                                                                                                                                                                                                                                                                                                                                                                                                            ....++++++++++++....++++++++++++....@@@@++++@@@@++++@@@@++++@@@@++++@@@@++++@@@@....                                                                                        ....++++++++++++++++++++++++++++++++....++++++++++++++++++++++++....++++@@@@++++@@@@++++@@@@++++@@@@@@@@@@@@@@@@@@@@@@@@@@@@@@@@@@@@@@@@................########################....................++++@@@@++++@@@@++++@@@@",
"@@@@++++@@@@....                                                            ....@@@@@@@@@@@@@@@@@@@@@@@@@@@@@@@@@@@@@@@@@@@@....++++++++++++++++....++++++++++++++++++++....                                                                                                                                                                                                                                                                                                                                                                                                                                                                            ....++++++++++++....++++++++++++....@@@@++++@@@@++++@@@@++++@@@@++++@@@@++++@@@@....                                                                                        ....++++++++++++++++++++++++++++++++....++++++++++++++++++++++++....++++@@@@++++@@@@++++@@@@++++@@@@@@@@@@@@@@@@@@@@@@@@@@@@@@@@@@@@@@@@................########################....................++++@@@@++++@@@@++++@@@@",
"@@@@++++@@@@....                                                            ....@@@@@@@@@@@@@@@@@@@@@@@@@@@@@@@@@@@@@@@@@@@@....++++++++++++++++....++++++++++++++++++++....                                                                                                                                                                                                                                                                                                                                                                                                                                                                            ....++++++++++++....++++++++++++....@@@@++++@@@@++++@@@@++++@@@@++++@@@@++++@@@@....                                                                                        ....++++++++++++++++++++++++++++++++....++++++++++++++++++++++++....++++@@@@++++@@@@++++@@@@++++@@@@@@@@@@@@@@@@@@@@@@@@@@@@@@@@@@@@@@@@................########################....................++++@@@@++++@@@@++++@@@@",
"@@@@++++@@@@....                                                            ....@@@@@@@@@@@@@@@@@@@@@@@@@@@@@@@@@@@@@@@@@@@@....++++++++++++++++....++++++++++++++++++++....                                                                                                                                                                                                                                                                                                                                                                                                                                                                            ....++++++++++++....++++++++++++....@@@@++++@@@@++++@@@@++++@@@@++++@@@@++++@@@@....                                                                                        ....++++++++++++++++++++++++++++++++....++++++++++++++++++++++++....++++@@@@++++@@@@++++@@@@++++@@@@@@@@@@@@@@@@@@@@@@@@@@@@@@@@@@@@@@@@................########################....................++++@@@@++++@@@@++++@@@@",
"++++........                                                                ....++++@@@@++++@@@@++++@@@@++++@@@@++++@@@@++++....++++++++++++++++....++++++++++++++++....                                                                                                                                                                                                                                                                                                                                                                                                                                                                                ....++++++++++++....++++++++++++....++++@@@@++++@@@@++++@@@@++++@@@@++++@@@@++++....                                                                                            ....++++@@@@++++@@@@++++@@@@++++@@@@....++++++++++++++++++++++++....++++@@@@@@@@@@@@@@@@@@@@@@@@@@@@@@@@@@@@@@@@@@@@@@@@@@@@@@@@@@@@@@@@@@@@@@@@@@@@................############################........@@@@@@@@@@@@@@@@",
"++++........                                                                ....++++@@@@++++@@@@++++@@@@++++@@@@++++@@@@++++....++++++++++++++++....++++++++++++++++....                                                                                                                                                                                                                                                                                                                                                                                                                                                                                ....++++++++++++....++++++++++++....++++@@@@++++@@@@++++@@@@++++@@@@++++@@@@++++....                                                                                            ....++++@@@@++++@@@@++++@@@@++++@@@@....++++++++++++++++++++++++....++++@@@@@@@@@@@@@@@@@@@@@@@@@@@@@@@@@@@@@@@@@@@@@@@@@@@@@@@@@@@@@@@@@@@@@@@@@@@@................############################........@@@@@@@@@@@@@@@@",
"++++........                                                                ....++++@@@@++++@@@@++++@@@@++++@@@@++++@@@@++++....++++++++++++++++....++++++++++++++++....                                                                                                                                                                                                                                                                                                                                                                                                                                                                                ....++++++++++++....++++++++++++....++++@@@@++++@@@@++++@@@@++++@@@@++++@@@@++++....                                                                                            ....++++@@@@++++@@@@++++@@@@++++@@@@....++++++++++++++++++++++++....++++@@@@@@@@@@@@@@@@@@@@@@@@@@@@@@@@@@@@@@@@@@@@@@@@@@@@@@@@@@@@@@@@@@@@@@@@@@@@................############################........@@@@@@@@@@@@@@@@",
"++++........                                                                ....++++@@@@++++@@@@++++@@@@++++@@@@++++@@@@++++....++++++++++++++++....++++++++++++++++....                                                                                                                                                                                                                                                                                                                                                                                                                                                                                ....++++++++++++....++++++++++++....++++@@@@++++@@@@++++@@@@++++@@@@++++@@@@++++....                                                                                            ....++++@@@@++++@@@@++++@@@@++++@@@@....++++++++++++++++++++++++....++++@@@@@@@@@@@@@@@@@@@@@@@@@@@@@@@@@@@@@@@@@@@@@@@@@@@@@@@@@@@@@@@@@@@@@@@@@@@@................############################........@@@@@@@@@@@@@@@@",
"....                                                                        ....@@@@@@@@@@@@@@@@@@@@@@@@@@@@@@@@@@@@@@@@@@@@....++++++++++++++++....++++++++++++++++....                                                                                                                                                                                                                                                                                                                                                                                                                                                                                ....++++++++++++....++++++++++++....@@@@++++@@@@++++@@@@++++@@@@++++@@@@++++@@@@....                                                                                                ....++++++++++++++++++++++++++++++++....++++++++++++++++++++++++........@@@@++++@@@@++++@@@@++++@@@@++++@@@@@@@@@@@@@@@@@@@@@@@@@@@@@@@@@@@@@@@@@@@@@@@@@@@@@@@@................@@@@++++@@@@++++@@@@........++++@@@@",
"....                                                                        ....@@@@@@@@@@@@@@@@@@@@@@@@@@@@@@@@@@@@@@@@@@@@....++++++++++++++++....++++++++++++++++....                                                                                                                                                                                                                                                                                                                                                                                                                                                                                ....++++++++++++....++++++++++++....@@@@++++@@@@++++@@@@++++@@@@++++@@@@++++@@@@....                                                                                                ....++++++++++++++++++++++++++++++++....++++++++++++++++++++++++........@@@@++++@@@@++++@@@@++++@@@@++++@@@@@@@@@@@@@@@@@@@@@@@@@@@@@@@@@@@@@@@@@@@@@@@@@@@@@@@@................@@@@++++@@@@++++@@@@........++++@@@@",
"....                                                                        ....@@@@@@@@@@@@@@@@@@@@@@@@@@@@@@@@@@@@@@@@@@@@....++++++++++++++++....++++++++++++++++....                                                                                                                                                                                                                                                                                                                                                                                                                                                                                ....++++++++++++....++++++++++++....@@@@++++@@@@++++@@@@++++@@@@++++@@@@++++@@@@....                                                                                                ....++++++++++++++++++++++++++++++++....++++++++++++++++++++++++........@@@@++++@@@@++++@@@@++++@@@@++++@@@@@@@@@@@@@@@@@@@@@@@@@@@@@@@@@@@@@@@@@@@@@@@@@@@@@@@@................@@@@++++@@@@++++@@@@........++++@@@@",
"....                                                                        ....@@@@@@@@@@@@@@@@@@@@@@@@@@@@@@@@@@@@@@@@@@@@....++++++++++++++++....++++++++++++++++....                                                                                                                                                                                                                                                                                                                                                                                                                                                                                ....++++++++++++....++++++++++++....@@@@++++@@@@++++@@@@++++@@@@++++@@@@++++@@@@....                                                                                                ....++++++++++++++++++++++++++++++++....++++++++++++++++++++++++........@@@@++++@@@@++++@@@@++++@@@@++++@@@@@@@@@@@@@@@@@@@@@@@@@@@@@@@@@@@@@@@@@@@@@@@@@@@@@@@@................@@@@++++@@@@++++@@@@........++++@@@@",
"                                                                            ....++++@@@@++++@@@@++++@@@@++++@@@@++++@@@@++++....++++++++++++++++....++++++++++++++++....                                                                                                                                                                                                                                                                                                                                                                                                                                                                                    ....++++++++....++++++++++++....++++@@@@++++@@@@++++@@@@++++@@@@++++@@@@++++....                                                                                                    ....++++++++++++@@@@++++@@@@++++@@@@........++++++++++++++++++++++++....@@@@@@@@@@@@@@@@@@@@@@@@@@@@@@@@@@@@@@@@@@@@@@@@@@@@@@@@@@@@@@@@@@@@@@@@@@@@@@@@@@@@@@@@@@@@@@@@@@@@........@@@@@@@@@@@@@@@@@@@@........",
"                                                                            ....++++@@@@++++@@@@++++@@@@++++@@@@++++@@@@++++....++++++++++++++++....++++++++++++++++....                                                                                                                                                                                                                                                                                                                                                                                                                                                                                    ....++++++++....++++++++++++....++++@@@@++++@@@@++++@@@@++++@@@@++++@@@@++++....                                                                                                    ....++++++++++++@@@@++++@@@@++++@@@@........++++++++++++++++++++++++....@@@@@@@@@@@@@@@@@@@@@@@@@@@@@@@@@@@@@@@@@@@@@@@@@@@@@@@@@@@@@@@@@@@@@@@@@@@@@@@@@@@@@@@@@@@@@@@@@@@@........@@@@@@@@@@@@@@@@@@@@........",
"                                                                            ....++++@@@@++++@@@@++++@@@@++++@@@@++++@@@@++++....++++++++++++++++....++++++++++++++++....                                                                                                                                                                                                                                                                                                                                                                                                                                                                                    ....++++++++....++++++++++++....++++@@@@++++@@@@++++@@@@++++@@@@++++@@@@++++....                                                                                                    ....++++++++++++@@@@++++@@@@++++@@@@........++++++++++++++++++++++++....@@@@@@@@@@@@@@@@@@@@@@@@@@@@@@@@@@@@@@@@@@@@@@@@@@@@@@@@@@@@@@@@@@@@@@@@@@@@@@@@@@@@@@@@@@@@@@@@@@@@........@@@@@@@@@@@@@@@@@@@@........",
"                                                                            ....++++@@@@++++@@@@++++@@@@++++@@@@++++@@@@++++....++++++++++++++++....++++++++++++++++....                                                                                                                                                                                                                                                                                                                                                                                                                                                                                    ....++++++++....++++++++++++....++++@@@@++++@@@@++++@@@@++++@@@@++++@@@@++++....                                                                                                    ....++++++++++++@@@@++++@@@@++++@@@@........++++++++++++++++++++++++....@@@@@@@@@@@@@@@@@@@@@@@@@@@@@@@@@@@@@@@@@@@@@@@@@@@@@@@@@@@@@@@@@@@@@@@@@@@@@@@@@@@@@@@@@@@@@@@@@@@@........@@@@@@@@@@@@@@@@@@@@........",
"                                                                            ....@@@@++++@@@@++++@@@@++++@@@@++++@@@@++++@@@@....++++++++++++++++....++++++++++++....                                                                                                                                                                                                                                                                                                                                                                                                                                                                                        ........++++....++++++++++++....++++++++++++++++++++++++++++++++++++++++++++....                                                                                                        ....++++++++++++++++++++++++++++++++++++....++++++++++++++++++++++++....@@@@++++@@@@++++@@@@++++@@@@++++@@@@@@@@@@@@@@@@@@@@@@@@@@@@@@@@@@@@@@@@@@@@@@@@@@@@@@@@@@@@@@@@@@@@....@@@@++++@@@@++++@@@@++++@@@@",
"                                                                            ....@@@@++++@@@@++++@@@@++++@@@@++++@@@@++++@@@@....++++++++++++++++....++++++++++++....                                                                                                                                                                                                                                                                                                                                                                                                                                                                                        ........++++....++++++++++++....++++++++++++++++++++++++++++++++++++++++++++....                                                                                                        ....++++++++++++++++++++++++++++++++++++....++++++++++++++++++++++++....@@@@++++@@@@++++@@@@++++@@@@++++@@@@@@@@@@@@@@@@@@@@@@@@@@@@@@@@@@@@@@@@@@@@@@@@@@@@@@@@@@@@@@@@@@@@....@@@@++++@@@@++++@@@@++++@@@@",
"                                                                            ....@@@@++++@@@@++++@@@@++++@@@@++++@@@@++++@@@@....++++++++++++++++....++++++++++++....                                                                                                                                                                                                                                                                                                                                                                                                                                                                                        ........++++....++++++++++++....++++++++++++++++++++++++++++++++++++++++++++....                                                                                                        ....++++++++++++++++++++++++++++++++++++....++++++++++++++++++++++++....@@@@++++@@@@++++@@@@++++@@@@++++@@@@@@@@@@@@@@@@@@@@@@@@@@@@@@@@@@@@@@@@@@@@@@@@@@@@@@@@@@@@@@@@@@@@....@@@@++++@@@@++++@@@@++++@@@@",
"                                                                            ....@@@@++++@@@@++++@@@@++++@@@@++++@@@@++++@@@@....++++++++++++++++....++++++++++++....                                                                                                                                                                                                                                                                                                                                                                                                                                                                                        ........++++....++++++++++++....++++++++++++++++++++++++++++++++++++++++++++....                                                                                                        ....++++++++++++++++++++++++++++++++++++....++++++++++++++++++++++++....@@@@++++@@@@++++@@@@++++@@@@++++@@@@@@@@@@@@@@@@@@@@@@@@@@@@@@@@@@@@@@@@@@@@@@@@@@@@@@@@@@@@@@@@@@@@....@@@@++++@@@@++++@@@@++++@@@@",
"                                                                                ....@@@@++++@@@@++++@@@@++++@@@@++++@@@@++++@@@@....++++++++++++....++++++++++++....                                                                                                                                                                                                                                                                                                                                                                                                                                                                                        ....++++....++++++++++++++++....++++@@@@++++@@@@++++@@@@++++@@@@++++@@@@....                                                                                                                ....++++++++++++@@@@++++@@@@++++@@@@++++....++++++++++++++++++++++++........@@@@@@@@@@@@@@@@@@@@@@@@@@@@@@@@@@@@@@@@@@@@@@@@@@@@@@@@@@@@@@@@@@@@@@@@@@@@@@@@@@@@@@@@@@@@@@@@....@@@@@@@@@@@@@@@@@@@@@@@@",
"                                                                                ....@@@@++++@@@@++++@@@@++++@@@@++++@@@@++++@@@@....++++++++++++....++++++++++++....                                                                                                                                                                                                                                                                                                                                                                                                                                                                                        ....++++....++++++++++++++++....++++@@@@++++@@@@++++@@@@++++@@@@++++@@@@....                                                                                                                ....++++++++++++@@@@++++@@@@++++@@@@++++....++++++++++++++++++++++++........@@@@@@@@@@@@@@@@@@@@@@@@@@@@@@@@@@@@@@@@@@@@@@@@@@@@@@@@@@@@@@@@@@@@@@@@@@@@@@@@@@@@@@@@@@@@@@@@....@@@@@@@@@@@@@@@@@@@@@@@@",
"                                                                                ....@@@@++++@@@@++++@@@@++++@@@@++++@@@@++++@@@@....++++++++++++....++++++++++++....                                                                                                                                                                                                                                                                                                                                                                                                                                                                                        ....++++....++++++++++++++++....++++@@@@++++@@@@++++@@@@++++@@@@++++@@@@....                                                                                                                ....++++++++++++@@@@++++@@@@++++@@@@++++....++++++++++++++++++++++++........@@@@@@@@@@@@@@@@@@@@@@@@@@@@@@@@@@@@@@@@@@@@@@@@@@@@@@@@@@@@@@@@@@@@@@@@@@@@@@@@@@@@@@@@@@@@@@@@....@@@@@@@@@@@@@@@@@@@@@@@@",
"                                                                                ....@@@@++++@@@@++++@@@@++++@@@@++++@@@@++++@@@@....++++++++++++....++++++++++++....                                                                                                                                                                                                                                                                                                                                                                                                                                                                                        ....++++....++++++++++++++++....++++@@@@++++@@@@++++@@@@++++@@@@++++@@@@....                                                                                                                ....++++++++++++@@@@++++@@@@++++@@@@++++....++++++++++++++++++++++++........@@@@@@@@@@@@@@@@@@@@@@@@@@@@@@@@@@@@@@@@@@@@@@@@@@@@@@@@@@@@@@@@@@@@@@@@@@@@@@@@@@@@@@@@@@@@@@@@....@@@@@@@@@@@@@@@@@@@@@@@@",
"                                                                                ....++++@@@@++++@@@@++++@@@@++++@@@@++++@@@@++++....++++++++++++....++++++++++++....                                                                                                                                                                                                                                                                                                                                                                                                                                                                                        ....++++++++++++++++++++++++....++++++++++++++++++++++++++++++++++++++++....                                                                                                                    ....++++++++++++++++++++++++++++++++++++....++++++++++++++++++++++++++++....++++@@@@++++@@@@++++@@@@++++@@@@@@@@@@@@@@@@@@@@@@@@@@@@@@@@@@@@@@@@@@@@@@@@@@@@@@@@@@@@++++....++++@@@@++++@@@@++++@@@@",
"                                                                                ....++++@@@@++++@@@@++++@@@@++++@@@@++++@@@@++++....++++++++++++....++++++++++++....                                                                                                                                                                                                                                                                                                                                                                                                                                                                                        ....++++++++++++++++++++++++....++++++++++++++++++++++++++++++++++++++++....                                                                                                                    ....++++++++++++++++++++++++++++++++++++....++++++++++++++++++++++++++++....++++@@@@++++@@@@++++@@@@++++@@@@@@@@@@@@@@@@@@@@@@@@@@@@@@@@@@@@@@@@@@@@@@@@@@@@@@@@@@@@++++....++++@@@@++++@@@@++++@@@@",
"                                                                                ....++++@@@@++++@@@@++++@@@@++++@@@@++++@@@@++++....++++++++++++....++++++++++++....                                                                                                                                                                                                                                                                                                                                                                                                                                                                                        ....++++++++++++++++++++++++....++++++++++++++++++++++++++++++++++++++++....                                                                                                                    ....++++++++++++++++++++++++++++++++++++....++++++++++++++++++++++++++++....++++@@@@++++@@@@++++@@@@++++@@@@@@@@@@@@@@@@@@@@@@@@@@@@@@@@@@@@@@@@@@@@@@@@@@@@@@@@@@@@++++....++++@@@@++++@@@@++++@@@@",
"                                                                                ....++++@@@@++++@@@@++++@@@@++++@@@@++++@@@@++++....++++++++++++....++++++++++++....                                                                                                                                                                                                                                                                                                                                                                                                                                                                                        ....++++++++++++++++++++++++....++++++++++++++++++++++++++++++++++++++++....                                                                                                                    ....++++++++++++++++++++++++++++++++++++....++++++++++++++++++++++++++++....++++@@@@++++@@@@++++@@@@++++@@@@@@@@@@@@@@@@@@@@@@@@@@@@@@@@@@@@@@@@@@@@@@@@@@@@@@@@@@@@++++....++++@@@@++++@@@@++++@@@@",
"                                                                                ....@@@@++++@@@@++++@@@@++++@@@@++++@@@@++++@@@@....++++++++++++....++++++++++++....                                                                                                                                                                                                                                                                                                                                                                                                                                                                                        ....++++++++++++++++++++++++....++++++++++++++++++++++++++++++++++++++++....                                                                                                                        ....++++++++++++++++++++@@@@++++@@@@++++....++++++++++++++++++++++++++++....++++@@@@@@@@@@@@@@@@@@@@@@@@@@@@@@@@@@@@@@@@@@@@@@@@@@@@@@@@@@@@@@@@@@@@@@@@@@@@@@@@@@@@@@@@....@@@@@@@@@@@@@@@@@@@@",
"                                                                                ....@@@@++++@@@@++++@@@@++++@@@@++++@@@@++++@@@@....++++++++++++....++++++++++++....                                                                                                                                                                                                                                                                                                                                                                                                                                                                                        ....++++++++++++++++++++++++....++++++++++++++++++++++++++++++++++++++++....                                                                                                                        ....++++++++++++++++++++@@@@++++@@@@++++....++++++++++++++++++++++++++++....++++@@@@@@@@@@@@@@@@@@@@@@@@@@@@@@@@@@@@@@@@@@@@@@@@@@@@@@@@@@@@@@@@@@@@@@@@@@@@@@@@@@@@@@@@....@@@@@@@@@@@@@@@@@@@@",
"                                                                                ....@@@@++++@@@@++++@@@@++++@@@@++++@@@@++++@@@@....++++++++++++....++++++++++++....                                                                                                                                                                                                                                                                                                                                                                                                                                                                                        ....++++++++++++++++++++++++....++++++++++++++++++++++++++++++++++++++++....                                                                                                                        ....++++++++++++++++++++@@@@++++@@@@++++....++++++++++++++++++++++++++++....++++@@@@@@@@@@@@@@@@@@@@@@@@@@@@@@@@@@@@@@@@@@@@@@@@@@@@@@@@@@@@@@@@@@@@@@@@@@@@@@@@@@@@@@@@....@@@@@@@@@@@@@@@@@@@@",
"                                                                                ....@@@@++++@@@@++++@@@@++++@@@@++++@@@@++++@@@@....++++++++++++....++++++++++++....                                                                                                                                                                                                                                                                                                                                                                                                                                                                                        ....++++++++++++++++++++++++....++++++++++++++++++++++++++++++++++++++++....                                                                                                                        ....++++++++++++++++++++@@@@++++@@@@++++....++++++++++++++++++++++++++++....++++@@@@@@@@@@@@@@@@@@@@@@@@@@@@@@@@@@@@@@@@@@@@@@@@@@@@@@@@@@@@@@@@@@@@@@@@@@@@@@@@@@@@@@@@....@@@@@@@@@@@@@@@@@@@@",
"                                                                                ....++++@@@@++++@@@@++++@@@@++++@@@@++++@@@@++++....++++++++++++....++++++++....                                                                                                                                                                                                                                                                                                                                                                                                                                                                                            ....++++++++++++++++++++....++++++++++++++++++++++++++++++++++++++++++++....                                                                                                                            ....++++++++++++++++++++++++++++++++++++........++++++++++++++++++++++++........@@@@++++@@@@++++@@@@++++@@@@++++@@@@@@@@@@@@@@@@@@@@@@@@@@@@@@@@@@@@@@@@@@@@++++@@@@....@@@@++++@@@@++++@@@@",
"                                                                                ....++++@@@@++++@@@@++++@@@@++++@@@@++++@@@@++++....++++++++++++....++++++++....                                                                                                                                                                                                                                                                                                                                                                                                                                                                                            ....++++++++++++++++++++....++++++++++++++++++++++++++++++++++++++++++++....                                                                                                                            ....++++++++++++++++++++++++++++++++++++........++++++++++++++++++++++++........@@@@++++@@@@++++@@@@++++@@@@++++@@@@@@@@@@@@@@@@@@@@@@@@@@@@@@@@@@@@@@@@@@@@++++@@@@....@@@@++++@@@@++++@@@@",
"                                                                                ....++++@@@@++++@@@@++++@@@@++++@@@@++++@@@@++++....++++++++++++....++++++++....                                                                                                                                                                                                                                                                                                                                                                                                                                                                                            ....++++++++++++++++++++....++++++++++++++++++++++++++++++++++++++++++++....                                                                                                                            ....++++++++++++++++++++++++++++++++++++........++++++++++++++++++++++++........@@@@++++@@@@++++@@@@++++@@@@++++@@@@@@@@@@@@@@@@@@@@@@@@@@@@@@@@@@@@@@@@@@@@++++@@@@....@@@@++++@@@@++++@@@@",
"                                                                                ....++++@@@@++++@@@@++++@@@@++++@@@@++++@@@@++++....++++++++++++....++++++++....                                                                                                                                                                                                                                                                                                                                                                                                                                                                                            ....++++++++++++++++++++....++++++++++++++++++++++++++++++++++++++++++++....                                                                                                                            ....++++++++++++++++++++++++++++++++++++........++++++++++++++++++++++++........@@@@++++@@@@++++@@@@++++@@@@++++@@@@@@@@@@@@@@@@@@@@@@@@@@@@@@@@@@@@@@@@@@@@++++@@@@....@@@@++++@@@@++++@@@@",
"                                                                                ....++++++++++++++++++++++++++++++++++++++++++++....++++++++++++....++++........                                                                                                                                                                                                                                                                                                                                                                                                                                                                                            ....++++++++++++++++++++....++++++++++++++++++++++++++++++++++++++++++++....                                                                                                                                ....++++++++++++++++++++@@@@++++@@@@++++@@@@....++++++++++++++++++++++++++++....@@@@@@@@@@@@@@@@@@@@@@@@@@@@@@@@@@@@@@@@@@@@@@@@@@@@@@@@@@@@@@@@@@@@@@@@@@@@@@@@@@@@....@@@@@@@@@@@@@@@@",
"                                                                                ....++++++++++++++++++++++++++++++++++++++++++++....++++++++++++....++++........                                                                                                                                                                                                                                                                                                                                                                                                                                                                                            ....++++++++++++++++++++....++++++++++++++++++++++++++++++++++++++++++++....                                                                                                                                ....++++++++++++++++++++@@@@++++@@@@++++@@@@....++++++++++++++++++++++++++++....@@@@@@@@@@@@@@@@@@@@@@@@@@@@@@@@@@@@@@@@@@@@@@@@@@@@@@@@@@@@@@@@@@@@@@@@@@@@@@@@@@@@....@@@@@@@@@@@@@@@@",
"                                                                                ....++++++++++++++++++++++++++++++++++++++++++++....++++++++++++....++++........                                                                                                                                                                                                                                                                                                                                                                                                                                                                                            ....++++++++++++++++++++....++++++++++++++++++++++++++++++++++++++++++++....                                                                                                                                ....++++++++++++++++++++@@@@++++@@@@++++@@@@....++++++++++++++++++++++++++++....@@@@@@@@@@@@@@@@@@@@@@@@@@@@@@@@@@@@@@@@@@@@@@@@@@@@@@@@@@@@@@@@@@@@@@@@@@@@@@@@@@@@....@@@@@@@@@@@@@@@@",
"                                                                                ....++++++++++++++++++++++++++++++++++++++++++++....++++++++++++....++++........                                                                                                                                                                                                                                                                                                                                                                                                                                                                                            ....++++++++++++++++++++....++++++++++++++++++++++++++++++++++++++++++++....                                                                                                                                ....++++++++++++++++++++@@@@++++@@@@++++@@@@....++++++++++++++++++++++++++++....@@@@@@@@@@@@@@@@@@@@@@@@@@@@@@@@@@@@@@@@@@@@@@@@@@@@@@@@@@@@@@@@@@@@@@@@@@@@@@@@@@@@....@@@@@@@@@@@@@@@@",
"                                                                                    ....@@@@++++@@@@++++@@@@++++@@@@++++@@@@++++....++++++++++++++++....++++....                                                                                                                                                                                                                                                                                                                                                                                                                                                                                                ....++++++++++++++++....++++++++++++++++++++++++++++++++++++++++++++....                                                                                                                                    ....++++++++++++++++++++++++++++++++++++++++....++++++++++++++++++++++++++++....@@@@++++@@@@++++@@@@++++@@@@++++@@@@@@@@@@@@@@@@@@@@@@@@@@@@@@@@@@@@++++@@@@++++....++++@@@@++++@@@@",
"                                                                                    ....@@@@++++@@@@++++@@@@++++@@@@++++@@@@++++....++++++++++++++++....++++....                                                                                                                                                                                                                                                                                                                                                                                                                                                                                                ....++++++++++++++++....++++++++++++++++++++++++++++++++++++++++++++....                                                                                                                                    ....++++++++++++++++++++++++++++++++++++++++....++++++++++++++++++++++++++++....@@@@++++@@@@++++@@@@++++@@@@++++@@@@@@@@@@@@@@@@@@@@@@@@@@@@@@@@@@@@++++@@@@++++....++++@@@@++++@@@@",
"                                                                                    ....@@@@++++@@@@++++@@@@++++@@@@++++@@@@++++....++++++++++++++++....++++....                                                                                                                                                                                                                                                                                                                                                                                                                                                                                                ....++++++++++++++++....++++++++++++++++++++++++++++++++++++++++++++....                                                                                                                                    ....++++++++++++++++++++++++++++++++++++++++....++++++++++++++++++++++++++++....@@@@++++@@@@++++@@@@++++@@@@++++@@@@@@@@@@@@@@@@@@@@@@@@@@@@@@@@@@@@++++@@@@++++....++++@@@@++++@@@@",
"                                                                                    ....@@@@++++@@@@++++@@@@++++@@@@++++@@@@++++....++++++++++++++++....++++....                                                                                                                                                                                                                                                                                                                                                                                                                                                                                                ....++++++++++++++++....++++++++++++++++++++++++++++++++++++++++++++....                                                                                                                                    ....++++++++++++++++++++++++++++++++++++++++....++++++++++++++++++++++++++++....@@@@++++@@@@++++@@@@++++@@@@++++@@@@@@@@@@@@@@@@@@@@@@@@@@@@@@@@@@@@++++@@@@++++....++++@@@@++++@@@@",
"                                                                                    ....++++++++++++++++++++++++++++++++++++++++....++++++++++++++++++++++++....                                                                                                                                                                                                                                                                                                                                                                                                                                                                                                    ....++++++++++++....++++++++++++++++++++++++++++++++++++++++....                                                                                                                                            ....++++++++++++++++++++@@@@++++@@@@++++@@@@....++++++++++++++++++++++++++++........@@@@@@@@@@@@@@@@@@@@@@@@@@@@@@@@@@@@@@@@@@@@@@@@@@@@@@@@@@@@@@@@@@@@@@@@@@@@....@@@@@@@@@@@@",
"                                                                                    ....++++++++++++++++++++++++++++++++++++++++....++++++++++++++++++++++++....                                                                                                                                                                                                                                                                                                                                                                                                                                                                                                    ....++++++++++++....++++++++++++++++++++++++++++++++++++++++....                                                                                                                                            ....++++++++++++++++++++@@@@++++@@@@++++@@@@....++++++++++++++++++++++++++++........@@@@@@@@@@@@@@@@@@@@@@@@@@@@@@@@@@@@@@@@@@@@@@@@@@@@@@@@@@@@@@@@@@@@@@@@@@@@....@@@@@@@@@@@@",
"                                                                                    ....++++++++++++++++++++++++++++++++++++++++....++++++++++++++++++++++++....                                                                                                                                                                                                                                                                                                                                                                                                                                                                                                    ....++++++++++++....++++++++++++++++++++++++++++++++++++++++....                                                                                                                                            ....++++++++++++++++++++@@@@++++@@@@++++@@@@....++++++++++++++++++++++++++++........@@@@@@@@@@@@@@@@@@@@@@@@@@@@@@@@@@@@@@@@@@@@@@@@@@@@@@@@@@@@@@@@@@@@@@@@@@@@....@@@@@@@@@@@@",
"                                                                                    ....++++++++++++++++++++++++++++++++++++++++....++++++++++++++++++++++++....                                                                                                                                                                                                                                                                                                                                                                                                                                                                                                    ....++++++++++++....++++++++++++++++++++++++++++++++++++++++....                                                                                                                                            ....++++++++++++++++++++@@@@++++@@@@++++@@@@....++++++++++++++++++++++++++++........@@@@@@@@@@@@@@@@@@@@@@@@@@@@@@@@@@@@@@@@@@@@@@@@@@@@@@@@@@@@@@@@@@@@@@@@@@@@....@@@@@@@@@@@@",
"                                                                                    ....++++++++++++++++++++++++++++++++++++++++....++++++++++++++++++++++++....                                                                                                                                                                                                                                                                                                                                                                                                                                                                                                    ....++++++++++++....++++++++++++++++++++++++++++++++++++++++....                                                                                                                                                ....++++++++++++++++++++++++++++++++++++++++........++++++++++++++++++++++++++++....++++@@@@++++@@@@++++@@@@++++@@@@@@@@@@@@@@@@@@@@@@@@@@@@++++@@@@++++@@@@....@@@@++++@@@@",
"                                                                                    ....++++++++++++++++++++++++++++++++++++++++....++++++++++++++++++++++++....                                                                                                                                                                                                                                                                                                                                                                                                                                                                                                    ....++++++++++++....++++++++++++++++++++++++++++++++++++++++....                                                                                                                                                ....++++++++++++++++++++++++++++++++++++++++........++++++++++++++++++++++++++++....++++@@@@++++@@@@++++@@@@++++@@@@@@@@@@@@@@@@@@@@@@@@@@@@++++@@@@++++@@@@....@@@@++++@@@@",
"                                                                                    ....++++++++++++++++++++++++++++++++++++++++....++++++++++++++++++++++++....                                                                                                                                                                                                                                                                                                                                                                                                                                                                                                    ....++++++++++++....++++++++++++++++++++++++++++++++++++++++....                                                                                                                                                ....++++++++++++++++++++++++++++++++++++++++........++++++++++++++++++++++++++++....++++@@@@++++@@@@++++@@@@++++@@@@@@@@@@@@@@@@@@@@@@@@@@@@++++@@@@++++@@@@....@@@@++++@@@@",
"                                                                                    ....++++++++++++++++++++++++++++++++++++++++....++++++++++++++++++++++++....                                                                                                                                                                                                                                                                                                                                                                                                                                                                                                    ....++++++++++++....++++++++++++++++++++++++++++++++++++++++....                                                                                                                                                ....++++++++++++++++++++++++++++++++++++++++........++++++++++++++++++++++++++++....++++@@@@++++@@@@++++@@@@++++@@@@@@@@@@@@@@@@@@@@@@@@@@@@++++@@@@++++@@@@....@@@@++++@@@@",
"                                                                                    ....++++++++++++++++++++++++++++++++++++++++++++....++++++++++++++++++++....                                                                                                                                                                                                                                                                                                                                                                                                                                                                                                        ....++++....++++++++++++++++++++........................                                                                                                                                                        ........++++++++++++++++++++++++@@@@++++@@@@++++....++++++++++++++++++++++++++++....++++@@@@@@@@@@@@@@@@@@@@@@@@@@@@@@@@@@@@@@@@@@@@@@@@@@@@@@@@@@@@@@@@@@@@....@@@@@@@@",
"                                                                                    ....++++++++++++++++++++++++++++++++++++++++++++....++++++++++++++++++++....                                                                                                                                                                                                                                                                                                                                                                                                                                                                                                        ....++++....++++++++++++++++++++........................                                                                                                                                                        ........++++++++++++++++++++++++@@@@++++@@@@++++....++++++++++++++++++++++++++++....++++@@@@@@@@@@@@@@@@@@@@@@@@@@@@@@@@@@@@@@@@@@@@@@@@@@@@@@@@@@@@@@@@@@@@....@@@@@@@@",
"                                                                                    ....++++++++++++++++++++++++++++++++++++++++++++....++++++++++++++++++++....                                                                                                                                                                                                                                                                                                                                                                                                                                                                                                        ....++++....++++++++++++++++++++........................                                                                                                                                                        ........++++++++++++++++++++++++@@@@++++@@@@++++....++++++++++++++++++++++++++++....++++@@@@@@@@@@@@@@@@@@@@@@@@@@@@@@@@@@@@@@@@@@@@@@@@@@@@@@@@@@@@@@@@@@@@....@@@@@@@@",
"                                                                                    ....++++++++++++++++++++++++++++++++++++++++++++....++++++++++++++++++++....                                                                                                                                                                                                                                                                                                                                                                                                                                                                                                        ....++++....++++++++++++++++++++........................                                                                                                                                                        ........++++++++++++++++++++++++@@@@++++@@@@++++....++++++++++++++++++++++++++++....++++@@@@@@@@@@@@@@@@@@@@@@@@@@@@@@@@@@@@@@@@@@@@@@@@@@@@@@@@@@@@@@@@@@@@....@@@@@@@@",
"                                                                                    ....++++++++++++++++++++++++++++++++++++++++++++....++++++++++++++++++++....                                                                                                                                                                                                                                                                                                                                                                                                                                                                                                            ............................                                                                                                                                                                                        ....++++++++++++++++++++++++++++++++++++++++....++++++++++++++++++++++++++++........@@@@++++@@@@++++@@@@++++@@@@++++@@@@@@@@@@@@++++@@@@++++@@@@++++....++++@@@@",
"                                                                                    ....++++++++++++++++++++++++++++++++++++++++++++....++++++++++++++++++++....                                                                                                                                                                                                                                                                                                                                                                                                                                                                                                            ............................                                                                                                                                                                                        ....++++++++++++++++++++++++++++++++++++++++....++++++++++++++++++++++++++++........@@@@++++@@@@++++@@@@++++@@@@++++@@@@@@@@@@@@++++@@@@++++@@@@++++....++++@@@@",
"                                                                                    ....++++++++++++++++++++++++++++++++++++++++++++....++++++++++++++++++++....                                                                                                                                                                                                                                                                                                                                                                                                                                                                                                            ............................                                                                                                                                                                                        ....++++++++++++++++++++++++++++++++++++++++....++++++++++++++++++++++++++++........@@@@++++@@@@++++@@@@++++@@@@++++@@@@@@@@@@@@++++@@@@++++@@@@++++....++++@@@@",
"                                                                                    ....++++++++++++++++++++++++++++++++++++++++++++....++++++++++++++++++++....                                                                                                                                                                                                                                                                                                                                                                                                                                                                                                            ............................                                                                                                                                                                                        ....++++++++++++++++++++++++++++++++++++++++....++++++++++++++++++++++++++++........@@@@++++@@@@++++@@@@++++@@@@++++@@@@@@@@@@@@++++@@@@++++@@@@++++....++++@@@@",
"                                                                                    ....++++++++++++++++++++++++++++++++++++++++++++....++++++++++++++++....                                                                                                                                                                                                                                                                                                                                                                                                                                                                                                                                                                                                                                                                                                                                        ....++++++++++++++++++++++++@@@@++++@@@@++++....++++++++++++++++++++++++++++++++....@@@@@@@@@@@@@@@@@@@@@@@@@@@@@@@@@@@@@@@@@@@@@@@@@@@@@@@@@@@@@@@@....@@@@",
"                                                                                    ....++++++++++++++++++++++++++++++++++++++++++++....++++++++++++++++....                                                                                                                                                                                                                                                                                                                                                                                                                                                                                                                                                                                                                                                                                                                                        ....++++++++++++++++++++++++@@@@++++@@@@++++....++++++++++++++++++++++++++++++++....@@@@@@@@@@@@@@@@@@@@@@@@@@@@@@@@@@@@@@@@@@@@@@@@@@@@@@@@@@@@@@@@....@@@@",
"                                                                                    ....++++++++++++++++++++++++++++++++++++++++++++....++++++++++++++++....                                                                                                                                                                                                                                                                                                                                                                                                                                                                                                                                                                                                                                                                                                                                        ....++++++++++++++++++++++++@@@@++++@@@@++++....++++++++++++++++++++++++++++++++....@@@@@@@@@@@@@@@@@@@@@@@@@@@@@@@@@@@@@@@@@@@@@@@@@@@@@@@@@@@@@@@@....@@@@",
"                                                                                    ....++++++++++++++++++++++++++++++++++++++++++++....++++++++++++++++....                                                                                                                                                                                                                                                                                                                                                                                                                                                                                                                                                                                                                                                                                                                                        ....++++++++++++++++++++++++@@@@++++@@@@++++....++++++++++++++++++++++++++++++++....@@@@@@@@@@@@@@@@@@@@@@@@@@@@@@@@@@@@@@@@@@@@@@@@@@@@@@@@@@@@@@@@....@@@@",
"                                                                                        ....++++++++++++++++++++++++++++++++++++++++....++++++++++++....                                                                                                                                                                                                                                                                                                                                                                                                                                                                                                                                                                                                                                                                                                                                                ....++++++++++++++++++++++++++++++++++++++++....++++++++++++++++++++++++++++++++....@@@@++++@@@@++++@@@@++++@@@@++++@@@@++++@@@@++++@@@@++++@@@@....@@@@",
"                                                                                        ....++++++++++++++++++++++++++++++++++++++++....++++++++++++....                                                                                                                                                                                                                                                                                                                                                                                                                                                                                                                                                                                                                                                                                                                                                ....++++++++++++++++++++++++++++++++++++++++....++++++++++++++++++++++++++++++++....@@@@++++@@@@++++@@@@++++@@@@++++@@@@++++@@@@++++@@@@++++@@@@....@@@@",
"                                                                                        ....++++++++++++++++++++++++++++++++++++++++....++++++++++++....                                                                                                                                                                                                                                                                                                                                                                                                                                                                                                                                                                                                                                                                                                                                                ....++++++++++++++++++++++++++++++++++++++++....++++++++++++++++++++++++++++++++....@@@@++++@@@@++++@@@@++++@@@@++++@@@@++++@@@@++++@@@@++++@@@@....@@@@",
"                                                                                        ....++++++++++++++++++++++++++++++++++++++++....++++++++++++....                                                                                                                                                                                                                                                                                                                                                                                                                                                                                                                                                                                                                                                                                                                                                ....++++++++++++++++++++++++++++++++++++++++....++++++++++++++++++++++++++++++++....@@@@++++@@@@++++@@@@++++@@@@++++@@@@++++@@@@++++@@@@++++@@@@....@@@@",
"                                                                                        ....++++++++++++++++++++++++++++++++++++++++....++++++++++++....                                                                                                                                                                                                                                                                                                                                                                                                                                                                                                                                                                                                                                                                                                                                                    ....++++++++++++++++++++++++++++++++@@@@++++........++++++++++++++++++++++++++++........++++@@@@@@@@@@@@@@@@@@@@@@@@@@@@@@@@@@@@@@@@@@@@@@@@....@@@@",
"                                                                                        ....++++++++++++++++++++++++++++++++++++++++....++++++++++++....                                                                                                                                                                                                                                                                                                                                                                                                                                                                                                                                                                                                                                                                                                                                                    ....++++++++++++++++++++++++++++++++@@@@++++........++++++++++++++++++++++++++++........++++@@@@@@@@@@@@@@@@@@@@@@@@@@@@@@@@@@@@@@@@@@@@@@@@....@@@@",
"                                                                                        ....++++++++++++++++++++++++++++++++++++++++....++++++++++++....                                                                                                                                                                                                                                                                                                                                                                                                                                                                                                                                                                                                                                                                                                                                                    ....++++++++++++++++++++++++++++++++@@@@++++........++++++++++++++++++++++++++++........++++@@@@@@@@@@@@@@@@@@@@@@@@@@@@@@@@@@@@@@@@@@@@@@@@....@@@@",
"                                                                                        ....++++++++++++++++++++++++++++++++++++++++....++++++++++++....                                                                                                                                                                                                                                                                                                                                                                                                                                                                                                                                                                                                                                                                                                                                                    ....++++++++++++++++++++++++++++++++@@@@++++........++++++++++++++++++++++++++++........++++@@@@@@@@@@@@@@@@@@@@@@@@@@@@@@@@@@@@@@@@@@@@@@@@....@@@@",
"                                                                                            ........................++++++++++++++++++++....++++....                                                                                                                                                                                                                                                                                                                                                                                                                                                                                                                                                                                                                                                                                                                                                            ....++++++++++++++++++++++++++++++++++++++++++++....++++++++++++++++++++++++++++++++....++++@@@@++++@@@@++++@@@@++++@@@@++++@@@@++++@@@@....@@@@",
"                                                                                            ........................++++++++++++++++++++....++++....                                                                                                                                                                                                                                                                                                                                                                                                                                                                                                                                                                                                                                                                                                                                                            ....++++++++++++++++++++++++++++++++++++++++++++....++++++++++++++++++++++++++++++++....++++@@@@++++@@@@++++@@@@++++@@@@++++@@@@++++@@@@....@@@@",
"                                                                                            ........................++++++++++++++++++++....++++....                                                                                                                                                                                                                                                                                                                                                                                                                                                                                                                                                                                                                                                                                                                                                            ....++++++++++++++++++++++++++++++++++++++++++++....++++++++++++++++++++++++++++++++....++++@@@@++++@@@@++++@@@@++++@@@@++++@@@@++++@@@@....@@@@",
"                                                                                            ........................++++++++++++++++++++....++++....                                                                                                                                                                                                                                                                                                                                                                                                                                                                                                                                                                                                                                                                                                                                                            ....++++++++++++++++++++++++++++++++++++++++++++....++++++++++++++++++++++++++++++++....++++@@@@++++@@@@++++@@@@++++@@@@++++@@@@++++@@@@....@@@@",
"                                                                                                                    ............................                                                                                                                                                                                                                                                                                                                                                                                                                                                                                                                                                                                                                                                                                                                                                                    ....++++++++++++++++++++++++++++++++@@@@++++@@@@....++++++++++++++++++++++++++++++++....++++@@@@@@@@@@@@@@@@@@@@@@@@@@@@@@@@@@@@@@@@....@@@@",
"                                                                                                                    ............................                                                                                                                                                                                                                                                                                                                                                                                                                                                                                                                                                                                                                                                                                                                                                                    ....++++++++++++++++++++++++++++++++@@@@++++@@@@....++++++++++++++++++++++++++++++++....++++@@@@@@@@@@@@@@@@@@@@@@@@@@@@@@@@@@@@@@@@....@@@@",
"                                                                                                                    ............................                                                                                                                                                                                                                                                                                                                                                                                                                                                                                                                                                                                                                                                                                                                                                                    ....++++++++++++++++++++++++++++++++@@@@++++@@@@....++++++++++++++++++++++++++++++++....++++@@@@@@@@@@@@@@@@@@@@@@@@@@@@@@@@@@@@@@@@....@@@@",
"                                                                                                                    ............................                                                                                                                                                                                                                                                                                                                                                                                                                                                                                                                                                                                                                                                                                                                                                                    ....++++++++++++++++++++++++++++++++@@@@++++@@@@....++++++++++++++++++++++++++++++++....++++@@@@@@@@@@@@@@@@@@@@@@@@@@@@@@@@@@@@@@@@....@@@@",
"                                                                                                                                                                                                                                                                                                                                                                                                                                                                                                                                                                                                                                                                                                                                                                                                                                                                                                                        ....++++++++++++++++++++++++++++++++++++++++++++....++++++++++++++++++++++++++++....@@@@++++@@@@++++@@@@++++@@@@++++@@@@++++@@@@....@@@@",
"                                                                                                                                                                                                                                                                                                                                                                                                                                                                                                                                                                                                                                                                                                                                                                                                                                                                                                                        ....++++++++++++++++++++++++++++++++++++++++++++....++++++++++++++++++++++++++++....@@@@++++@@@@++++@@@@++++@@@@++++@@@@++++@@@@....@@@@",
"                                                                                                                                                                                                                                                                                                                                                                                                                                                                                                                                                                                                                                                                                                                                                                                                                                                                                                                        ....++++++++++++++++++++++++++++++++++++++++++++....++++++++++++++++++++++++++++....@@@@++++@@@@++++@@@@++++@@@@++++@@@@++++@@@@....@@@@",
"                                                                                                                                                                                                                                                                                                                                                                                                                                                                                                                                                                                                                                                                                                                                                                                                                                                                                                                        ....++++++++++++++++++++++++++++++++++++++++++++....++++++++++++++++++++++++++++....@@@@++++@@@@++++@@@@++++@@@@++++@@@@++++@@@@....@@@@",
"                                                                                                                                                                                                                                                                                                                                                                                                                                                                                                                                                                                                                                                                                                                                                                                                                                                                                                                            ....++++++++++++++++++++++++++++++++@@@@++++@@@@....++++++++++++++++++++++++....++++@@@@++++@@@@@@@@@@@@@@@@@@@@@@@@@@@@@@@@....@@@@",
"                                                                                                                                                                                                                                                                                                                                                                                                                                                                                                                                                                                                                                                                                                                                                                                                                                                                                                                            ....++++++++++++++++++++++++++++++++@@@@++++@@@@....++++++++++++++++++++++++....++++@@@@++++@@@@@@@@@@@@@@@@@@@@@@@@@@@@@@@@....@@@@",
"                                                                                                                                                                                                                                                                                                                                                                                                                                                                                                                                                                                                                                                                                                                                                                                                                                                                                                                            ....++++++++++++++++++++++++++++++++@@@@++++@@@@....++++++++++++++++++++++++....++++@@@@++++@@@@@@@@@@@@@@@@@@@@@@@@@@@@@@@@....@@@@",
"                                                                                                                                                                                                                                                                                                                                                                                                                                                                                                                                                                                                                                                                                                                                                                                                                                                                                                                            ....++++++++++++++++++++++++++++++++@@@@++++@@@@....++++++++++++++++++++++++....++++@@@@++++@@@@@@@@@@@@@@@@@@@@@@@@@@@@@@@@....@@@@",
"                                                                                                                                                                                                                                                                                                                                                                                                                                                                                                                                                                                                                                                                                                                                                                                                                                                                                                                                ....++++++++++++++++++++++++++++++++++++++++++++........++++++++++++++++....@@@@++++@@@@++++@@@@++++@@@@++++@@@@++++@@@@++++....",
"                                                                                                                                                                                                                                                                                                                                                                                                                                                                                                                                                                                                                                                                                                                                                                                                                                                                                                                                ....++++++++++++++++++++++++++++++++++++++++++++........++++++++++++++++....@@@@++++@@@@++++@@@@++++@@@@++++@@@@++++@@@@++++....",
"                                                                                                                                                                                                                                                                                                                                                                                                                                                                                                                                                                                                                                                                                                                                                                                                                                                                                                                                ....++++++++++++++++++++++++++++++++++++++++++++........++++++++++++++++....@@@@++++@@@@++++@@@@++++@@@@++++@@@@++++@@@@++++....",
"                                                                                                                                                                                                                                                                                                                                                                                                                                                                                                                                                                                                                                                                                                                                                                                                                                                                                                                                ....++++++++++++++++++++++++++++++++++++++++++++........++++++++++++++++....@@@@++++@@@@++++@@@@++++@@@@++++@@@@++++@@@@++++....",
"                                                                                                                                                                                                                                                                                                                                                                                                                                                                                                                                                                                                                                                                                                                                                                                                                                                                                                                                    ....++++++++++++++++++++++++++++++++++++++++@@@@++++....++++++++++++....++++@@@@++++@@@@++++@@@@++++@@@@@@@@@@@@@@@@@@@@....",
"                                                                                                                                                                                                                                                                                                                                                                                                                                                                                                                                                                                                                                                                                                                                                                                                                                                                                                                                    ....++++++++++++++++++++++++++++++++++++++++@@@@++++....++++++++++++....++++@@@@++++@@@@++++@@@@++++@@@@@@@@@@@@@@@@@@@@....",
"                                                                                                                                                                                                                                                                                                                                                                                                                                                                                                                                                                                                                                                                                                                                                                                                                                                                                                                                    ....++++++++++++++++++++++++++++++++++++++++@@@@++++....++++++++++++....++++@@@@++++@@@@++++@@@@++++@@@@@@@@@@@@@@@@@@@@....",
"                                                                                                                                                                                                                                                                                                                                                                                                                                                                                                                                                                                                                                                                                                                                                                                                                                                                                                                                    ....++++++++++++++++++++++++++++++++++++++++@@@@++++....++++++++++++....++++@@@@++++@@@@++++@@@@++++@@@@@@@@@@@@@@@@@@@@....",
"                                                                                                                                                                                                                                                                                                                                                                                                                                                                                                                                                                                                                                                                                                                                                                                                                                                                                                                                        ....++++++++++++++++++++++++++++++++++++++++++++++++........++++....++++++++@@@@++++@@@@++++@@@@++++@@@@++++@@@@++++....",
"                                                                                                                                                                                                                                                                                                                                                                                                                                                                                                                                                                                                                                                                                                                                                                                                                                                                                                                                        ....++++++++++++++++++++++++++++++++++++++++++++++++........++++....++++++++@@@@++++@@@@++++@@@@++++@@@@++++@@@@++++....",
"                                                                                                                                                                                                                                                                                                                                                                                                                                                                                                                                                                                                                                                                                                                                                                                                                                                                                                                                        ....++++++++++++++++++++++++++++++++++++++++++++++++........++++....++++++++@@@@++++@@@@++++@@@@++++@@@@++++@@@@++++....",
"                                                                                                                                                                                                                                                                                                                                                                                                                                                                                                                                                                                                                                                                                                                                                                                                                                                                                                                                        ....++++++++++++++++++++++++++++++++++++++++++++++++........++++....++++++++@@@@++++@@@@++++@@@@++++@@@@++++@@@@++++....",
"                                                                                                                                                                                                                                                                                                                                                                                                                                                                                                                                                                                                                                                                                                                                                                                                                                                                                                                                            ....++++++++++++++++++++++++++++++++++++++++@@@@++++@@@@....@@@@++++@@@@++++@@@@++++@@@@++++@@@@++++@@@@@@@@@@@@....",
"                                                                                                                                                                                                                                                                                                                                                                                                                                                                                                                                                                                                                                                                                                                                                                                                                                                                                                                                            ....++++++++++++++++++++++++++++++++++++++++@@@@++++@@@@....@@@@++++@@@@++++@@@@++++@@@@++++@@@@++++@@@@@@@@@@@@....",
"                                                                                                                                                                                                                                                                                                                                                                                                                                                                                                                                                                                                                                                                                                                                                                                                                                                                                                                                            ....++++++++++++++++++++++++++++++++++++++++@@@@++++@@@@....@@@@++++@@@@++++@@@@++++@@@@++++@@@@++++@@@@@@@@@@@@....",
"                                                                                                                                                                                                                                                                                                                                                                                                                                                                                                                                                                                                                                                                                                                                                                                                                                                                                                                                            ....++++++++++++++++++++++++++++++++++++++++@@@@++++@@@@....@@@@++++@@@@++++@@@@++++@@@@++++@@@@++++@@@@@@@@@@@@....",
"                                                                                                                                                                                                                                                                                                                                                                                                                                                                                                                                                                                                                                                                                                                                                                                                                                                                                                                                                ....++++++++++++++++++++++++++++++++++++++++++++++++++++++++++++++++++++++++@@@@++++@@@@++++@@@@++++@@@@++++....",
"                                                                                                                                                                                                                                                                                                                                                                                                                                                                                                                                                                                                                                                                                                                                                                                                                                                                                                                                                ....++++++++++++++++++++++++++++++++++++++++++++++++++++++++++++++++++++++++@@@@++++@@@@++++@@@@++++@@@@++++....",
"                                                                                                                                                                                                                                                                                                                                                                                                                                                                                                                                                                                                                                                                                                                                                                                                                                                                                                                                                ....++++++++++++++++++++++++++++++++++++++++++++++++++++++++++++++++++++++++@@@@++++@@@@++++@@@@++++@@@@++++....",
"                                                                                                                                                                                                                                                                                                                                                                                                                                                                                                                                                                                                                                                                                                                                                                                                                                                                                                                                                ....++++++++++++++++++++++++++++++++++++++++++++++++++++++++++++++++++++++++@@@@++++@@@@++++@@@@++++@@@@++++....",
"                                                                                                                                                                                                                                                                                                                                                                                                                                                                                                                                                                                                                                                                                                                                                                                                                                                                                                                                                    ....++++++++++++++++++++++++++++++++++++++++@@@@++++@@@@++++@@@@++++@@@@++++@@@@++++@@@@++++@@@@++++@@@@....",
"                                                                                                                                                                                                                                                                                                                                                                                                                                                                                                                                                                                                                                                                                                                                                                                                                                                                                                                                                    ....++++++++++++++++++++++++++++++++++++++++@@@@++++@@@@++++@@@@++++@@@@++++@@@@++++@@@@++++@@@@++++@@@@....",
"                                                                                                                                                                                                                                                                                                                                                                                                                                                                                                                                                                                                                                                                                                                                                                                                                                                                                                                                                    ....++++++++++++++++++++++++++++++++++++++++@@@@++++@@@@++++@@@@++++@@@@++++@@@@++++@@@@++++@@@@++++@@@@....",
"                                                                                                                                                                                                                                                                                                                                                                                                                                                                                                                                                                                                                                                                                                                                                                                                                                                                                                                                                    ....++++++++++++++++++++++++++++++++++++++++@@@@++++@@@@++++@@@@++++@@@@++++@@@@++++@@@@++++@@@@++++@@@@....",
"                                                                                                                                                                                                                                                                                                                                                                                                                                                                                                                                                                                                                                                                                                                                                                                                                                                                                                                                                        ....++++++++++++++++++++++++++++++++++++++++++++++++++++++++++++++++++++++++@@@@++++@@@@++++@@@@++++....",
"                                                                                                                                                                                                                                                                                                                                                                                                                                                                                                                                                                                                                                                                                                                                                                                                                                                                                                                                                        ....++++++++++++++++++++++++++++++++++++++++++++++++++++++++++++++++++++++++@@@@++++@@@@++++@@@@++++....",
"                                                                                                                                                                                                                                                                                                                                                                                                                                                                                                                                                                                                                                                                                                                                                                                                                                                                                                                                                        ....++++++++++++++++++++++++++++++++++++++++++++++++++++++++++++++++++++++++@@@@++++@@@@++++@@@@++++....",
"                                                                                                                                                                                                                                                                                                                                                                                                                                                                                                                                                                                                                                                                                                                                                                                                                                                                                                                                                        ....++++++++++++++++++++++++++++++++++++++++++++++++++++++++++++++++++++++++@@@@++++@@@@++++@@@@++++....",
"                                                                                                                                                                                                                                                                                                                                                                                                                                                                                                                                                                                                                                                                                                                                                                                                                                                                                                                                                            ....++++++++++++++++++++++++++++++++++++++++++++++++@@@@++++@@@@++++@@@@++++@@@@++++@@@@++++@@@@....",
"                                                                                                                                                                                                                                                                                                                                                                                                                                                                                                                                                                                                                                                                                                                                                                                                                                                                                                                                                            ....++++++++++++++++++++++++++++++++++++++++++++++++@@@@++++@@@@++++@@@@++++@@@@++++@@@@++++@@@@....",
"                                                                                                                                                                                                                                                                                                                                                                                                                                                                                                                                                                                                                                                                                                                                                                                                                                                                                                                                                            ....++++++++++++++++++++++++++++++++++++++++++++++++@@@@++++@@@@++++@@@@++++@@@@++++@@@@++++@@@@....",
"                                                                                                                                                                                                                                                                                                                                                                                                                                                                                                                                                                                                                                                                                                                                                                                                                                                                                                                                                            ....++++++++++++++++++++++++++++++++++++++++++++++++@@@@++++@@@@++++@@@@++++@@@@++++@@@@++++@@@@....",
"                                                                                                                                                                                                                                                                                                                                                                                                                                                                                                                                                                                                                                                                                                                                                                                                                                                                                                                                                                ........++++++++++++++++++++++++++++++++++++++++++++++++++++++++++++++++++++++++++++@@@@++++....",
"                                                                                                                                                                                                                                                                                                                                                                                                                                                                                                                                                                                                                                                                                                                                                                                                                                                                                                                                                                ........++++++++++++++++++++++++++++++++++++++++++++++++++++++++++++++++++++++++++++@@@@++++....",
"                                                                                                                                                                                                                                                                                                                                                                                                                                                                                                                                                                                                                                                                                                                                                                                                                                                                                                                                                                ........++++++++++++++++++++++++++++++++++++++++++++++++++++++++++++++++++++++++++++@@@@++++....",
"                                                                                                                                                                                                                                                                                                                                                                                                                                                                                                                                                                                                                                                                                                                                                                                                                                                                                                                                                                ........++++++++++++++++++++++++++++++++++++++++++++++++++++++++++++++++++++++++++++@@@@++++....",
"                                                                                                                                                                                                                                                                                                                                                                                                                                                                                                                                                                                                                                                                                                                                                                                                                                                                                                                                                                        ....++++++++++++++++++++++++++++++++++++++++++++@@@@++++@@@@++++@@@@++++@@@@++++@@@@....",
"                                                                                                                                                                                                                                                                                                                                                                                                                                                                                                                                                                                                                                                                                                                                                                                                                                                                                                                                                                        ....++++++++++++++++++++++++++++++++++++++++++++@@@@++++@@@@++++@@@@++++@@@@++++@@@@....",
"                                                                                                                                                                                                                                                                                                                                                                                                                                                                                                                                                                                                                                                                                                                                                                                                                                                                                                                                                                        ....++++++++++++++++++++++++++++++++++++++++++++@@@@++++@@@@++++@@@@++++@@@@++++@@@@....",
"                                                                                                                                                                                                                                                                                                                                                                                                                                                                                                                                                                                                                                                                                                                                                                                                                                                                                                                                                                        ....++++++++++++++++++++++++++++++++++++++++++++@@@@++++@@@@++++@@@@++++@@@@++++@@@@....",
"                                                                                                                                                                                                                                                                                                                                                                                                                                                                                                                                                                                                                                                                                                                                                                                                                                                                                                                                                                            ....++++++++++++++++++++++++++++++++++++++++++++++++++++++++++++++++++++++++++++....",
"                                                                                                                                                                                                                                                                                                                                                                                                                                                                                                                                                                                                                                                                                                                                                                                                                                                                                                                                                                            ....++++++++++++++++++++++++++++++++++++++++++++++++++++++++++++++++++++++++++++....",
"                                                                                                                                                                                                                                                                                                                                                                                                                                                                                                                                                                                                                                                                                                                                                                                                                                                                                                                                                                            ....++++++++++++++++++++++++++++++++++++++++++++++++++++++++++++++++++++++++++++....",
"                                                                                                                                                                                                                                                                                                                                                                                                                                                                                                                                                                                                                                                                                                                                                                                                                                                                                                                                                                            ....++++++++++++++++++++++++++++++++++++++++++++++++++++++++++++++++++++++++++++....",
"                                                                                                                                                                                                                                                                                                                                                                                                                                                                                                                                                                                                                                                                                                                                                                                                                                                                                                                                                                                ....++++++++++++++++++++++++++++++++++++++++++++++++++++@@@@++++@@@@++++....####",
"                                                                                                                                                                                                                                                                                                                                                                                                                                                                                                                                                                                                                                                                                                                                                                                                                                                                                                                                                                                ....++++++++++++++++++++++++++++++++++++++++++++++++++++@@@@++++@@@@++++....####",
"                                                                                                                                                                                                                                                                                                                                                                                                                                                                                                                                                                                                                                                                                                                                                                                                                                                                                                                                                                                ....++++++++++++++++++++++++++++++++++++++++++++++++++++@@@@++++@@@@++++....####",
"                                                                                                                                                                                                                                                                                                                                                                                                                                                                                                                                                                                                                                                                                                                                                                                                                                                                                                                                                                                ....++++++++++++++++++++++++++++++++++++++++++++++++++++@@@@++++@@@@++++....####",
"                                                                                                                                                                                                                                                                                                                                                                                                                                                                                                                                                                                                                                                                                                                                                                                                                                                                                                                                                                                    ....++++++++++++++++++++++++++++++++++++++++++++++++++++++++++++++++....####",
"                                                                                                                                                                                                                                                                                                                                                                                                                                                                                                                                                                                                                                                                                                                                                                                                                                                                                                                                                                                    ....++++++++++++++++++++++++++++++++++++++++++++++++++++++++++++++++....####",
"                                                                                                                                                                                                                                                                                                                                                                                                                                                                                                                                                                                                                                                                                                                                                                                                                                                                                                                                                                                    ....++++++++++++++++++++++++++++++++++++++++++++++++++++++++++++++++....####",
"                                                                                                                                                                                                                                                                                                                                                                                                                                                                                                                                                                                                                                                                                                                                                                                                                                                                                                                                                                                    ....++++++++++++++++++++++++++++++++++++++++++++++++++++++++++++++++....####",
"                                                                                                                                                                                                                                                                                                                                                                                                                                                                                                                                                                                                                                                                                                                                                                                                                                                                                                                                                                                        ....++++++++++++++++++++++++++++++++++++++++++++++++++++@@@@++++....####",
"                                                                                                                                                                                                                                                                                                                                                                                                                                                                                                                                                                                                                                                                                                                                                                                                                                                                                                                                                                                        ....++++++++++++++++++++++++++++++++++++++++++++++++++++@@@@++++....####",
"                                                                                                                                                                                                                                                                                                                                                                                                                                                                                                                                                                                                                                                                                                                                                                                                                                                                                                                                                                                        ....++++++++++++++++++++++++++++++++++++++++++++++++++++@@@@++++....####",
"                                                                                                                                                                                                                                                                                                                                                                                                                                                                                                                                                                                                                                                                                                                                                                                                                                                                                                                                                                                        ....++++++++++++++++++++++++++++++++++++++++++++++++++++@@@@++++....####",
"                                                                                                                                                                                                                                                                                                                                                                                                                                                                                                                                                                                                                                                                                                                                                                                                                                                                                                                                                                                            ....++++++++++++++++++++++++++++++++++++++++++++++++++++++++....####",
"                                                                                                                                                                                                                                                                                                                                                                                                                                                                                                                                                                                                                                                                                                                                                                                                                                                                                                                                                                                            ....++++++++++++++++++++++++++++++++++++++++++++++++++++++++....####",
"                                                                                                                                                                                                                                                                                                                                                                                                                                                                                                                                                                                                                                                                                                                                                                                                                                                                                                                                                                                            ....++++++++++++++++++++++++++++++++++++++++++++++++++++++++....####",
"                                                                                                                                                                                                                                                                                                                                                                                                                                                                                                                                                                                                                                                                                                                                                                                                                                                                                                                                                                                            ....++++++++++++++++++++++++++++++++++++++++++++++++++++++++....####",
"                                                                                                                                                                                                                                                                                                                                                                                                                                                                                                                                                                                                                                                                                                                                                                                                                                                                                                                                                                                                ....++++++++++++++++++++++++++++++++++++++++++++++++++++....++++",
"                                                                                                                                                                                                                                                                                                                                                                                                                                                                                                                                                                                                                                                                                                                                                                                                                                                                                                                                                                                                ....++++++++++++++++++++++++++++++++++++++++++++++++++++....++++",
"                                                                                                                                                                                                                                                                                                                                                                                                                                                                                                                                                                                                                                                                                                                                                                                                                                                                                                                                                                                                ....++++++++++++++++++++++++++++++++++++++++++++++++++++....++++",
"                                                                                                                                                                                                                                                                                                                                                                                                                                                                                                                                                                                                                                                                                                                                                                                                                                                                                                                                                                                                ....++++++++++++++++++++++++++++++++++++++++++++++++++++....++++"};
