/* XPM */
static char * xeno7_xpm[] = {
"78 119 7 1",
" 	c None",
".	c #000000",
"+	c #262626",
"@	c #5D5D5D",
"#	c #343434",
"$	c #737373",
"%	c #565754",
"                             .          .                                     ",
"                            +..        ..                                     ",
"                           .++..       ...     .                              ",
"                            .+...      ...    ...                             ",
"                             ++...     ...   .....                            ",
"                             .+...    ..... ......                            ",
"                             .+...    ..+........                             ",
"                           +..+...   ..+.........                             ",
"                          ++..+...   .+.........                              ",
"                          .+..+.... .+..........                              ",
"                           +..+.....+...........                              ",
"                            +.+.....+..............                           ",
"                            .++....+................                          ",
"                            .+.....+.................                         ",
"                            ++.....+..................                        ",
"                           ++.....+...................                        ",
"                          +++.....+...................                        ",
"                         ++++.....+...................                        ",
"                       ++.+++.....++..................                        ",
"                      ++..+++.....++..................                        ",
"                     ++....++.....+++..................                       ",
"                    ++......+.....+++...................                      ",
"                   ++.......+......+++...................                     ",
"                   ++.......+......+++...................                     ",
"                  ++........++.....+++....................                    ",
"                  ++.........+.....++.....................                    ",
"                  ++..........+....++.....................                    ",
"                  +................++.....................                    ",
"                  +................++........... .........                    ",
"                  +................+++.......... .........                    ",
"                 ++................+++.......... .........                    ",
"                 ++.................+++........   ........                    ",
"                ++...................+++......    ........                    ",
"                ++...................+@++...#.    ........                    ",
"               ++....................+@$+++$@.     .......                    ",
"               ++..... ...............#$$$$$#       .......                   ",
"              ++...... ...............+@...@.       .......                   ",
"              ++.....  ...............++.....       ........                  ",
"             ++......  ................+%$%.        ........                  ",
"             ++.....   ................++...        +........                 ",
"            ++.....   +.................+...         ........                 ",
"            +.....    +.....................         ........                 ",
"            +.....   ++......................        ........                 ",
"           +......   ++......................        +.......                 ",
"           +......  +++.......................       +........                ",
"          ++......  ++........................        ........                ",
"          +......  +++........................        ........                ",
"         ++......  +++........................        +.......                ",
"         +......   ++.........................         .......                ",
"         +......  +++.........................         ........               ",
"        +......   +++.........................          .......               ",
"        +.....    ++...........................         .......               ",
"        +.....    ++.......... ................         +.......              ",
"        +....     ++.........      .+..........          .......              ",
"       +....      ++.........      .+..........          .......              ",
"       +....     ++.........        +..........          .......              ",
"       +...      ++.........        +...........         +......              ",
"       +...      +.........         .+..........        ++......              ",
"      +...      ++.........          +..........        ++......              ",
"      +...      ++........           +..........        ++......              ",
"     +...       ++........           +..........        ++......              ",
"     +...       ++.......            +..........        +......               ",
"     +...      +++.......             ..........        +......               ",
"    +...       +++.......             +.........        +......               ",
"    +...       ++........             +.........        +......               ",
"    +...       ++........             +.........        +.....                ",
"    +...       +.........             +.........        ......                ",
"    +...        .........              .........        ......                ",
"    +....       ..........             .........       +.....                 ",
"    +....        .........             ........        +.....                 ",
"    +.....        .........            +.......        ......                 ",
"    +.....         ........            +.......        .....                  ",
"   +......          .......             .......        .....                  ",
"   +.......         ........            +......        ....                   ",
"   +...  ..          .......            +......        ....                   ",
"  ++..   ..          .......            +......        ....                   ",
"  +...   ..           ......           ++......       ....                    ",
" ++..     .           ......           +++.....       ....                    ",
"+++....                ....            +++.....      .....                    ",
"++....                 +...           ++++....+...........                    ",
"++.                    +...          ++++....++..........                     ",
"...                    +...          +++...++............                     ",
"...                    +...          ++...++.. .........                      ",
". ..                  ++...          ++..++..   ........                      ",
"  ..                  +....          +......    .......                       ",
"   ..                 +....          +......    .......                       ",
"    .                 +...           +.....     .......                       ",
"                     ++...           +.....     ......                        ",
"                     +....           +....      .. ...                        ",
"                     +.....          +...      ... ...                        ",
"                     +.....          +...      ..  ...                        ",
"                     +.....          +...     ...   ...                       ",
"                     +.....          +...    ...    ...                       ",
"                    ++.+....        ++...   ....   ....                       ",
"                    ++++....        ++...   ...    ...                        ",
"                    ++++. ..        ++...  ...     ...                        ",
"                   +++++.  .        +++..  ..     ...                         ",
"                   .++++.           +++...       ...                          ",
"                  ..++++.           +++...    .....                           ",
"                  ...++..           +++...      ..                            ",
"                  ......            .++....                                   ",
"                    .. .            .++....                                   ",
"                                     +++....                                  ",
"                                     .++....                                  ",
"                                     .+++....                                 ",
"                                     . .+.....                                ",
"                                        .......                               ",
"                                         ..                                   ",
"                                                                              ",
"                                                                              ",
"                                                                              ",
"                                                                              ",
"                                                                              ",
"                                                                              ",
"                                                                              ",
"                                                                              ",
"                                                                              ",
"                                                                              ",
"                                                                              "};
