/* XPM */
static char * xeno6_xpm[] = {
"78 119 4 1",
" 	c None",
".	c #000000",
"+	c #262626",
"@	c #565754",
"                                                                              ",
"                                                                              ",
"                       .              +..                                     ",
"                       +.            +....                                    ",
"                       +.. +.       +......                                   ",
"                       +.. +..     +........                                  ",
"                       ++...+.    +..........                                 ",
"                        +......   +..........                                 ",
"              +..       +....... +............                                ",
"              ++...      +.......+............                                ",
"              +++...     ++......+............                                ",
"               +++....    +.....+..............                               ",
"                 ++....   ++....+..............                               ",
"             +...+++....  ++....+..............                               ",
"             +++..++.......+....++.............                               ",
"              +++..++...+..+....++.............                               ",
"               ++...+.++........+++.............                              ",
"                +....+++........+++..............                             ",
"                 +...+++.........+++.............                             ",
"                 +....++.........+++..............                            ",
"                  +...+++........+++..............                            ",
"                  ++..+++........++...............                            ",
"                   ++..+++.......++................                           ",
"                    +.++++.......++.................                          ",
"                     +++.+.......++.................                          ",
"                    +++..++......+++.................                         ",
"                    ++....+......+++.................                         ",
"                   +++.....+......+++........ .......                         ",
"                   ++.......+......+++......   .......                        ",
"                  +++..............+@++...@.   .......                        ",
"                  ++...............+@@@@@@@.    ......                        ",
"                  ++................+@...@.     .......                       ",
"                  ++................+@...@.      ......                       ",
"                  ++................++.....       ......                      ",
"                  ++.................+@@@.         .....                      ",
"                 +++.................++...         ......                     ",
"                 ++...................+...         +.....                     ",
"                ++........................         +......                    ",
"                ++........................         ++.....                    ",
"               ++..........................         +......                   ",
"               ++..........................         ++.....                   ",
"               ++.....+.....................         +......                  ",
"               +......+.....................          +.....                  ",
"              ++......+.....................           +.....                 ",
"              +......++.....................            +....                 ",
"             ++.....++......................            ++....                ",
"             +.....++.......................             ++...                ",
"            +......++.......................              +...                ",
"            +..... +........................               +...               ",
"           +.....  +........................               +...               ",
"           +....   +........................                +...              ",
"          ++.....  +........................                +...              ",
"          +++..... +............  ..........                 +...             ",
"          +++......+..........    +........                  +...             ",
"           ++................     +........                  +...             ",
"            ++...............     ++.......                   ...             ",
"             ++..............     ++.......                  +...             ",
"              ++.............     ++.......                 +.....            ",
"               ++............     ++.......                 .......           ",
"                ++...........      +.......                +.......           ",
"                 ++..........      +.......                .........          ",
"                  ++........    ...++......                ..  ......         ",
"                   ++......................                .     ....         ",
"                    ++............++.......                .      ....        ",
"                    +++......... .+.......                         ...        ",
"                    +..+........ .+.......                          ..        ",
"                    +...+.................                          ..        ",
"                     +...+..+.............                          ..        ",
"                     +....+..++..........                          ..         ",
"                     +.....+..++.........                                     ",
"                     ++....++...+........                                     ",
"                      +....++....++......                                     ",
"                       ....++......+++...                                     ",
"                          ++.............                                     ",
"                           ++............                                     ",
"                            .++.........                                      ",
"                            ...+++++....                                      ",
"                            ............                                      ",
"                            ............                                      ",
"                           .............                                      ",
"                           ............                                       ",
"                           ............                                       ",
"                          .............                                       ",
"                          ............                                        ",
"                          ............                                        ",
"                           ...........                                        ",
"                           ... +......                                        ",
"                            .  +.....                                         ",
"                               +.....                                         ",
"                               +.....                                         ",
"                               +.....                                         ",
"                               +....                                          ",
"                               +....                                          ",
"                               +....                                          ",
"                              +.....                                          ",
"                              +.....                                          ",
"                              +....                                           ",
"                              +....                                           ",
"                              +....                                           ",
"                              +....                                           ",
"                              +....                                           ",
"                              +....                                           ",
"                              +...                                            ",
"                              +...                                            ",
"                              +...                                            ",
"                              +...                                            ",
"                              +...                                            ",
"                              +...                                            ",
"                             +....                                            ",
"                             +.....                                           ",
"                             +.....                                           ",
"                            ++......                                          ",
"                            ++......                                          ",
"                            ++......                                          ",
"                            +........                                         ",
"                           .+........                                         ",
"                           .+.........                                        ",
"                             ..........                                       ",
"                                .. .....                                      "};
