/* XPM */
static char * xeno3_xpm[] = {
"78 119 4 1",
" 	c None",
".	c #262626",
"+	c #000000",
"@	c #565754",
"                                                                              ",
"                                                                              ",
"                                              .                               ",
"                                             ..                               ",
"                                             ..         ..                    ",
"                                            ..+        ....                   ",
"                                    .++     ..+       .....+                  ",
"                                   .++++    .++      .....++                  ",
"                                  .++++++  ..++     .....+++                  ",
"                                 .++++++++++++      ...++++                   ",
"                                .+++++++++++++     ...+++++                   ",
"                                .+++++++++++++     ..+++++++                  ",
"                               .++++++++++++++     ..+++++++                  ",
"                               .++++++++++++++    ..+++++++                   ",
"                               .+++++++++++++++   ..++++++                    ",
"                              .++++++++++++++++  ..++++++                     ",
"                              .+++++++++++++++++ .+++++++                     ",
"                              .+++++++++++++++++++++++++                      ",
"                             ...++++++++++++++++++++++++                      ",
"                           ..+..++++++++++++++++++++++++                      ",
"                           .++...+++++++++++++++++++++++                      ",
"                          ..++...++++++++++++++++++++++++                     ",
"                          .++++...+++++++++++++++++++++++                     ",
"                         ..++++...++++++++++++++++++++++++                    ",
"                         .+++++...+++++++++++++++++++++++++                   ",
"                         .+++++..++++++++++++++++++++++++++                   ",
"                         .+++++..++++++++++++++++++++++++++                   ",
"                         .+++++..+++++++++++++++++++++++++++                  ",
"                         ++++++..+++++++++++++++++++++++++++                  ",
"                        .++++++...+++++++++++++++++++++++++++                 ",
"                        .++++++...+++++++++++++++++++++++++++                 ",
"                       .++++++  ...++++++++++++++++++++++++++                 ",
"                       .++++++   ...+++++++++++++++++++++++++                 ",
"                       .++++++   .@..+++@+++++++++++++++++++++                ",
"                      .+++++++   .@@@@@@@+++++++++++++++++++++                ",
"                      .++++++     .@+++@+++++++++++++++++++++++               ",
"                      .++++++     .@+++@+++++++++++++++++++++++               ",
"                     .+++++++     ..++++++++++++++++++++++++++++              ",
"                     .++++++       .@@@++++++++++++++++++++++++++             ",
"                    .+++++++       ..+++++++++++++++++++++++++++++            ",
"                    .++++++         .+++++++++++++++++++++++++++++            ",
"                    +++++++         .+++++++++++++++++++++++++++++            ",
"                    +++++++         .+++++++++++++++++++++++++++++            ",
"                   .++++++         ..++++++++++++++++++++++++++++++           ",
"                   +++++++         ..++++++++++++++++++++++++++++++           ",
"                   ++++++          ..++++++++++++++++++++++++++++++           ",
"                  .+++++           ..++++++++++++++++++++++++++++++           ",
"                  ++++++          ...++++++++++++++++++++++++++++++           ",
"                 .++++++          ..+++++++++++++++++++++++++++++++           ",
"                 .+++++           ..+++++++++++++++++++++++++++++++           ",
"                 ++++++           ..+++++++++++++++++++++++++++++++           ",
"                .++++++           ..+++++++++++++++++++++++++++++++           ",
"               .+++++++           ..+++++++++ ++++++++++++++++++++++          ",
"               .+++++++           ..+++++++++    +++++++++++++++++++          ",
"               .++++++            ..+++++++++     ++++++++++++++++++          ",
"              .+++++++            ..+++++++++     ++++++++++++++++++          ",
"              .++++++             ..+++++++++      +++++++++++++++++          ",
"              .++++++             ..++++++++       +++++++++++++++++          ",
"             .++++++              ..++++++++       +++++++++++++++++          ",
"             .++++++               .++++++++        ++++++++++++++++          ",
"             .+++++                .++++++++        ++++++++++++++++          ",
"            ..+++++                .+++++++         ++++++++++++++++          ",
"            ..++++                 .+++++++          +++++++++++++++          ",
"            .+++++                 .+++++++          +++++++++++++++          ",
"            .++++                  .+++++++           ++++++++++++++          ",
"            .++++                  .+++++++           ++++++++++++++          ",
"            .++++                  .++++++            ++++++++++++++          ",
"            .+++                   .++++++            +++++++++++++           ",
"            .+++                   ++++++++          ++++++++++++++           ",
"            .+++                   ++++++++          ++++++++++++++           ",
"            .+++                   .++++++++         .+++++++++++++           ",
"            .+++                   .++++++++         .+++++++++++++           ",
"            .++++                   ++++++++         .+++++++++++++           ",
"            ..++++                  .+++++++         .+++++++++++++           ",
"            ...++++                 .+++++++         .+++++++++++++           ",
"             ..++++++               .+++++++         .+++++++++++++           ",
"             ..+++++++               .++++++        ..++++++++ ++++           ",
"             ...+++++++              .++++++        ..++++ ++   +++           ",
"             .+.++   ++              .+++++++       ..++++  +   +++           ",
"             .+++     +               .++++++       ..++++      +++           ",
"            ..++                      .++++++       ..++++      +++           ",
"            ..+                        .+++++      ...+++++     ++++          ",
"           ..++                        .+++++      ...+++++     ++++          ",
"           ..+                         .+++++      . ++++++     +++++         ",
"           ..+                          .++++        .+++++      ++++         ",
"          ...+                          .++++        .+++++      ++++         ",
"          ...++                         .++++         ++++      ++++          ",
"          ....+                         ..+++         +++       ++++          ",
"           . .+                          .+++         ++       ++ +           ",
"           .+ .+                         .+++                 ++              ",
"            .  ++                        .+++                                 ",
"                +                        .+++                                 ",
"                                         .+++                                 ",
"                                         .+++                                 ",
"                                         .+++                                 ",
"                                         .+++                                 ",
"                                         .+++                                 ",
"                                         .++++                                ",
"                                         .++++                                ",
"                                        ..++++                                ",
"                                        ..++++                                ",
"                                        ..++++                                ",
"                                        ..++++                                ",
"                                       ...++++                                ",
"                                       ..++++                                 ",
"                                      ...++++                                 ",
"                                     ....++++                                 ",
"                                    ..+.++ +                                  ",
"                                    ++++++                                    ",
"                                     +++                                      ",
"                                                                              ",
"                                                                              ",
"                                                                              ",
"                                                                              ",
"                                                                              ",
"                                                                              ",
"                                                                              ",
"                                                                              ",
"                                                                              "};
