/* XPM */
static char * dipsy_xpm[] = {
"64 64 2714 2",
"  	c #BD0C29",
". 	c #BF0D2B",
"+ 	c #BF0C2B",
"@ 	c #B40922",
"# 	c #A80717",
"$ 	c #A70616",
"% 	c #A80617",
"& 	c #A90616",
"* 	c #A90615",
"= 	c #A80615",
"- 	c #A90715",
"; 	c #A90714",
"> 	c #A90614",
", 	c #AA0715",
"' 	c #AE0718",
") 	c #BA0B25",
"! 	c #C30D2E",
"~ 	c #C20C2E",
"{ 	c #BB0B29",
"] 	c #B40925",
"^ 	c #B60927",
"/ 	c #BB0A2B",
"( 	c #BC0B2D",
"_ 	c #B60928",
": 	c #AA061E",
"< 	c #A30519",
"[ 	c #A00416",
"} 	c #9E0311",
"| 	c #9D030E",
"1 	c #9F040F",
"2 	c #A00410",
"3 	c #9F0410",
"4 	c #9D0310",
"5 	c #A10212",
"6 	c #A41419",
"7 	c #AC7A31",
"8 	c #B9B643",
"9 	c #BDC547",
"0 	c #BFC546",
"a 	c #C1C547",
"b 	c #C2B947",
"c 	c #C3873F",
"d 	c #C33932",
"e 	c #C2042F",
"f 	c #BD232E",
"g 	c #B73D2B",
"h 	c #B44C29",
"i 	c #B14F26",
"j 	c #AD4F22",
"k 	c #AC4F22",
"l 	c #AF4F24",
"m 	c #B34D28",
"n 	c #AE4425",
"o 	c #9F3818",
"p 	c #923206",
"q 	c #8F3102",
"r 	c #903103",
"s 	c #903101",
"t 	c #8A3841",
"u 	c #B50722",
"v 	c #BF0A2B",
"w 	c #C20B2D",
"x 	c #B90926",
"y 	c #A80415",
"z 	c #9F0307",
"A 	c #9F0205",
"B 	c #A4040F",
"C 	c #C10B2C",
"D 	c #C30B2E",
"E 	c #C00B2C",
"F 	c #C10B2D",
"G 	c #C20B2E",
"H 	c #C00A2C",
"I 	c #BB0928",
"J 	c #B70825",
"K 	c #AC051A",
"L 	c #A00309",
"M 	c #9E0204",
"N 	c #9E0205",
"O 	c #9E0104",
"P 	c #A33917",
"Q 	c #B49837",
"R 	c #C4CE4A",
"S 	c #C6D94C",
"T 	c #C5D84B",
"U 	c #C5D94C",
"V 	c #C2C649",
"W 	c #C18A3E",
"X 	c #C23731",
"Y 	c #C3022E",
"Z 	c #C2112E",
"` 	c #BF162B",
" .	c #B31621",
"..	c #AA1517",
"+.	c #AB1519",
"@.	c #B61724",
"#.	c #BF172C",
"$.	c #C0142C",
"%.	c #B30E21",
"&.	c #A20B0D",
"*.	c #9D0A03",
"=.	c #9E0A01",
"-.	c #8C1C48",
";.	c #B90826",
">.	c #AB0517",
",.	c #A00205",
"'.	c #9E0202",
").	c #9E0203",
"!.	c #A70413",
"~.	c #B80825",
"{.	c #BD0A29",
"].	c #AE061B",
"^.	c #A10308",
"/.	c #9D0101",
"(.	c #A65B21",
"_.	c #B9AC3D",
":.	c #C6D44A",
"<.	c #C8DB4D",
"[.	c #C6DA4D",
"}.	c #C5DB4D",
"|.	c #BFBF45",
"1.	c #BA7635",
"2.	c #BE272C",
"3.	c #C2052D",
"4.	c #C30A2E",
"5.	c #BE072A",
"6.	c #AF031C",
"7.	c #A60212",
"8.	c #AF041D",
"9.	c #BB0728",
"0.	c #C2082D",
"a.	c #C3092E",
"b.	c #B80724",
"c.	c #A60210",
"d.	c #9F0104",
"e.	c #9E0103",
"f.	c #9F0001",
"g.	c #8C2C57",
"h.	c #C10A2C",
"i.	c #BE092A",
"j.	c #B20720",
"k.	c #A50310",
"l.	c #A00308",
"m.	c #A2030C",
"n.	c #A2030A",
"o.	c #9F0204",
"p.	c #A10309",
"q.	c #A60412",
"r.	c #AC0519",
"s.	c #B90825",
"t.	c #B20620",
"u.	c #B0061E",
"v.	c #C20A2D",
"w.	c #BF0A2A",
"x.	c #B0061D",
"y.	c #A5030F",
"z.	c #9E0304",
"A.	c #9F0304",
"B.	c #9F0E0A",
"C.	c #A12611",
"D.	c #A12C14",
"E.	c #A12313",
"F.	c #A12213",
"G.	c #AD7C2D",
"H.	c #BEC043",
"I.	c #C5D84A",
"J.	c #C6DA4C",
"K.	c #C7DB4D",
"L.	c #C4DA4D",
"M.	c #B8B540",
"N.	c #B1612B",
"O.	c #BA1128",
"P.	c #B90827",
"Q.	c #B70824",
"R.	c #BC0928",
"S.	c #AF061B",
"T.	c #A3030C",
"U.	c #A10208",
"V.	c #9F0102",
"W.	c #AE051C",
"X.	c #A4030F",
"Y.	c #A4030E",
"Z.	c #AE061C",
"`.	c #B60723",
" +	c #B60822",
".+	c #A4030D",
"++	c #A80414",
"@+	c #B50823",
"#+	c #BB0927",
"$+	c #AC0418",
"%+	c #A2030B",
"&+	c #BD0928",
"*+	c #C30B2D",
"=+	c #AD051A",
"-+	c #A41D14",
";+	c #A43B1B",
">+	c #A55B22",
",+	c #A8742A",
"'+	c #AA8430",
")+	c #AB8E32",
"!+	c #AB9434",
"~+	c #AF9F37",
"{+	c #B2A43B",
"]+	c #B3A23A",
"^+	c #B2A23A",
"/+	c #B7B640",
"(+	c #BFD049",
"_+	c #C4D94B",
":+	c #C5DA4D",
"<+	c #C2D54B",
"[+	c #BBA93F",
"}+	c #B9502D",
"|+	c #BE002B",
"1+	c #C20A2E",
"2+	c #C00A2B",
"3+	c #B60823",
"4+	c #AB0518",
"5+	c #B1061F",
"6+	c #B70724",
"7+	c #B40722",
"8+	c #AB0210",
"9+	c #BA0927",
"0+	c #BA0826",
"a+	c #AA0516",
"b+	c #9F0206",
"c+	c #A90416",
"d+	c #BE0A2A",
"e+	c #A2170F",
"f+	c #A43C1B",
"g+	c #A66827",
"h+	c #A98C32",
"i+	c #ADA039",
"j+	c #B0AF3E",
"k+	c #B3BA42",
"l+	c #B5C144",
"m+	c #B6C545",
"n+	c #B5C745",
"o+	c #B7CC46",
"p+	c #BCCF48",
"q+	c #BED049",
"r+	c #BDD349",
"s+	c #BED64A",
"t+	c #C2D94C",
"u+	c #C4D94C",
"v+	c #BFCF4A",
"w+	c #BF9D40",
"x+	c #C14633",
"y+	c #C2002E",
"z+	c #A00206",
"A+	c #AF061D",
"B+	c #B6031B",
"C+	c #B40721",
"D+	c #B2061F",
"E+	c #C40B2E",
"F+	c #BA0827",
"G+	c #B30721",
"H+	c #BD0929",
"I+	c #BF092A",
"J+	c #B11520",
"K+	c #A6441D",
"L+	c #A77A2B",
"M+	c #AB9D37",
"N+	c #AEB13D",
"O+	c #B1C243",
"P+	c #B5CB47",
"Q+	c #B7D048",
"R+	c #BAD34A",
"S+	c #BAD44A",
"T+	c #B8D349",
"U+	c #B8D348",
"V+	c #B8D448",
"W+	c #BBD549",
"X+	c #BCD64A",
"Y+	c #BAD549",
"Z+	c #BCD549",
"`+	c #BFD64B",
" @	c #C3D84C",
".@	c #C2D84B",
"+@	c #BED149",
"@@	c #BDB746",
"#@	c #C0843F",
"$@	c #C24935",
"%@	c #C3182F",
"&@	c #AF061C",
"*@	c #9D0202",
"=@	c #A50411",
"-@	c #C10A2D",
";@	c #B6031C",
">@	c #A90415",
",@	c #A60310",
"'@	c #C13131",
")@	c #B96E35",
"!@	c #B19D3A",
"~@	c #B2BA41",
"{@	c #B3C945",
"]@	c #B2CE45",
"^@	c #B3D147",
"/@	c #B7D349",
"(@	c #B9D54A",
"_@	c #BCD74C",
":@	c #BED74C",
"<@	c #BED74B",
"[@	c #BCD649",
"}@	c #B8D548",
"|@	c #B6D447",
"1@	c #B4D346",
"2@	c #B4D246",
"3@	c #B7D447",
"4@	c #B9D449",
"5@	c #BED74A",
"6@	c #BCD54A",
"7@	c #BACF49",
"8@	c #BABD46",
"9@	c #BC9E41",
"0@	c #C06E3B",
"a@	c #C33533",
"b@	c #C30D2F",
"c@	c #A60311",
"d@	c #B7031D",
"e@	c #B1061E",
"f@	c #C31330",
"g@	c #C25137",
"h@	c #BF883F",
"i@	c #B9B043",
"j@	c #B6C846",
"k@	c #B5D047",
"l@	c #B6D347",
"m@	c #B7D448",
"n@	c #B9D44A",
"o@	c #BAD54A",
"p@	c #BBD649",
"q@	c #BDD74A",
"r@	c #BDD749",
"s@	c #B9D548",
"t@	c #B4D345",
"u@	c #B2D243",
"v@	c #BAD548",
"w@	c #B9D549",
"x@	c #B6D248",
"y@	c #B6C847",
"z@	c #BAB245",
"A@	c #BE8A3E",
"B@	c #C15336",
"C@	c #C31E30",
"D@	c #BE0424",
"E@	c #B80824",
"F@	c #BE082A",
"G@	c #C31C30",
"H@	c #C35D39",
"I@	c #C19B44",
"J@	c #BDBF49",
"K@	c #B9CE49",
"L@	c #B7D449",
"M@	c #BBD54A",
"N@	c #BDD74C",
"O@	c #BCD648",
"P@	c #BAD547",
"Q@	c #BBD647",
"R@	c #BDD748",
"S@	c #BED749",
"T@	c #B9D546",
"U@	c #B6D443",
"V@	c #B7D444",
"W@	c #BCD647",
"X@	c #B9D547",
"Y@	c #B8D446",
"Z@	c #B6D448",
"`@	c #B2D247",
" #	c #B5CE48",
".#	c #BAC146",
"+#	c #BEA243",
"@#	c #BB6D36",
"##	c #B62C27",
"$#	c #BB0527",
"%#	c #C30528",
"&#	c #B30720",
"*#	c #A70412",
"=#	c #A70212",
"-#	c #B41A24",
";#	c #BF6638",
">#	c #C1A445",
",#	c #C0C54C",
"'#	c #BFD24D",
")#	c #BDD54C",
"!#	c #BCD64B",
"~#	c #C1D84E",
"{#	c #C3D94D",
"]#	c #C3D94C",
"^#	c #C2D94B",
"/#	c #C0D849",
"(#	c #BFD849",
"_#	c #BFD749",
":#	c #C2D94A",
"<#	c #C3D84A",
"[#	c #C1D74A",
"}#	c #C1D749",
"|#	c #BFD748",
"1#	c #BBD646",
"2#	c #BAD645",
"3#	c #BED747",
"4#	c #C0D847",
"5#	c #BCD746",
"6#	c #B6D446",
"7#	c #B5D448",
"8#	c #B3D347",
"9#	c #B4D347",
"0#	c #BACA49",
"a#	c #B4AA40",
"b#	c #AB6F2C",
"c#	c #B32B24",
"d#	c #C1072C",
"e#	c #C40529",
"f#	c #A2020A",
"g#	c #9F0005",
"h#	c #AE5D2A",
"i#	c #BDA343",
"j#	c #BFC74C",
"k#	c #BFD24E",
"l#	c #C0D54E",
"m#	c #BFD64D",
"n#	c #BED74D",
"o#	c #C6DA4F",
"p#	c #C9DB4F",
"q#	c #C9DB4E",
"r#	c #C8DA4D",
"s#	c #C2D14A",
"t#	c #BBC445",
"u#	c #BBBB45",
"v#	c #BCB745",
"w#	c #B9B244",
"x#	c #B7AC43",
"y#	c #B7AD43",
"z#	c #B8B443",
"A#	c #BBBF44",
"B#	c #BBC444",
"C#	c #BECB45",
"D#	c #C3D549",
"E#	c #C5D94B",
"F#	c #C5DA4A",
"G#	c #C1D848",
"H#	c #BAD545",
"I#	c #B8D546",
"J#	c #B4D348",
"K#	c #B5D349",
"L#	c #B7D34A",
"M#	c #B5C947",
"N#	c #B0AB3E",
"O#	c #B67335",
"P#	c #C13132",
"Q#	c #C3092F",
"R#	c #AC0219",
"S#	c #A54B1E",
"T#	c #B39739",
"U#	c #BEC54A",
"V#	c #BFD34E",
"W#	c #BFD54E",
"X#	c #BFD54D",
"Y#	c #BFD74D",
"Z#	c #C0D84E",
"`#	c #C6DA51",
" $	c #CEDD55",
".$	c #D2DE58",
"+$	c #CFD754",
"@$	c #C4C44B",
"#$	c #B6A843",
"$$	c #AF9341",
"%$	c #AF8942",
"&$	c #B08443",
"*$	c #B08044",
"=$	c #B07C44",
"-$	c #B27D45",
";$	c #B48545",
">$	c #B79045",
",$	c #B89645",
"'$	c #B99E45",
")$	c #BFB148",
"!$	c #C3C34B",
"~$	c #C7D04C",
"{$	c #C8D84C",
"]$	c #C5DA4C",
"^$	c #C2D84A",
"/$	c #BED748",
"($	c #B8D54A",
"_$	c #B6CA47",
":$	c #B7A943",
"<$	c #BE6E3B",
"[$	c #C22A31",
"}$	c #C3072E",
"|$	c #BF042B",
"1$	c #BA3A2D",
"2$	c #B48638",
"3$	c #B6BB43",
"4$	c #BBD04A",
"5$	c #BCD34B",
"6$	c #BCD54C",
"7$	c #BFD74E",
"8$	c #C3D950",
"9$	c #CCDB54",
"0$	c #CFD455",
"a$	c #C8C250",
"b$	c #BCAA49",
"c$	c #B09043",
"d$	c #AA7941",
"e$	c #AC7044",
"f$	c #B07047",
"g$	c #B27049",
"h$	c #B6714B",
"i$	c #B7724D",
"j$	c #B8734E",
"k$	c #B8754D",
"l$	c #B8764C",
"m$	c #B9794D",
"n$	c #BA7B4D",
"o$	c #BB874C",
"p$	c #BD954B",
"q$	c #BEA248",
"r$	c #C3B54A",
"s$	c #C8CA4E",
"t$	c #CAD64F",
"u$	c #BDD747",
"v$	c #B5D345",
"w$	c #B8D44A",
"x$	c #B7D249",
"y$	c #B7C748",
"z$	c #BAA143",
"A$	c #C05E38",
"B$	c #C31D2F",
"C$	c #C31D30",
"D$	c #C35538",
"E$	c #C06B3B",
"F$	c #B6512F",
"G$	c #AF2120",
"H$	c #B71127",
"I$	c #BA6938",
"J$	c #B7AD44",
"K$	c #B9CC49",
"L$	c #BAD24A",
"M$	c #B9D34A",
"N$	c #BBD54C",
"O$	c #C4D951",
"P$	c #CCDD55",
"Q$	c #CFDB56",
"R$	c #CCCA54",
"S$	c #C1AC4E",
"T$	c #B28E46",
"U$	c #AA7842",
"V$	c #A96E44",
"W$	c #AD6C47",
"X$	c #B26E4A",
"Y$	c #BA744F",
"Z$	c #BE7752",
"`$	c #C07954",
" %	c #C17955",
".%	c #C07955",
"+%	c #BF7854",
"@%	c #BF7954",
"#%	c #C07B54",
"$%	c #BE7C51",
"%%	c #BB7D4C",
"&%	c #BB884A",
"*%	c #BF9C49",
"=%	c #C6B74C",
"-%	c #CAD04E",
";%	c #C4D84A",
">%	c #B2D345",
",%	c #B3D348",
"'%	c #BBC448",
")%	c #BA913D",
"!%	c #BC422E",
"~%	c #C1062C",
"{%	c #C33134",
"]%	c #BE683D",
"^%	c #B89544",
"/%	c #B7AB45",
"(%	c #B49E3D",
"_%	c #AB6C2A",
":%	c #AB4E28",
"<%	c #AF8D3B",
"[%	c #B4BF47",
"}%	c #BBD14B",
"|%	c #BAD44B",
"1%	c #C0D74E",
"2%	c #CBDD55",
"3%	c #D4DD5B",
"4%	c #D1CB5A",
"5%	c #C4A753",
"6%	c #B4824B",
"7%	c #AA6F46",
"8%	c #AA6C47",
"9%	c #AF6E4A",
"0%	c #B5714E",
"a%	c #BA7550",
"b%	c #C27A54",
"c%	c #C47C56",
"d%	c #C67D58",
"e%	c #C87E5A",
"f%	c #C97F5A",
"g%	c #C87F59",
"h%	c #C77E59",
"i%	c #C07953",
"j%	c #BD784F",
"k%	c #BB7A4B",
"l%	c #BE8B49",
"m%	c #C2AA49",
"n%	c #C4C849",
"o%	c #C0D547",
"p%	c #B5D444",
"q%	c #AFD244",
"r%	c #BAD54B",
"s%	c #BDD24B",
"t%	c #B9B443",
"u%	c #B57134",
"v%	c #BC272A",
"w%	c #C2062D",
"x%	c #A00207",
"y%	c #C3082E",
"z%	c #C32831",
"A%	c #C26C41",
"B%	c #B18B49",
"C%	c #9F8D44",
"D%	c #ADAD45",
"E%	c #B9C247",
"F%	c #A88133",
"G%	c #ACAD40",
"H%	c #B6CA48",
"I%	c #BCD44B",
"J%	c #BFD74F",
"K%	c #C8DB53",
"L%	c #D2DD5A",
"M%	c #D7D061",
"N%	c #CFAF61",
"O%	c #C08B5A",
"P%	c #B57752",
"Q%	c #AF704E",
"R%	c #B0704E",
"S%	c #B6734F",
"T%	c #BC7652",
"U%	c #C57C57",
"V%	c #C87E59",
"W%	c #C97F59",
"X%	c #CB805A",
"Y%	c #CC815B",
"Z%	c #CD815B",
"`%	c #CE815B",
" &	c #CE815C",
".&	c #C77E58",
"+&	c #BE7751",
"@&	c #BC774D",
"#&	c #BC8448",
"$&	c #C1A747",
"%&	c #C2C746",
"&&	c #BBD443",
"*&	c #B3D343",
"=&	c #B2D346",
"-&	c #BED64C",
";&	c #BECC4C",
">&	c #B99B40",
",&	c #BB492F",
"'&	c #C1062D",
")&	c #A3030D",
"!&	c #C40930",
"~&	c #C25B3B",
"{&	c #BA8B4C",
"]&	c #9F844E",
"^&	c #8F6B43",
"/&	c #A99C45",
"(&	c #BBC94A",
"_&	c #B1B541",
":&	c #A4A13A",
"<&	c #ACBD43",
"[&	c #B8CF49",
"}&	c #BED44B",
"|&	c #BFD64C",
"1&	c #C4D94F",
"2&	c #CDDD55",
"3&	c #D5D35E",
"4&	c #D5B767",
"5&	c #CE996A",
"6&	c #C48663",
"7&	c #BB7C5A",
"8&	c #B77654",
"9&	c #B77552",
"0&	c #BB7753",
"a&	c #BF7A54",
"b&	c #C47D57",
"c&	c #CC805B",
"d&	c #CE825C",
"e&	c #CE825B",
"f&	c #CF815A",
"g&	c #D0825B",
"h&	c #D2835C",
"i&	c #D1845D",
"j&	c #CA805A",
"k&	c #C57D57",
"l&	c #C37B55",
"m&	c #BF7851",
"n&	c #BC774C",
"o&	c #BD8647",
"p&	c #C3B149",
"q&	c #C4D14A",
"r&	c #C3D850",
"s&	c #C1BB4B",
"t&	c #C0763C",
"u&	c #C22930",
"v&	c #C3052E",
"w&	c #C20528",
"x&	c #B90526",
"y&	c #BA3C2E",
"z&	c #BA7842",
"A&	c #AC8A4E",
"B&	c #95704A",
"C&	c #8E6343",
"D&	c #AA9E47",
"E&	c #BACA4A",
"F&	c #AFC343",
"G&	c #A1B43E",
"H&	c #AAC243",
"I&	c #B8D048",
"J&	c #BED54B",
"K&	c #C0D74B",
"L&	c #C6DA4E",
"M&	c #D1D85A",
"N&	c #D8C369",
"O&	c #D6A571",
"P&	c #D19571",
"Q&	c #C98A69",
"R&	c #C1805E",
"S&	c #BC7A57",
"T&	c #BC7855",
"U&	c #BF7955",
"V&	c #C47C57",
"W&	c #C9805A",
"X&	c #D0835D",
"Y&	c #D0835C",
"Z&	c #D1825B",
"`&	c #D1825A",
" *	c #D3835A",
".*	c #D3835B",
"+*	c #CF825B",
"@*	c #CC805A",
"#*	c #BF7750",
"$*	c #BB774B",
"%*	c #BC8F48",
"&*	c #C4B94C",
"**	c #C6D34E",
"=*	c #BCD64D",
"-*	c #C1D94F",
";*	c #C0CD4E",
">*	c #C19B43",
",*	c #BE4631",
"'*	c #B80025",
")*	c #BA0926",
"!*	c #B20218",
"~*	c #AA0317",
"{*	c #AE5C2D",
"]*	c #AD8243",
"^*	c #A17948",
"/*	c #926243",
"(*	c #8E6B41",
"_*	c #A8A747",
":*	c #B8CD49",
"<*	c #ADC843",
"[*	c #A4BF40",
"}*	c #AEC844",
"|*	c #BBD34A",
"1*	c #C1D74D",
"2*	c #C7DA50",
"3*	c #CEDC54",
"4*	c #D7D165",
"5*	c #DDB676",
"6*	c #DBA07A",
"7*	c #D59675",
"8*	c #CE8D6D",
"9*	c #C78563",
"0*	c #C27E5B",
"a*	c #C17C58",
"b*	c #C47D58",
"c*	c #CC815C",
"d*	c #CF835D",
"e*	c #D3845C",
"f*	c #D3825A",
"g*	c #D48259",
"h*	c #D5835A",
"i*	c #D5845B",
"j*	c #D1835C",
"k*	c #CF825C",
"l*	c #C97F58",
"m*	c #BA744E",
"n*	c #B57648",
"o*	c #BA9547",
"p*	c #C4C14C",
"q*	c #C7D74E",
"r*	c #BFD74B",
"s*	c #BDD74D",
"t*	c #BDD54D",
"u*	c #BBB245",
"v*	c #B26530",
"w*	c #A71917",
"x*	c #AD031A",
"y*	c #A7020B",
"z*	c #A60211",
"A*	c #A32D13",
"B*	c #A76F32",
"C*	c #A28142",
"D*	c #9A6B42",
"E*	c #945D3F",
"F*	c #8C683F",
"G*	c #A0A345",
"H*	c #B3CB48",
"I*	c #AAC744",
"J*	c #A8C243",
"K*	c #B7CE49",
"L*	c #C3D750",
"M*	c #CEDE55",
"N*	c #D6D760",
"O*	c #DBC170",
"P*	c #DEA87B",
"Q*	c #DB9D7B",
"R*	c #D59674",
"S*	c #CE8D6B",
"T*	c #C88562",
"U*	c #C6805D",
"V*	c #C67F5B",
"W*	c #C87F5A",
"X*	c #D2845E",
"Y*	c #D3855E",
"Z*	c #D5855C",
"`*	c #D6845B",
" =	c #D6835A",
".=	c #D68359",
"+=	c #D5845C",
"@=	c #D4835C",
"#=	c #D3835C",
"$=	c #C67D57",
"%=	c #BD7752",
"&=	c #B5714B",
"*=	c #B27843",
"==	c #BDA945",
"-=	c #C7D14C",
";=	c #BDD64C",
">=	c #BAC449",
",=	c #AF8735",
"'=	c #A13613",
")=	c #A60012",
"!=	c #B8031E",
"~=	c #9F0103",
"{=	c #A55521",
"]=	c #A67F3B",
"^=	c #9A7842",
"/=	c #986440",
"(=	c #965E3E",
"_=	c #8B643F",
":=	c #9FA045",
"<=	c #B2C947",
"[=	c #A9C542",
"}=	c #ABC444",
"|=	c #BAD04B",
"1=	c #C4D852",
"2=	c #CBDC56",
"3=	c #D4DE5C",
"4=	c #DECF6C",
"5=	c #E2B47B",
"6=	c #DFA37F",
"7=	c #DA9B79",
"8=	c #D49473",
"9=	c #D08E6C",
"0=	c #CA8664",
"a=	c #C7825E",
"b=	c #C9825E",
"c=	c #CC825D",
"d=	c #CE835D",
"e=	c #D1855E",
"f=	c #D3865E",
"g=	c #D5865E",
"h=	c #D5865D",
"i=	c #D6855C",
"j=	c #D7855C",
"k=	c #D8855C",
"l=	c #D9865C",
"m=	c #D7855A",
"n=	c #D7855B",
"o=	c #D6855D",
"p=	c #D5845D",
"q=	c #C97E59",
"r=	c #C17A55",
"s=	c #B8744E",
"t=	c #B06F45",
"u=	c #B79843",
"v=	c #C4C84A",
"w=	c #BAD64A",
"x=	c #B7D44A",
"y=	c #BBD64C",
"z=	c #BACD4A",
"A=	c #AE9C39",
"B=	c #A24519",
"C=	c #AA0017",
"D=	c #BB0827",
"E=	c #B2021F",
"F=	c #B46A34",
"G=	c #A98944",
"H=	c #987044",
"I=	c #9A6140",
"J=	c #965E3D",
"K=	c #88613D",
"L=	c #9D9F45",
"M=	c #B1C747",
"N=	c #AAC542",
"O=	c #B0C946",
"P=	c #BBD24B",
"Q=	c #C2D74F",
"R=	c #DAD963",
"S=	c #E4C577",
"T=	c #E8B083",
"U=	c #E2A481",
"V=	c #DA9977",
"W=	c #D69371",
"X=	c #D79370",
"Y=	c #D5906C",
"Z=	c #D28C67",
"`=	c #D48E69",
" -	c #D48D67",
".-	c #D28862",
"+-	c #D2865F",
"@-	c #D2855E",
"#-	c #D4855D",
"$-	c #D7865E",
"%-	c #D8865D",
"&-	c #D9865E",
"*-	c #D9875D",
"=-	c #D8865C",
"--	c #D8865E",
";-	c #D8875F",
">-	c #D8875E",
",-	c #D2845D",
"'-	c #C57D58",
")-	c #BC7752",
"!-	c #B26F49",
"~-	c #B68945",
"{-	c #C4BC4A",
"]-	c #C5D64D",
"^-	c #B8D549",
"/-	c #B9D14A",
"(-	c #B3A73F",
"_-	c #B2532B",
":-	c #B80726",
"<-	c #C0092C",
"[-	c #B70823",
"}-	c #C0052C",
"|-	c #BD703E",
"1-	c #AA8B48",
"2-	c #996D44",
"3-	c #9C6140",
"4-	c #945C3B",
"5-	c #825A39",
"6-	c #9A9C45",
"7-	c #B1C64A",
"8-	c #AFC846",
"9-	c #BED54C",
"0-	c #C2D74D",
"a-	c #CEDC56",
"b-	c #DED16C",
"c-	c #E8BB80",
"d-	c #E7AB84",
"e-	c #E0A07C",
"f-	c #DA9773",
"g-	c #DA9571",
"h-	c #E29B74",
"i-	c #E69E76",
"j-	c #E69E73",
"k-	c #E79F74",
"l-	c #E59E74",
"m-	c #DF976F",
"n-	c #D78D66",
"o-	c #D3865F",
"p-	c #D3845D",
"q-	c #D6865E",
"r-	c #D9885F",
"s-	c #D8885E",
"t-	c #D9875F",
"u-	c #DA8860",
"v-	c #DB8960",
"w-	c #D98960",
"x-	c #D78860",
"y-	c #D5875F",
"z-	c #CB815B",
"A-	c #C17B56",
"B-	c #B8744F",
"C-	c #B67D48",
"D-	c #C2AF4A",
"E-	c #C5D34D",
"F-	c #BAD649",
"G-	c #B9D54B",
"H-	c #BED64D",
"I-	c #BBD44C",
"J-	c #BBB244",
"K-	c #BE6637",
"L-	c #C11B2E",
"M-	c #C00526",
"N-	c #C1082C",
"O-	c #C32530",
"P-	c #BD7642",
"Q-	c #A78A49",
"R-	c #996C42",
"S-	c #9D613F",
"T-	c #955C3B",
"U-	c #805A37",
"V-	c #989B44",
"W-	c #B1C54B",
"X-	c #B4CB49",
"Y-	c #BCD14B",
"Z-	c #C0D54D",
"`-	c #D2D85D",
" ;	c #E2C774",
".;	c #E8B283",
"+;	c #E4A581",
"@;	c #DD9C78",
"#;	c #DB9771",
"$;	c #E0996F",
"%;	c #E99F73",
"&;	c #EFA475",
"*;	c #EFA474",
"=;	c #F0A475",
"-;	c #F0A779",
";;	c #EDA579",
">;	c #E29A70",
",;	c #D88D65",
"';	c #D2865E",
");	c #D0835B",
"!;	c #D3855D",
"~;	c #D6875E",
"{;	c #D88860",
"];	c #D8885F",
"^;	c #D98860",
"/;	c #DB8A60",
"(;	c #DC8A61",
"_;	c #DB8A61",
":;	c #D68860",
"<;	c #D58860",
"[;	c #CF845E",
"};	c #BD7853",
"|;	c #BB7A4E",
"1;	c #C2A64B",
"2;	c #C5CE4B",
"3;	c #BAD64B",
"4;	c #B9D44C",
"5;	c #B9D34B",
"6;	c #BEBB49",
"7;	c #C2773D",
"8;	c #C32930",
"9;	c #BC0A29",
"0;	c #B20317",
"a;	c #B90326",
"b;	c #C23B33",
"c;	c #BC7D46",
"d;	c #A7894B",
"e;	c #9C6C43",
"f;	c #A16441",
"g;	c #985E3C",
"h;	c #7F5736",
"i;	c #90943E",
"j;	c #ACC248",
"k;	c #B5CC49",
"l;	c #BBD14A",
"m;	c #C0D54C",
"n;	c #C9DB52",
"o;	c #D7D463",
"p;	c #E3BD78",
"q;	c #E6AB82",
"r;	c #E4A481",
"s;	c #DE9B76",
"t;	c #D99169",
"u;	c #D88D61",
"v;	c #D58C60",
"w;	c #D38D62",
"x;	c #D89064",
"y;	c #E49A6B",
"z;	c #EEA475",
"A;	c #EBA377",
"B;	c #DE966C",
"C;	c #D38860",
"D;	c #D6875F",
"E;	c #D98961",
"F;	c #DA8961",
"G;	c #D88960",
"H;	c #D88961",
"I;	c #D38660",
"J;	c #C27C57",
"K;	c #C17D55",
"L;	c #C5A550",
"M;	c #C6CE4C",
"N;	c #C2D84C",
"O;	c #BDBF4A",
"P;	c #C07F3E",
"Q;	c #C22F31",
"R;	c #C0032B",
"S;	c #B2071F",
"T;	c #A50109",
"U;	c #A3030B",
"V;	c #B3011F",
"W;	c #C24B35",
"X;	c #BE844A",
"Y;	c #AA884D",
"Z;	c #A16D45",
"`;	c #A56744",
" >	c #9C6240",
".>	c #805335",
"+>	c #858439",
"@>	c #A6B945",
"#>	c #B8CE4A",
"$>	c #BDD44C",
"%>	c #C4D850",
"&>	c #D2DE59",
"*>	c #DCD067",
"=>	c #DFB175",
"->	c #E1A27C",
";>	c #DF9D78",
">>	c #D79069",
",>	c #C88057",
"'>	c #A97156",
")>	c #A1705C",
"!>	c #9E6F5C",
"~>	c #A8735A",
"{>	c #BF7F5C",
"]>	c #D89266",
"^>	c #E69E71",
"/>	c #E0986E",
"(>	c #D38A62",
"_>	c #CD825B",
":>	c #D4865E",
"<>	c #D78961",
"[>	c #D98A62",
"}>	c #DB8B62",
"|>	c #DC8C62",
"1>	c #DC8B62",
"2>	c #DB8B63",
"3>	c #D68962",
"4>	c #CE845E",
"5>	c #C7815C",
"6>	c #C7825B",
"7>	c #CBA657",
"8>	c #CACD4F",
"9>	c #C5D94D",
"0>	c #C0D84D",
"a>	c #BBD54B",
"b>	c #BABF49",
"c>	c #BD823E",
"d>	c #C23331",
"e>	c #BF022A",
"f>	c #A10106",
"g>	c #B2011E",
"h>	c #C25136",
"i>	c #BE864B",
"j>	c #AB864D",
"k>	c #A36D46",
"l>	c #A96946",
"m>	c #A06442",
"n>	c #815135",
"o>	c #756B33",
"p>	c #9AA942",
"q>	c #B9CE4C",
"r>	c #CBDC55",
"s>	c #D8E060",
"t>	c #DFCD6E",
"u>	c #DAA772",
"v>	c #D59470",
"w>	c #D28D68",
"x>	c #C67F56",
"y>	c #B06F4D",
"z>	c #926759",
"A>	c #7A5F5C",
"B>	c #6F5652",
"C>	c #6F5550",
"D>	c #775D5A",
"E>	c #936D64",
"F>	c #B87F62",
"G>	c #D69166",
"H>	c #DB9469",
"I>	c #CF8860",
"J>	c #C98059",
"K>	c #CD8159",
"L>	c #D1835B",
"M>	c #D4865D",
"N>	c #D3875E",
"O>	c #D68A62",
"P>	c #DC9067",
"Q>	c #E19369",
"R>	c #E09268",
"S>	c #DF9066",
"T>	c #E09067",
"U>	c #DE9067",
"V>	c #DA8C64",
"W>	c #D38862",
"X>	c #CD8761",
"Y>	c #CE8862",
"Z>	c #D0A75B",
"`>	c #CBCB50",
" ,	c #C5D84D",
".,	c #BDD64D",
"+,	c #BAD34B",
"@,	c #B8BD49",
"#,	c #BE8340",
"$,	c #C33433",
"%,	c #C20E30",
"&,	c #B91129",
"*,	c #B2041A",
"=,	c #A50410",
"-,	c #B60123",
";,	c #C34F37",
">,	c #BE834A",
",,	c #A8834C",
"',	c #AB6B47",
"),	c #A26643",
"!,	c #855236",
"~,	c #736232",
"{,	c #98A442",
"],	c #BACE4D",
"^,	c #C5D851",
"/,	c #D9DC62",
"(,	c #E0C572",
"_,	c #D79F70",
":,	c #C98662",
"<,	c #C37E57",
"[,	c #B7734C",
"},	c #9D6D59",
"|,	c #7C6665",
"1,	c #5F5255",
"2,	c #534743",
"3,	c #76706B",
"4,	c #857E7C",
"5,	c #7F7274",
"6,	c #9F796E",
"7,	c #C78864",
"8,	c #D48E64",
"9,	c #C9835C",
"0,	c #C57E57",
"a,	c #CE825A",
"b,	c #D1845C",
"c,	c #D4875F",
"d,	c #DD9369",
"e,	c #E99F74",
"f,	c #EFA67A",
"g,	c #EFA77B",
"h,	c #ECA277",
"i,	c #E99C70",
"j,	c #E5976C",
"k,	c #E2946A",
"l,	c #DC8F68",
"m,	c #D68C66",
"n,	c #D38C67",
"o,	c #D38D66",
"p,	c #D4AB5D",
"q,	c #CCCD50",
"r,	c #C4D84C",
"s,	c #C0D64E",
"t,	c #BCD44D",
"u,	c #BBBE4A",
"v,	c #C18D44",
"w,	c #C37D40",
"x,	c #C28F43",
"y,	c #C17B3E",
"z,	c #C0422F",
"A,	c #AB3D68",
"B,	c #BD0229",
"C,	c #C44D38",
"D,	c #BB7F49",
"E,	c #A5804B",
"F,	c #A26C46",
"G,	c #AB6C48",
"H,	c #A46744",
"I,	c #8A5639",
"J,	c #84753A",
"K,	c #A7B248",
"L,	c #C0D251",
"M,	c #C8DA54",
"N,	c #CEDE58",
"O,	c #DAD867",
"P,	c #E0BD76",
"Q,	c #D3976E",
"R,	c #C07D5A",
"S,	c #BC7650",
"T,	c #B07150",
"U,	c #926F65",
"V,	c #716566",
"W,	c #524847",
"X,	c #3B3430",
"Y,	c #62615F",
"Z,	c #78736F",
"`,	c #736B6D",
" '	c #957872",
".'	c #C08768",
"+'	c #CC8860",
"@'	c #C37E58",
"#'	c #C27B56",
"$'	c #C77D57",
"%'	c #CA7F58",
"&'	c #CB8159",
"*'	c #CD825A",
"='	c #D4885E",
"-'	c #DF9367",
";'	c #E99E70",
">'	c #EEA577",
",'	c #F2AB7E",
"''	c #F5AF81",
")'	c #ECA075",
"!'	c #E5986E",
"~'	c #DE926B",
"{'	c #DA916B",
"]'	c #D8916C",
"^'	c #D7926A",
"/'	c #D4AF5F",
"('	c #C8CE4F",
"_'	c #C0D84B",
":'	c #C2D94E",
"<'	c #BCD24D",
"['	c #BCC64B",
"}'	c #C0B54A",
"|'	c #BDBF4D",
"1'	c #BCAC4A",
"2'	c #C17C3C",
"3'	c #AE4E6A",
"4'	c #C2022D",
"5'	c #C44737",
"6'	c #BA7D47",
"7'	c #A4824A",
"8'	c #A06C46",
"9'	c #AA6A47",
"0'	c #A36744",
"a'	c #885538",
"b'	c #8E853E",
"c'	c #B2BF4D",
"d'	c #C3D552",
"e'	c #C9DB55",
"f'	c #D0DE59",
"g'	c #DDD56D",
"h'	c #E1B77C",
"i'	c #D29670",
"j'	c #BF7E5B",
"k'	c #B8754F",
"l'	c #B17556",
"m'	c #99786E",
"n'	c #756A6B",
"o'	c #524945",
"p'	c #332D29",
"q'	c #3F3D3B",
"r'	c #584F47",
"s'	c #665B5C",
"t'	c #96756D",
"u'	c #BD8465",
"v'	c #C1805A",
"w'	c #BC7954",
"x'	c #C57D56",
"y'	c #C77F55",
"z'	c #CB8256",
"A'	c #CB8359",
"B'	c #C9845D",
"C'	c #CA8760",
"D'	c #D08D65",
"E'	c #E19D72",
"F'	c #F1AC7E",
"G'	c #F1A87A",
"H'	c #E89B71",
"I'	c #DE936B",
"J'	c #D9936E",
"K'	c #D9976C",
"L'	c #D5B560",
"M'	c #C7D150",
"N'	c #BBD14C",
"O'	c #BBCF4B",
"P'	c #C0D04D",
"Q'	c #C2CD51",
"R'	c #B4B24E",
"S'	c #A89F4A",
"T'	c #B28A3F",
"U'	c #A4606A",
"V'	c #C3042D",
"W'	c #C43E36",
"X'	c #BB7C47",
"Y'	c #A48549",
"Z'	c #9C6A42",
"`'	c #A56644",
" )	c #9D6340",
".)	c #805134",
"+)	c #8F8C3E",
"@)	c #B3C34C",
"#)	c #BFD24F",
"$)	c #C9DA55",
"%)	c #D4DF5C",
"&)	c #E1D472",
"*)	c #E5B782",
"=)	c #D89B78",
"-)	c #C38361",
";)	c #B77551",
">)	c #B57554",
",)	c #A97C6A",
"')	c #856D6B",
"))	c #5C4E4E",
"!)	c #4E4239",
"~)	c #514538",
"{)	c #51423A",
"])	c #6B5450",
"^)	c #9E7363",
"/)	c #B47A5C",
"()	c #B0724F",
"_)	c #B2714F",
":)	c #BD7955",
"<)	c #C37D58",
"[)	c #BE7852",
"})	c #BF784F",
"|)	c #BA7A56",
"1)	c #A6735E",
"2)	c #926658",
"3)	c #8B5E4E",
"4)	c #996650",
"5)	c #B67B5C",
"6)	c #DA976D",
"7)	c #ECA274",
"8)	c #E79A6D",
"9)	c #DD9168",
"0)	c #D8906A",
"a)	c #D7926D",
"b)	c #D8996A",
"c)	c #D3B95E",
"d)	c #C7D350",
"e)	c #C0D54F",
"f)	c #B9D04A",
"g)	c #C1D44F",
"h)	c #BEBE50",
"i)	c #A58A48",
"j)	c #907945",
"k)	c #A08140",
"l)	c #996760",
"m)	c #C42C33",
"n)	c #BD7845",
"o)	c #A68949",
"p)	c #976940",
"q)	c #9B5F3E",
"r)	c #915939",
"s)	c #785430",
"t)	c #959940",
"u)	c #B6C84C",
"v)	c #BCD14E",
"w)	c #C7D954",
"x)	c #D5DF5D",
"y)	c #E2D275",
"z)	c #E9B786",
"A)	c #DCA07D",
"B)	c #C68766",
"C)	c #B97855",
"D)	c #B87552",
"E)	c #B6795C",
"F)	c #A6725E",
"G)	c #8F6250",
"H)	c #7F5843",
"I)	c #795640",
"J)	c #7B5645",
"K)	c #916553",
"L)	c #AA755C",
"M)	c #AE7456",
"N)	c #AB6F4F",
"O)	c #B17351",
"P)	c #B67653",
"Q)	c #B87652",
"R)	c #B87550",
"S)	c #B5724C",
"T)	c #B2724E",
"U)	c #9F6F5C",
"V)	c #7D625E",
"W)	c #64514E",
"X)	c #6F605A",
"Y)	c #806D65",
"Z)	c #8B675A",
"`)	c #B2785B",
" !	c #DD8F61",
".!	c #D98E64",
"+!	c #D8936E",
"@!	c #D79E69",
"#!	c #D2BF5C",
"$!	c #C8D650",
"%!	c #C3D94E",
"&!	c #C5D950",
"*!	c #C1D54F",
"=!	c #BCD24B",
"-!	c #C2CC50",
";!	c #B2A14C",
">!	c #926942",
",!	c #846641",
"'!	c #9C8240",
")!	c #987358",
"!!	c #C41130",
"~!	c #C17545",
"{!	c #AF8F4F",
"]!	c #976C44",
"^!	c #90573A",
"/!	c #824E32",
"(!	c #765F31",
"_!	c #9DA544",
":!	c #B7CA4C",
"<!	c #B9CE4B",
"[!	c #D0DD5A",
"}!	c #E0CF74",
"|!	c #E8B686",
"1!	c #DFA281",
"2!	c #CB8B6C",
"3!	c #BC7A5A",
"4!	c #B87553",
"5!	c #B77553",
"6!	c #B47352",
"7!	c #AC6F50",
"8!	c #A36A4B",
"9!	c #9F694C",
"0!	c #A36D52",
"a!	c #AD7558",
"b!	c #B67B5B",
"c!	c #C28360",
"d!	c #D08E69",
"e!	c #D8946F",
"f!	c #D6926C",
"g!	c #C78561",
"h!	c #B37451",
"i!	c #A46D51",
"j!	c #896459",
"k!	c #604F4E",
"l!	c #483E39",
"m!	c #666360",
"n!	c #817B77",
"o!	c #776864",
"p!	c #8C6355",
"q!	c #D18356",
"r!	c #D4885F",
"s!	c #D68F69",
"t!	c #D99571",
"u!	c #D9A76B",
"v!	c #D2C65B",
"w!	c #C9D850",
"x!	c #BBD04B",
"y!	c #BCBB4F",
"z!	c #A48449",
"A!	c #895B41",
"B!	c #856540",
"C!	c #A08A42",
"D!	c #9D8059",
"E!	c #C3032E",
"F!	c #C36D40",
"G!	c #B69050",
"H!	c #987348",
"I!	c #845338",
"J!	c #76472F",
"K!	c #7B6A36",
"L!	c #A5AE48",
"M!	c #B9CC4D",
"N!	c #B6CE49",
"O!	c #BCD34C",
"P!	c #CAD855",
"Q!	c #DACA70",
"R!	c #E5B384",
"S!	c #E4A685",
"T!	c #D99878",
"U!	c #CA8767",
"V!	c #C17C5B",
"W!	c #BC7856",
"X!	c #BC7A56",
"Y!	c #BA7A58",
"Z!	c #B97B5B",
"`!	c #BD8060",
" ~	c #C28463",
".~	c #C98763",
"+~	c #D78E66",
"@~	c #E79B70",
"#~	c #F0A579",
"$~	c #F0A67C",
"%~	c #E49D75",
"&~	c #C88662",
"*~	c #AD704F",
"=~	c #9D6951",
"-~	c #7F5C52",
";~	c #574742",
">~	c #3A332E",
",~	c #444445",
"'~	c #65605B",
")~	c #655B59",
"!~	c #7A5E5B",
"~~	c #AF755A",
"{~	c #CB7F54",
"]~	c #CF855C",
"^~	c #D28D67",
"/~	c #D89670",
"(~	c #D8B06A",
"_~	c #CFCE58",
":~	c #C8DA4F",
"<~	c #BDD34C",
"[~	c #B8CF4A",
"}~	c #BDD44D",
"|~	c #BFCA4F",
"1~	c #AE9F4C",
"2~	c #956C46",
"3~	c #84553F",
"4~	c #86653F",
"5~	c #A18E43",
"6~	c #9F865A",
"7~	c #C45538",
"8~	c #BA894A",
"9~	c #9E854C",
"0~	c #825D3E",
"a~	c #754834",
"b~	c #87753E",
"c~	c #ACB44C",
"d~	c #BBCE4E",
"e~	c #B7CF4A",
"f~	c #C9D855",
"g~	c #D5C66B",
"h~	c #DCAC7F",
"i~	c #E2A585",
"j~	c #E0A080",
"k~	c #D99575",
"l~	c #D38B6B",
"m~	c #CD8463",
"n~	c #CB8461",
"o~	c #CC8865",
"p~	c #CC8B69",
"q~	c #CE8D6C",
"r~	c #D0906F",
"s~	c #D59371",
"t~	c #DC9771",
"u~	c #E69A6F",
"v~	c #ED9B6C",
"w~	c #F09E6C",
"x~	c #F1A070",
"y~	c #ED9F71",
"z~	c #D99168",
"A~	c #BB7B58",
"B~	c #A46D52",
"C~	c #845B4C",
"D~	c #5E4941",
"E~	c #4B4138",
"F~	c #484038",
"G~	c #55493D",
"H~	c #605555",
"I~	c #816B6A",
"J~	c #B07A63",
"K~	c #C87F56",
"L~	c #CB835B",
"M~	c #CE8A66",
"N~	c #D5986C",
"O~	c #D5BA64",
"P~	c #CCD554",
"Q~	c #C7DB4F",
"R~	c #C5DA50",
"S~	c #C0D14F",
"T~	c #B2B14D",
"U~	c #977B46",
"V~	c #85533D",
"W~	c #86673D",
"X~	c #9F8C40",
"Y~	c #9E8059",
"Z~	c #C42E32",
"`~	c #C07E42",
" {	c #AB974E",
".{	c #947B4E",
"+{	c #92664D",
"@{	c #9F874F",
"#{	c #B4BA52",
"${	c #BBCE4F",
"%{	c #C7D753",
"&{	c #CEC264",
"*{	c #D1A377",
"={	c #D99E80",
"-{	c #DE9E80",
";{	c #E29D7E",
">{	c #E49A7A",
",{	c #E09574",
"'{	c #DE9673",
"){	c #DD9A77",
"!{	c #DC9B79",
"~{	c #DB9A78",
"{{	c #DC9A78",
"]{	c #E19D79",
"^{	c #E9A27C",
"/{	c #EFA47B",
"({	c #F0A173",
"_{	c #EF9C6B",
":{	c #EE9B69",
"<{	c #ED9B6B",
"[{	c #E09469",
"}{	c #C7835E",
"|{	c #B27656",
"1{	c #9E684E",
"2{	c #815844",
"3{	c #654A3B",
"4{	c #524036",
"5{	c #524342",
"6{	c #746B6F",
"7{	c #9A817C",
"8{	c #B67D63",
"9{	c #C7815B",
"0{	c #CC8966",
"a{	c #D3A06A",
"b{	c #D1C35E",
"c{	c #C8D751",
"d{	c #C6DA50",
"e{	c #C4D851",
"f{	c #C0D64F",
"g{	c #BCC750",
"h{	c #9F9448",
"i{	c #8A623F",
"j{	c #925C41",
"k{	c #905940",
"l{	c #8C7240",
"m{	c #9F8B3F",
"n{	c #9A7456",
"o{	c #C30A2F",
"p{	c #C25A37",
"q{	c #B79245",
"r{	c #AAA14F",
"s{	c #A89956",
"t{	c #ADA456",
"u{	c #B7C253",
"v{	c #B6CC4D",
"w{	c #B2CB47",
"x{	c #C3D74F",
"y{	c #C8C25C",
"z{	c #C99F6F",
"A{	c #CF967A",
"B{	c #DB9B7F",
"C{	c #E7A182",
"D{	c #ECA383",
"E{	c #EBA381",
"F{	c #E9A380",
"G{	c #E6A582",
"H{	c #E5A583",
"I{	c #E3A27F",
"J{	c #E7A480",
"K{	c #EEA983",
"L{	c #F3AB83",
"M{	c #F3A97D",
"N{	c #F2A577",
"O{	c #F0A175",
"P{	c #EEA074",
"Q{	c #E59A71",
"R{	c #D18C68",
"S{	c #BE7E5C",
"T{	c #B17454",
"U{	c #A46A4B",
"V{	c #986347",
"W{	c #8C5D49",
"X{	c #8A655C",
"Y{	c #A07F77",
"Z{	c #B58775",
"`{	c #BE7D5C",
" ]	c #C17A54",
".]	c #C27E59",
"+]	c #C88764",
"@]	c #CFA664",
"#]	c #CAC855",
"$]	c #C3D74D",
"%]	c #C3D94F",
"&]	c #C2D750",
"*]	c #C1D64F",
"=]	c #C1D252",
"-]	c #ADB04E",
";]	c #947843",
">]	c #9A6343",
",]	c #A76847",
"']	c #9D6144",
")]	c #978144",
"!]	c #A68E3E",
"~]	c #966053",
"{]	c #B30820",
"]]	c #AF051C",
"^]	c #B50723",
"/]	c #C0072C",
"(]	c #B72927",
"_]	c #AD632B",
":]	c #AE933D",
"<]	c #B3AD4A",
"[]	c #B5B14C",
"}]	c #B6B549",
"|]	c #ADBB44",
"1]	c #AAC343",
"2]	c #B5CF48",
"3]	c #BFD74C",
"4]	c #C5C856",
"5]	c #C6A669",
"6]	c #CA9577",
"7]	c #D7997E",
"8]	c #E6A283",
"9]	c #EDA787",
"0]	c #F0AC89",
"a]	c #ECAB88",
"b]	c #E4A686",
"c]	c #E1A585",
"d]	c #E3A786",
"e]	c #E5A786",
"f]	c #EAAB88",
"g]	c #F1B28C",
"h]	c #F6B48C",
"i]	c #F6B186",
"j]	c #F5AD82",
"k]	c #F2A980",
"l]	c #EFA67D",
"m]	c #E8A079",
"n]	c #DA9471",
"o]	c #C88563",
"p]	c #BB7A59",
"q]	c #B47453",
"r]	c #B37251",
"s]	c #B27354",
"t]	c #B5795F",
"u]	c #BD8168",
"v]	c #C38263",
"w]	c #C07B58",
"x]	c #BC7853",
"y]	c #BE7C58",
"z]	c #C88B64",
"A]	c #CDB061",
"B]	c #C6CE51",
"C]	c #C2D84D",
"D]	c #C4D950",
"E]	c #C1D452",
"F]	c #B4BC50",
"G]	c #9E8D48",
"H]	c #9F6B45",
"I]	c #AB6B49",
"J]	c #AE6D4A",
"K]	c #9F6745",
"L]	c #9E8945",
"M]	c #AA8A3A",
"N]	c #934D4E",
"O]	c #AC732B",
"P]	c #A64C1F",
"Q]	c #A8211A",
"R]	c #B1091F",
"S]	c #A70514",
"T]	c #A1250F",
"U]	c #A5581F",
"V]	c #AA7A2C",
"W]	c #AB7C2E",
"X]	c #A97A2F",
"Y]	c #A49A36",
"Z]	c #A5BB41",
"`]	c #B3CD48",
" ^	c #C5D051",
".^	c #C7B463",
"+^	c #CA9B76",
"@^	c #D3997E",
"#^	c #E0A184",
"$^	c #EBAA8A",
"%^	c #F1B28E",
"&^	c #EAAD8B",
"*^	c #D69E81",
"=^	c #C9957C",
"-^	c #CD9A80",
";^	c #D7A186",
">^	c #E2AA8B",
",^	c #EDB491",
"'^	c #F6BA91",
")^	c #F8B98E",
"!^	c #F8B78E",
"~^	c #F5B48C",
"{^	c #F0AC86",
"]^	c #E9A580",
"^^	c #E09D79",
"/^	c #D3906E",
"(^	c #C58361",
"_^	c #BC7A58",
":^	c #BB7754",
"<^	c #BC7854",
"[^	c #BD7956",
"}^	c #C27C59",
"|^	c #BE7A57",
"1^	c #B87653",
"2^	c #BD7C5A",
"3^	c #CC9965",
"4^	c #D0C060",
"5^	c #C6D550",
"6^	c #C1D84C",
"7^	c #BDD34E",
"8^	c #B1BE4D",
"9^	c #9B9245",
"0^	c #9B6F43",
"a^	c #AD6D49",
"b^	c #B3704C",
"c^	c #AC6B49",
"d^	c #9F7446",
"e^	c #A28A43",
"f^	c #A97630",
"g^	c #90394B",
"h^	c #B1B93E",
"i^	c #AFA83B",
"j^	c #AD9737",
"k^	c #AE8431",
"l^	c #AA6527",
"m^	c #A4411B",
"n^	c #A12211",
"o^	c #A01D0D",
"p^	c #A12C0F",
"q^	c #A02D0E",
"r^	c #A03012",
"s^	c #9D7429",
"t^	c #9DAB3C",
"u^	c #ACC746",
"v^	c #C3D64F",
"w^	c #C5C15A",
"x^	c #C9A36F",
"y^	c #CF9A7D",
"z^	c #DCA185",
"A^	c #F1B28D",
"B^	c #E6A783",
"C^	c #BD876B",
"D^	c #8D6756",
"E^	c #8A6759",
"F^	c #9D7766",
"G^	c #B48873",
"H^	c #C8977C",
"I^	c #D8A280",
"J^	c #E7AD86",
"K^	c #F3B891",
"L^	c #F5BA93",
"M^	c #F0B28D",
"N^	c #EAAA87",
"O^	c #DD9C79",
"P^	c #CA8663",
"Q^	c #C67E5B",
"R^	c #C37B57",
"S^	c #BE7854",
"T^	c #BB7653",
"U^	c #BE7957",
"V^	c #BF7C5B",
"W^	c #BD7D5B",
"X^	c #C28260",
"Y^	c #CDA562",
"Z^	c #CCCA58",
"`^	c #BED54D",
" /	c #B4C34B",
"./	c #9B9744",
"+/	c #916D3F",
"@/	c #A36745",
"#/	c #B2704B",
"$/	c #B4714C",
"%/	c #A76947",
"&/	c #A18846",
"*/	c #A99240",
"=/	c #A75E24",
"-/	c #8E2449",
";/	c #B3D146",
">/	c #B3CD46",
",/	c #B4C846",
"'/	c #B3C043",
")/	c #B0B33E",
"!/	c #ADA639",
"~/	c #AC9A35",
"{/	c #A98F32",
"]/	c #A58A2F",
"^/	c #9E802A",
"//	c #966822",
"(/	c #886B26",
"_/	c #869535",
":/	c #9FBB42",
"</	c #B3CE49",
"[/	c #BCD54B",
"}/	c #C3CD50",
"|/	c #C7B462",
"1/	c #CDA078",
"2/	c #DBA486",
"3/	c #EAB08E",
"4/	c #F0B28C",
"5/	c #E5A37C",
"6/	c #B47A59",
"7/	c #634131",
"8/	c #3A2A25",
"9/	c #4E3933",
"0/	c #674C42",
"a/	c #7C5B4D",
"b/	c #8F6854",
"c/	c #A87C64",
"d/	c #C6967A",
"e/	c #DCA889",
"f/	c #E5AE8D",
"g/	c #E7AD8C",
"h/	c #E6A987",
"i/	c #E2A381",
"j/	c #DE9C7A",
"k/	c #D99470",
"l/	c #D58C67",
"m/	c #D08661",
"n/	c #C87F5B",
"o/	c #C07A58",
"p/	c #C07B5B",
"q/	c #C58162",
"r/	c #C88767",
"s/	c #CC9067",
"t/	c #CCB05C",
"u/	c #C4CF4E",
"v/	c #BDD04F",
"w/	c #ACAF4A",
"x/	c #967941",
"y/	c #9D6543",
"z/	c #AE6C49",
"A/	c #B06D4A",
"B/	c #A37145",
"C/	c #A89345",
"D/	c #AE8D3A",
"E/	c #A44819",
"F/	c #B5D447",
"G/	c #B5D348",
"H/	c #B5D248",
"I/	c #B3CE46",
"J/	c #B3CA46",
"K/	c #B3C544",
"L/	c #AEC242",
"M/	c #A4BA3E",
"N/	c #90A335",
"O/	c #70842B",
"P/	c #64832E",
"Q/	c #8AAA3B",
"R/	c #A8C645",
"S/	c #B5D148",
"T/	c #BFD54B",
"U/	c #C5C955",
"V/	c #CBB26B",
"W/	c #D7A881",
"X/	c #E6AE8D",
"Y/	c #EEB38E",
"Z/	c #E6A680",
"`/	c #C4845F",
" (	c #815238",
".(	c #392318",
"+(	c #201512",
"@(	c #291B18",
"#(	c #31211D",
"$(	c #3E2A24",
"%(	c #553C33",
"&(	c #765749",
"*(	c #946F5D",
"=(	c #AD836E",
"-(	c #C6967D",
";(	c #DBA487",
">(	c #E3A888",
",(	c #E3A483",
"'(	c #E19D7A",
")(	c #DF9672",
"!(	c #DC906D",
"~(	c #D58A68",
"{(	c #CE8666",
"](	c #CC8667",
"^(	c #D08C6D",
"/(	c #D49272",
"((	c #D2A169",
"_(	c #CAC056",
":(	c #C2D44C",
"<(	c #BFD350",
"[(	c #B2BC4D",
"}(	c #9E8D45",
"|(	c #9D6B44",
"1(	c #AB6B48",
"2(	c #B5714C",
"3(	c #A86846",
"4(	c #A08245",
"5(	c #AA9642",
"6(	c #AA712E",
"7(	c #A12D0E",
"8(	c #B5D347",
"9(	c #B3D346",
"0(	c #ADCE45",
"a(	c #9BC13E",
"b(	c #7AA434",
"c(	c #57852D",
"d(	c #6B9333",
"e(	c #91B33D",
"f(	c #AAC844",
"g(	c #BBD44B",
"h(	c #C2D54D",
"i(	c #C7C85A",
"j(	c #D1B371",
"k(	c #DEAB84",
"l(	c #E5AE8C",
"m(	c #E3A885",
"n(	c #D6936D",
"o(	c #B0714D",
"p(	c #71462E",
"q(	c #362219",
"r(	c #241812",
"s(	c #241611",
"t(	c #231611",
"u(	c #241713",
"v(	c #2D1E1B",
"w(	c #402D28",
"x(	c #59423A",
"y(	c #7B5C4F",
"z(	c #AB816B",
"A(	c #D7A283",
"B(	c #E9AD8B",
"C(	c #E8A683",
"D(	c #E39C79",
"E(	c #E49977",
"F(	c #E19675",
"G(	c #DB9274",
"H(	c #D89174",
"I(	c #D69476",
"J(	c #D49A72",
"K(	c #CDB261",
"L(	c #C4CD4F",
"M(	c #C0D64B",
"N(	c #BFD64F",
"O(	c #B4C54E",
"P(	c #9B9844",
"Q(	c #946D3F",
"R(	c #A76A46",
"S(	c #B7734D",
"T(	c #B16E4A",
"U(	c #A16E45",
"V(	c #A38E44",
"W(	c #AC8B3A",
"X(	c #A44D1E",
"Y(	c #9F0803",
"Z(	c #B5D346",
"`(	c #B0D245",
" _	c #B1D244",
"._	c #B7D546",
"+_	c #B7D547",
"@_	c #B7D548",
"#_	c #A8CD43",
"$_	c #91BC3C",
"%_	c #6A9B33",
"&_	c #54872F",
"*_	c #6F9A33",
"=_	c #94B83D",
"-_	c #ADCC46",
";_	c #B8D449",
">_	c #C1D44E",
",_	c #CAC85C",
"'_	c #D4B670",
")_	c #DCAA81",
"!_	c #DCA584",
"~_	c #DA9C78",
"{_	c #D18961",
"]_	c #734831",
"^_	c #3D271C",
"/_	c #2A1C15",
"(_	c #2A1B14",
"__	c #281913",
":_	c #221511",
"<_	c #241815",
"[_	c #402C23",
"}_	c #956B54",
"|_	c #D79F7E",
"1_	c #F0B38E",
"2_	c #EFB08B",
"3_	c #EBA884",
"4_	c #EAA381",
"5_	c #E79E7E",
"6_	c #E19A7D",
"7_	c #DA977B",
"8_	c #D19474",
"9_	c #CAA467",
"0_	c #C6C456",
"a_	c #C1D54C",
"b_	c #BDD24F",
"c_	c #A8B149",
"d_	c #8A763A",
"e_	c #94603D",
"f_	c #AD6C48",
"g_	c #B6724C",
"h_	c #B4714B",
"i_	c #A86A47",
"j_	c #A18546",
"k_	c #A99442",
"l_	c #A96D2E",
"m_	c #A12A0F",
"n_	c #9F0000",
"o_	c #B5D446",
"p_	c #AFD143",
"q_	c #B1D243",
"r_	c #B5D445",
"s_	c #B6D445",
"t_	c #B7D446",
"u_	c #B8D547",
"v_	c #B2D245",
"w_	c #A3CA42",
"x_	c #85B53B",
"y_	c #609733",
"z_	c #588C2F",
"A_	c #79A436",
"B_	c #98BD3E",
"C_	c #ACCD46",
"D_	c #C3D54D",
"E_	c #CDCB5A",
"F_	c #D3B86A",
"G_	c #CDA374",
"H_	c #D09B78",
"I_	c #DC9871",
"J_	c #D48960",
"K_	c #B7734E",
"L_	c #8D583C",
"M_	c #603D29",
"N_	c #3D281C",
"O_	c #301F18",
"P_	c #311F18",
"Q_	c #412A1E",
"R_	c #623E2A",
"S_	c #89563A",
"T_	c #BA7E5C",
"U_	c #E1A17C",
"V_	c #F2B48F",
"W_	c #F0B18D",
"X_	c #EAA987",
"Y_	c #E2A082",
"Z_	c #DA9A7F",
"`_	c #D19478",
" :	c #C69A69",
".:	c #C1B757",
"+:	c #BDD54A",
"@:	c #B8D04B",
"#:	c #AEBF4B",
"$:	c #949240",
"%:	c #825F35",
"&:	c #975E3E",
"*:	c #AD6D48",
"=:	c #B36F49",
"-:	c #AB6A47",
";:	c #A37C47",
">:	c #A79545",
",:	c #A98136",
"':	c #A3431C",
"):	c #9F0705",
"!:	c #B4D445",
"~:	c #B4D444",
"{:	c #B3D344",
"]:	c #ACD043",
"^:	c #99C740",
"/:	c #7CB13A",
"(:	c #5C9332",
"_:	c #609231",
"::	c #80AB38",
"<:	c #9FC342",
"[:	c #B2D048",
"}:	c #C6D651",
"|:	c #CBCE57",
"1:	c #C3B85B",
"2:	c #BB9D64",
"3:	c #CF9872",
"4:	c #E29A74",
"5:	c #DD8E67",
"6:	c #C97D57",
"7:	c #985E3E",
"8:	c #995F3E",
"9:	c #A36543",
"0:	c #B16F4B",
"a:	c #C3805B",
"b:	c #DA9873",
"c:	c #E9A984",
"d:	c #EDAF8C",
"e:	c #EFB38F",
"f:	c #EDB18E",
"g:	c #E3A787",
"h:	c #D79D80",
"i:	c #CF9779",
"j:	c #C99F6C",
"k:	c #C4B65A",
"l:	c #BECB4C",
"m:	c #B8D249",
"n:	c #B3CA4A",
"o:	c #A3AD46",
"p:	c #86753A",
"q:	c #975F3F",
"r:	c #A86844",
"s:	c #A17244",
"t:	c #A99749",
"u:	c #AF9540",
"v:	c #A55C25",
"w:	c #9F1809",
"x:	c #9E0003",
"y:	c #9F0101",
"z:	c #BDD648",
"A:	c #B2D344",
"B:	c #A9CF42",
"C:	c #97C53F",
"D:	c #79AD39",
"E:	c #5D9231",
"F:	c #659532",
"G:	c #87B03A",
"H:	c #A0C442",
"I:	c #B0CF49",
"J:	c #BED54F",
"K:	c #C4D751",
"L:	c #C0CF4F",
"M:	c #B1B64E",
"N:	c #B09C5D",
"O:	c #CC9871",
"P:	c #E39B78",
"Q:	c #E69570",
"R:	c #DF8C66",
"S:	c #D88761",
"T:	c #D4845E",
"U:	c #D68E67",
"V:	c #DA9772",
"W:	c #DFA17D",
"X:	c #E8AD89",
"Y:	c #EFB490",
"Z:	c #EDB390",
"`:	c #E9AF8D",
" <	c #E3AA89",
".<	c #D8A081",
"+<	c #CE9B76",
"@<	c #CBA96A",
"#<	c #C9BF5C",
"$<	c #C5CF50",
"%<	c #B4CF48",
"&<	c #B4C54C",
"*<	c #ABA34D",
"=<	c #825238",
"-<	c #925B3D",
";<	c #996A41",
"><	c #9E8C44",
",<	c #AB9942",
"'<	c #AA732F",
")<	c #A43016",
"!<	c #A3010D",
"~<	c #A10209",
"{<	c #B1D245",
"]<	c #B2D244",
"^<	c #A8CF42",
"/<	c #96C43F",
"(<	c #79AB37",
"_<	c #5E9230",
":<	c #679632",
"<<	c #84AF39",
"[<	c #9CC141",
"}<	c #AFCD4A",
"|<	c #BBD44F",
"1<	c #BCD54E",
"2<	c #B2CB49",
"3<	c #9FB347",
"4<	c #9F9B54",
"5<	c #B79365",
"6<	c #D09570",
"7<	c #DF9976",
"8<	c #E59D79",
"9<	c #E49C78",
"0<	c #DE9A76",
"a<	c #D99C7A",
"b<	c #DCA482",
"c<	c #E3AC8A",
"d<	c #E8B28E",
"e<	c #EBB38E",
"f<	c #E9AF8B",
"g<	c #E2AB84",
"h<	c #DBAA7B",
"i<	c #D2AD70",
"j<	c #CAB862",
"k<	c #C6C756",
"l<	c #C1D14E",
"m<	c #BED64B",
"n<	c #BBD44A",
"o<	c #B2CE48",
"p<	c #AFCA46",
"q<	c #B6C250",
"r<	c #B4A159",
"s<	c #9F7350",
"t<	c #895840",
"u<	c #87563C",
"v<	c #8F6940",
"w<	c #9A8A43",
"x<	c #A5963E",
"y<	c #A7782E",
"z<	c #A93D1E",
"A<	c #B20D20",
"B<	c #AACF43",
"C<	c #98C33E",
"D<	c #7EAD38",
"E<	c #679832",
"F<	c #6C9B33",
"G<	c #81AC39",
"H<	c #95BB40",
"I<	c #A4C545",
"J<	c #ADCB48",
"K<	c #ADCD48",
"L<	c #A6C644",
"M<	c #9FBA44",
"N<	c #9FAD4B",
"O<	c #A5A155",
"P<	c #AE9C5D",
"Q<	c #B59E61",
"R<	c #B9A262",
"S<	c #BDA563",
"T<	c #C4AC69",
"U<	c #CFB572",
"V<	c #D9B778",
"W<	c #DEB678",
"X<	c #DCB774",
"Y<	c #D8BA6F",
"Z<	c #D1BF67",
"`<	c #CBC45F",
" [	c #C4C857",
".[	c #BECE4E",
"+[	c #B2D047",
"@[	c #ACCA46",
"#[	c #A4BD44",
"$[	c #ABB944",
"%[	c #B6BC4D",
"&[	c #B1AA56",
"*[	c #A18656",
"=[	c #91744D",
"-[	c #928348",
";[	c #A19E49",
">[	c #AA9D43",
",[	c #A7772F",
"'[	c #A4411A",
")[	c #B0111E",
"![	c #B3D345",
"~[	c #BBD648",
"{[	c #A1C73F",
"][	c #8CB73A",
"^[	c #7AA836",
"/[	c #71A034",
"([	c #7CA736",
"_[	c #8FB63C",
":[	c #99BE3F",
"<[	c #9DC241",
"[[	c #A0C542",
"}[	c #AAC947",
"|[	c #AFCA4A",
"1[	c #AAC349",
"2[	c #A6BD49",
"3[	c #A2BB48",
"4[	c #A3BD48",
"5[	c #ADC04C",
"6[	c #B9C652",
"7[	c #C2CC57",
"8[	c #CBCC5B",
"9[	c #D0CD5C",
"0[	c #CACC57",
"a[	c #C2CC52",
"b[	c #C0D14E",
"c[	c #BDD34B",
"d[	c #B4D248",
"e[	c #B3D148",
"f[	c #B1CF48",
"g[	c #A7BC45",
"h[	c #A79B40",
"i[	c #B6833D",
"j[	c #BB9842",
"k[	c #B4AF4A",
"l[	c #AEB150",
"m[	c #AAAD4E",
"n[	c #ADAA4B",
"o[	c #B19D43",
"p[	c #AB7830",
"q[	c #A24018",
"r[	c #A60F13",
"s[	c #B70624",
"t[	c #B6D549",
"u[	c #BBD548",
"v[	c #BCD749",
"w[	c #BCD748",
"x[	c #BAD647",
"y[	c #A9CD42",
"z[	c #9EC440",
"A[	c #8FB73B",
"B[	c #81AB36",
"C[	c #7FA936",
"D[	c #84AF38",
"E[	c #8EB73B",
"F[	c #9AC040",
"G[	c #A9C946",
"H[	c #B1CF4A",
"I[	c #B1CF49",
"J[	c #AECC48",
"K[	c #ACCC48",
"L[	c #AECE48",
"M[	c #B2D04A",
"N[	c #B6D24B",
"O[	c #C1D74E",
"P[	c #B5D049",
"Q[	c #ABCC45",
"R[	c #AACC45",
"S[	c #A8CA44",
"T[	c #A1C543",
"U[	c #9DC142",
"V[	c #9CBF41",
"W[	c #A0B542",
"X[	c #AA943F",
"Y[	c #B76439",
"Z[	c #C03E34",
"`[	c #C15836",
" }	c #BF7D3C",
".}	c #BE8D41",
"+}	c #BE803E",
"@}	c #B76332",
"#}	c #AA381D",
"$}	c #A50E11",
"%}	c #B0051E",
"&}	c #B6D449",
"*}	c #B7D549",
"=}	c #BBD64A",
"-}	c #B9D649",
";}	c #B4D247",
">}	c #AECE45",
",}	c #A5C542",
"'}	c #99BB3F",
")}	c #8DB53C",
"!}	c #8BB53A",
"~}	c #95BC3E",
"{}	c #9DC141",
"]}	c #A0C342",
"^}	c #A3C544",
"/}	c #A3C644",
"(}	c #A6C845",
"_}	c #AACA47",
":}	c #ADCE48",
"<}	c #ACCD47",
"[}	c #B3D149",
"}}	c #B4D14A",
"|}	c #A7CA45",
"1}	c #9EC542",
"2}	c #9AC241",
"3}	c #96BD3F",
"4}	c #91B83E",
"5}	c #83AC3A",
"6}	c #76A036",
"7}	c #769F35",
"8}	c #85A339",
"9}	c #9C9D3B",
"0}	c #B1853B",
"a}	c #BE5A38",
"b}	c #C23334",
"c}	c #C33232",
"d}	c #C33E33",
"e}	c #C33331",
"f}	c #BF202C",
"g}	c #B80B26",
"h}	c #B80624",
"i}	c #BF0424",
"j}	c #B3D349",
"k}	c #B4D447",
"l}	c #B8D447",
"m}	c #BDD649",
"n}	c #BBD547",
"o}	c #BAD546",
"p}	c #AFCD48",
"q}	c #A4C744",
"r}	c #9FC442",
"s}	c #A3C642",
"t}	c #A1C542",
"u}	c #9CC140",
"v}	c #93BA3E",
"w}	c #93BB3F",
"x}	c #96BD40",
"y}	c #97BD41",
"z}	c #93BA3F",
"A}	c #97BC41",
"B}	c #96BC41",
"C}	c #92BA3F",
"D}	c #8CB53D",
"E}	c #80AA39",
"F}	c #74A036",
"G}	c #6E9B34",
"H}	c #689833",
"I}	c #699A33",
"J}	c #75A435",
"K}	c #88B33A",
"L}	c #9EBF40",
"M}	c #AEBD44",
"N}	c #B8AD44",
"O}	c #BD9741",
"P}	c #BD7C3B",
"Q}	c #B95531",
"R}	c #BC272C",
"S}	c #C2092E",
"T}	c #B2D249",
"U}	c #B1D248",
"V}	c #B3D247",
"W}	c #BBD64B",
"X}	c #B8D44B",
"Y}	c #B1D148",
"Z}	c #ACCF47",
"`}	c #B0D047",
" |	c #B1D048",
".|	c #ABCD47",
"+|	c #A2C643",
"@|	c #9AC140",
"#|	c #95BE3F",
"$|	c #91BB3E",
"%|	c #8AB53C",
"&|	c #7EAB38",
"*|	c #75A236",
"=|	c #709D35",
"-|	c #6C9A34",
";|	c #6B9934",
">|	c #699C34",
",|	c #71A336",
"'|	c #7CAD39",
")|	c #8AB83C",
"!|	c #97C13F",
"~|	c #A2C842",
"{|	c #ACCF46",
"]|	c #B5D249",
"^|	c #B7CF49",
"/|	c #B9C949",
"(|	c #B8BD46",
"_|	c #B5AC40",
":|	c #B89A3E",
"<|	c #BE873F",
"[|	c #C26C3C",
"}|	c #C34A37",
"||	c #C42733",
"1|	c #C31130",
"2|	c #C30C2E",
"3|	c #B3D248",
"4|	c #BFD848",
"5|	c #BFD84B",
"6|	c #B6D44A",
"7|	c #B0D048",
"8|	c #AECE47",
"9|	c #9BC340",
"0|	c #92BB3D",
"a|	c #87B33B",
"b|	c #7EAC39",
"c|	c #77A838",
"d|	c #76A837",
"e|	c #7AAB38",
"f|	c #81B13A",
"g|	c #8CBA3D",
"h|	c #96C13F",
"i|	c #9FC741",
"j|	c #A7CD44",
"k|	c #AED046",
"l|	c #BBD74B",
"m|	c #B8CA49",
"n|	c #BBC249",
"o|	c #BEB748",
"p|	c #C0AB45",
"q|	c #BF9A42",
"r|	c #C0803E",
"s|	c #C25739",
"t|	c #C32733",
"u|	c #C30C2F",
"v|	c #B6D548",
"w|	c #B2D246",
"x|	c #B7D445",
"y|	c #B1D246",
"z|	c #AFD045",
"A|	c #ACCE46",
"B|	c #A9CB46",
"C|	c #A4C844",
"D|	c #9FC642",
"E|	c #9BC540",
"F|	c #9EC740",
"G|	c #A2CA42",
"H|	c #A6CD43",
"I|	c #AED044",
"J|	c #C0D84C",
"K|	c #BCD74B",
"L|	c #BAD54C",
"M|	c #BCD04A",
"N|	c #BCC048",
"O|	c #BFAD46",
"P|	c #BF9341",
"Q|	c #C0743B",
"R|	c #C25339",
"S|	c #C43333",
"T|	c #AED146",
"U|	c #ACD146",
"V|	c #B9D647",
"W|	c #BDD64A",
"X|	c #C1D84B",
"Y|	c #B6D346",
"Z|	c #BCD74A",
"`|	c #BDD74B",
" 1	c #B9C648",
".1	c #B9B845",
"+1	c #BAAC44",
"@1	c #BDA341",
"#1	c #A9936C",
"$1	c #B2D348",
"%1	c #ACD046",
"&1	c #ADD146",
"*1	c #BAD648",
"=1	c #C0D74A",
"-1	c #BFD74A",
";1	c #B7D348",
">1	c #B7D148",
",1	c #B7CF48",
"'1	c #B8CE45",
")1	c #BCD745",
"!1	c #B0D247",
"~1	c #C1D84A",
"{1	c #B7D545",
"]1	c #B5D343",
"^1	c #B6D444",
"/1	c #B8D545",
"(1	c #B5D449",
"_1	c #B5D443",
":1	c #B2D343",
"<1	c #B4D344",
"[1	c #B4D343",
"}1	c #B2D248",
"|1	c #B0D148",
"11	c #B3D243",
"21	c #B6D545",
"31	c #ABD046",
"41	c #AAD045",
"51	c #AFD146",
"61	c #BED746",
"71	c #AACD47",
"81	c #B3D34A",
"91	c #B5D44A",
"01	c #B7D54B",
"a1	c #B9D54C",
"b1	c #BCD64C",
"c1	c #B7D54A",
"d1	c #AAD047",
"e1	c #A6CF47",
"f1	c #A9CF47",
"g1	c #B0D248",
"    . + @ # $ % & * = - ; > , ' ) ! ~ { ] ^ / ( _ : < [ } | 1 2 2 2 3 4 4 5 6 7 8 9 0 a b c d e f g h i j k l m n o p q r r s t ",
"u u v w x y z A A A A A A A A B u C D w E F G G H I x J K L M M M M M M N O P Q R S T U V W X Y D Z `  ...+.@.#.$.%.&.*.*.*.=.-.",
";.;.F D I >.,.'.).).).).).).'.!.~.H w D D D D D D w w {.].^.'.).).).).).)./.(._.:.<.[.}.|.1.2.3.D 4.5.6.7.8.9.0.a.b.c.d.e.e.f.g.",
"h.h.w i.j.k.l.m.n.o.).).p.q.r.u s.t.u.~.H D D D v.w.;.x.y.o.).z.A.B.C.D.E.F.G.H.I.J.K.L.M.N.O.0.D D E P.Q.{.F v.R.S.n.^.T.U.V.f.",
"h.h.;.W.X.Y.Z.`. +]..+o.++@+R.H #+$+%+r.&+*+i.`.u.=+++-+;+>+,+'+)+!+~+{+]+^+/+(+_+J.:+<+[+}+|+1+D D D w w G 2+3+4+T.q.5+6+7+8+V.",
"9+9+>.p.A >.I F F 0+a+b+q.J h.D 2+u c+u.d+H 7+7.e+f+g+h+i+j+k+l+m+n+o+p+(+q+r+s+t+[.u+v+w+x+y+D D D D D D h.`.!.z+p.A+i.w h.B+8+",
"C+C+T.'.p.D+H D E+F+++o.T.G+H D D v 9+H+w I+J+K+L+M+N+O+P+Q+R+S+T+U+V+W+X+W+Y+Z+`+ @.@+@@@#@$@%@a.D D D D d+&@p.*@=@6+-@D D ;@B+",
"~.~.>@T.4+F+w D D #+c+A ,@6+-@D D D w w 4.'@)@!@~@{@]@^@/@(@_@:@<@[@Y+}@|@1@2@3@4@X+5@6@7@8@9@0@a@b@4.D D H C+c@Y.x.d+D D G d@;@",
"2+2+;.6+I h.D D D v 6+e@`.w.D D D D 4.f@g@h@i@j@k@l@m@n@o@p@X+X+q@r@[@s@t@u@t@3@3@V+v@Y+w@x@y@z@A@B@C@a.D G i.~.Q.H+w D D D D@d@",
"D D w F w D D D D G -@v h.w H+3+E@F@G@H@I@J@K@x@L@M@N@:@5@r@O@P@Q@R@S@R@T@U@V@W@O@X@Y@3@m@Z@`@ #.#+#@###$#v.D w w w D D D D %#D@",
"G G D D D D D D D D D D D 2+&#*#=#-#;#>#,#'#)#M@!#~#{#]#^#/#(#_#:#<#[#}#|#1#2#3#4#5#1#T@6#7#8#9#T+0#a#b#c#d#D D D D D D D D e#%#",
"D D D D D D D D D D D D D v u.f#g#h#i#j#k#l#m#n#~#o#p#q#r#s#t#u#v#w#x#y#z#A#B#C#D#E#F#G#H#I#3@J#K#L#M#N#O#P#Q#D D D D D D D e#e#",
"D D D D D D D D D D D D D w 0+R#S#T#U#V#W#X#Y#Z#`# $.$+$@$#$$$%$&$*$=$-$;$>$,$'$)$!$~${$]$^$/$s@Z@($n@_$:$<$[$}$D D D D D D e#e#",
"h.h.w D D D D D D D D v.H v |$1$2$3$4$5$6$7$8$`#9$0$a$b$c$d$e$f$g$h$i$j$k$l$m$n$o$p$q$r$s$t$J.u$v$7#w$x$y$z$A$B$}$D D D D D e#e#",
"x.x.u v D D D D 4.C$D$E$F$G$H$I$J$K$L$M$N$O$P$Q$R$S$T$U$V$W$X$i$Y$Z$`$ %.%+%@%.%#%$%%%&%*%=%-%;%T@>%,%L@S+'%)%!%~%D D D D D e#e#",
"%+%+q.`.h.D D }${%]%^%/%(%_%:%<%[%}%R+|%1%2%3%4%5%6%7%8%9%0%a%Z$b%c%d%e%f%g%h%h%d%c%i%j%k%l%m%n%o%p%q%,%r%s%t%u%v%w%D D D D e#e#",
"o.o.x%u.H D y%z%A%B%C%D%E%!@F%G%H%5$I%J%K%L%M%N%O%P%Q%R%S%T%`$U%V%W%X%Y%Z%`% &Y%f%.&U%b%+&@&#&$&%&&&*&=&w$-&;&>&,&'&4.D D D e#e#",
").).)&C+h.D !&~&{&]&^&/&(&_&:&<&[&}&|&1&2&3&4&5&6&7&8&9&0&a&b&g%c&Z%d&e&f&g&h&i&e&j&.&k&l&m&n&o&p&q&W@6#m@:@r&s&t&u&v&D D w w&e#",
"r.r.u d+2+x&y&z&A&B&C&D&E&F&G&H&I&J&K&L&M&N&O&P&Q&R&S&T&U&V&W&Y%d&X&Y&Z&`&`& *.*h&+*@*W%.&l&#*$*%*&***K&(@=*-*;*>*,*'*F+2+)*!*w&",
"I I h.v u ~*{*]*^*/*(*_*:*<*[*}*|*1*2*3*4*5*6*7*8*9*0*a*b*f%c*d*i&e*.* *f*g*g*h*i*e*j*k*Z%l*b%m*n*o*p*q*r*s*7$t*u*v*w*x*s.&#y*!*",
"w.w.H+D+z*A*B*C*D*E*F*G*H*I*J*K*L*K%M*N*O*P*Q*R*S*T*U*V*W*Y%d*X*Y*Z*i*i*`* =.= =`*+=@=#=j*Z%$=%=&=*===-=]#;=N$=*>=,='=)=3+#+!=y*",
"&@&@4+Y.~={=]=^=/=(=_=:=<=[=}=|=1=2=3=4=5=6=7=8=9=0=a=b=c=d=e=f=g=h=i=j=k=l=m=m=n=i=o=p=e*+*q=r=s=t=u=v= @w=x=y=z=A=B=C=D=F w&!=",
">@>@&@e@E=F=G=H=I=J=K=L=M=N=O=P=Q=2&R=S=T=U=V=W=X=Y=Z=`= -.-+-@-#-g=$-%-&-*-=-=-%---;->-g=,-Z%'-)-!-~-{-]-p@^-!#/-(-_-:-<-D e#w&",
"[-[-d+v }-|-1-2-3-4-5-6-7-8-K*9-0-a-b-c-d-e-f-g-h-i-j-k-l-m-n-o-,-p-q-;-;-r-s->-t-u-v-w-x-y-e=z-A-B-C-D-E-F-G-H-I-J-K-L-}$G M-e#",
"#+#+d+N-O-P-Q-R-S-T-U-V-W-X-Y-Z-1&`- ;.;+;@;#;$;%;&;*;=;-;;;>;,;';);!;~;;-{;{;];^;/;(;_;{;:;<;[;d%};|;1;2;<@3;4;5;6;7;8;3.9;0;M-",
"r.r.].a;b;c;d;e;f;g;h;i;j;k;l;m;n;o;p;q;r;s;t;u;v;w;w;x;y;z;A;B;C;e&);#-q-D;D;x-E;F;(;_;w-G;H;I;W&J;K;L;M;N;N@5;5;O;P;Q;R;S;T;0;",
"z+z+U;V;W;X;Y;Z;`; >.>+>@>#>$>%>&>*>=>->;>>>,>S%'>)>!>~>{>]>^>/>(>_>+*e*g=g=:>y-<>[>}>|>1>}>2>3>4>5>6>7>8>9>0>a>5;b>c>d>e>&@f>T;",
").).p.g>h>i>j>k>l>m>n>o>p>q>Q=r>s>t>u>v>w>x>y>z>A>B>C>D>E>F>G>H>I>J>K>L>M>:>N>O>P>Q>Q>R>S>T>U>V>W>X>Y>Z>`> ,~#.,+,@,#,$,%,&,*,f>",
").).=,-,;,>,,,k>',),!,~,{,],^,2&/,(,_,:,<,[,},|,1,2,3,4,5,6,7,8,9,0,l*a,);b,c,d,e,f,g,h,i,j,k,l,m,n,o,p,q,r,~#s,t,u,v,w,x,y,z,A,",
"T.T.Z.B,C,D,E,F,G,H,I,J,K,L,M,N,O,P,Q,R,S,T,U,V,W,X,Y,Z,`, '.'+'@'#'$'%'&'*'='-';'>',''',')'!'~'{']'^'/'('_':'s,<'['}'s&|'1'2'3'",
"`.`.R.4'5'6'7'8'9'0'a'b'c'd'e'f'g'h'i'j'k'l'm'n'o'p'q'r's't'u'v'w'A-k&$=x'y'z'A'B'C'D'E'F'G'H'I'{'J'K'L'M'q@Z#W#N'O'P'Q'R'S'T'U'",
"F F w V'W'X'Y'Z'`' ).)+)@)#)$)%)&)*)=)-);)>),)')))!)~){)])^)/)()_):)<)#'[)})|)1)2)3)4)5)6)7)8)9)0)a)b)c)d)0>8$e)f)|*g)h)i)j)k)l)",
"D D D }$m)n)o)p)q)r)s)t)u)v)w)x)y)z)A)B)C)D)E)F)G)H)I)J)K)L)M)N)O)P)Q)R)S)T)U)V)W)X)Y)Z)`)v; !.!0)+!@!#!$!%!&!*!=!1%-!;!>!,!'!)!",
"D D D 4.!!~!{!]!^!/!(!_!:!<!L*[!}!|!1!2!3!4!5!6!7!8!9!0!a!b!c!d!e!f!g!h!G,i!j!k!l!m!n!o!p!0&q!r!s!t!u!v!w!%!X#x!=!g)y!z!A!B!C!D!",
"D D D D E!F!G!H!I!J!K!L!M!N!O!P!Q!R!S!T!U!V!W!T&X!Y!Z!`! ~.~+~@~#~$~%~&~*~=~-~;~>~,~'~)~!~~~{~]~^~/~(~_~:~1&<~[~}~|~1~2~3~4~5~6~",
"D D D D E!7~8~9~0~a~b~c~d~e~I-f~g~h~i~j~k~l~m~n~o~p~q~r~s~t~u~v~w~x~y~z~A~B~C~D~E~F~G~H~I~J~K~L~M~N~O~P~Q~R~O!O!S~T~U~A!V~W~X~Y~",
"D D D D }$Z~`~ {.{+{@{#{${e~}~%{&{*{={-{;{>{,{'{){!{~{{{]{^{/{({_{:{<{[{}{|{1{2{3{4{5{6{7{8{x'9{0{a{b{c{d{e{}~f{g{h{i{j{k{l{m{n{",
"v.v.h.w D o{p{q{r{s{t{u{v{w{R+x{y{z{A{B{C{D{E{F{G{H{r;I{J{K{L{M{N{O{P{Q{R{S{T{U{V{W{X{Y{Z{`{ ].]+]@]#]$]%]&]*]=]-];]>],]'])]!]~]",
"{]{]]]^]v /](]_]:]<][]}]|]1]2]3]4]5]6]7]8]9]0]a]b]c]d]e]f]g]h]i]j]k]l]m]n]o]p]q]r]s]t]u]v]w]x]y]z]A]B]C]D]e{E]F]G]H]I]J]K]L]M]N]",
"O]O]P]Q]R]e@S]T]U]V]W]X]Y]Z]`]|& ^.^+^@^#^$^%^&^*^=^-^;^>^,^'^)^!^~^{^]^^^/^(^_^:^<^[^w]}^|^1^2^3^4^5^6^m#7^8^9^0^a^b^c^d^e^f^g^",
"h^h^i^j^k^l^m^n^o^p^q^r^s^t^u^$>v^w^x^y^z^&^A^B^C^D^E^F^G^H^I^J^K^L^M^N^r;O^/^P^Q^R^S^T^U^V^W^X^Y^Z^$]3]`^ /./+/@/#/$/%/&/*/=/-/",
";/;/>/,/'/)/!/~/{/]/^///(/_/:/</[/}/|/1/2/3/4/5/6/7/8/9/0/a/b/c/d/e/f/g/h/i/j/k/l/m/n/o/p/q/r/s/t/u/r*m#v/w/x/y/z/$/A/B/C/D/E/V.",
"F/F/7#G/H/k@I/J/K/L/M/N/O/P/Q/R/S/T/U/V/W/X/Y/Z/`/ (.(+(@(#($(%(&(*(=(-(;(>(,('()(!(~({(](^(/(((_(:(Y#<([(}(|(1(2($/3(4(5(6(7(V.",
"3@3@8(9(1@|@F/|@Z@J#0(a(b(c(d(e(f(g(h(i(j(k(l(m(n(o(p(q(r(s(t(u(v(w(x(y(z(A(B(C(D(E(F(G(H(I(J(K(L(M(N(O(P(Q(R($/S(T(U(V(W(X(Y(V.",
"Z(Z(`( _6#._6#6#+_@_9(#_$_%_&_*_=_-_;_>_,_'_)_!_~_{_a^]_^_/_(___s(:_<_[_}_|_1_2_3_4_5_6_7_8_9_0_a_3]b_c_d_e_f_g_h_i_j_k_l_m_n_V.",
"o_o_p_q_r_s_t_t_u_X@t_v_w_x_y_z_A_B_C_^-D_E_F_G_H_I_J_K_L_M_N_O_P_Q_R_S_T_U_2_V_W_X_Y_Z_`_ :.:P'+:@:#:$:%:&:*:=:-:;:>:,:':):n_V.",
"I#I#!:~:t@{:t_._t_P@v@t_]:^:/:(:_:::<:[:!#}:|:1:2:3:4:5:6:X$m>7:8:9:0:a:b:c:d:e:f:g:h:i:j:k:l:6@m:n:o:p:.>q:l>r:s:t:u:v:w:x:y:V.",
"u_u_!:t@{: _~:r_!:X@z:T@A:B:C:D:E:F:G:H:I:J:K:L:M:N:O:P:Q:R:S:T:o-U:V:W:X:Y:Z:`: <.<+<@<#<$<`+n@%<&<*<(*=<-<3-;<><,<'<)<!<~<V.V.",
"Z@Z@{<{:r_]<u@{:{:I#R@P@._{:^</<(<_<:<<<[<}<|<1<2<3<4<5<6<7<8<9<0<a<b<c<d<e<f<g<h<i<j<k<l<m<n<o<p<q<r<s<t<u<v<w<x<y<z<A<6+7+8+V.",
"7#7#8#t@{: _A:A:{:T@R@R@z:T@t@B<C<D<E<F<G<H<I<J<K<L<M<N<O<P<Q<R<S<T<U<V<W<X<Y<Z<`< [.[I%/@+[@[#[$[%[&[*[=[-[;[>[,['[)[5.w h.;@V.",
"Z@Z@7#o_![{<>%!:t_R@_#z:~[~[O@Y@p_{[][^[/[([_[:[<[[[}[|[1[2[3[4[5[6[7[8[9[0[a[b[c[T+d[e[f[-_g[h[i[j[k[l[m[n[o[p[q[r[s[-@D D ;@;@",
"L@L@t[}@6#v_>%o_u[5@v[v@~[w[r@x[s_ _y[z[A[B[C[D[E[F[G[H[I[J[K[L[M[N[|%O[x{P[Q[R[Q[S[T[U[V[W[X[Y[Z[`[ }.}.}+}@}#}$}%}d+D D D d@e#",
"&}&}*}=}-}o_=&6#v@~[~[~[[@r@O@P@T@T@3@;}>},}'})}!}~}{}]}^}/}(}_}K<:}<}[}}}|}1}2}3}4}5}6}7}8}9}0}a}b}c}d}d}e}f}g}h}H+w D D D i}e#",
"j}j}G/^-w@|@k}l}X@3@x[R@m}5@R@n}1#o}u_s@Y+/@p}q}r}s}t}u}3}v}w}x}y}z}z}A}B}C}D}E}F}G}H}I}J}K}L}M}N}O}P}Q}R}S}}$v.w G D D D D %#e#",
"T}T}U}V}3@Z@|@3@m@6#u_~[O@/$R@w[/$/$~[p@X+W}X}Y}Z}`} |.|+|@|#|$|%|&|*|=|-|-|;|H}>|,|'|)|!|~|{|]|^|/|(|_|:|<|[|}|||1|2|D D D e#e#",
"T}T}3|8(3@@_}@l}8(1@._I#P@O@Q@O@4|_#[@X+r*5|M@6|3|d[J#T}7|8|R[~|9|0|a|b|c|d|e|f|g|h|i|j|k|8#(@W}l|o@M$^|m|n|o|p|q|r|s|t|u|D e#e#",
"6|6|L@8(9(v|-}s@9#w|o_s_x|t_u_O@/$w[~[[@r*t+r*!#r%o@o@($w$L@8(y|z|A|B|C|D|E|F|G|H|I|v_9(}@<@C]J|K|w=o@3;L|a>5$M|E&N|O|P|Q|R|S|;@",
"&}&}J#T|U|J#w=}@|@8(o_u_X@s_u_x[w[V||@X@W|6^X|r*W|X+<@r*X+@_|@}@s@($($L@9( _{<=&w|Y|u_X@5@N;C]J|<@Z|X+=}=}=}`|=}o@I%4$ 1.1+1@1#1",
"7#7#$1%1&1,%Z@u_u_}@3@t_6#r_s_I#T@6#1@l}s@}@F-[@*1}@[@J|<@|@F/w@=}w==}W|m}~[s@3@3@l}T@x[5@=1-15@-15|q@O@s@F-<@5@q@X+(@;1>1,1'1)1",
"J#J#,%!1`@9#o_6#3@s@l}t@o_._I#I#s_A:]<s_I#._t_I#T@._X@r@5@p@v@p@=}=}p@5@~1X|5|p@v@s@[@S@5@5@r@z:-1X|S@Q@X@*15@_'5@p@;_*}w@}@{1)1",
"J#J#9#`@8#F/+_F/|@v@X@6#t_X@X@t_{:q_*&]1^1r_r_^1/1I#I#I#O@5@[@R@[@m}S@=1u+u+.@S@Q@~[r@_#[@X+m}m}=1[#S@Q@u_}@v[S@Z|(@(1J#|@X@2#)1",
"`@`@F/9#8(|@Z@Z@F/X@*1u_6#t_I#s_{:*&p%_1*&:1{:<1[1I#Q@X@P@O@X@I#._u_n}z:S@S@S@v@r_6#X@~[v@~[O@S@-1S@~[u_+_}@u[s@7#,%}18#6#Q@)1)1",
"|1|18#J#m@V+m@^-Z@9(o_|@6#s_s_s_s_r_{::1:1]<{:11u@r_P@~[x[I#s_t@![{<t@I#P@~[~[3@>%![u_*1V|X@u_u_s@*1X@21|@m@|@y|3141513@Q@R@61)1",
"71718191x=6|01a16|`@J#&}Z@Z@|@}@p@}@1@>%9(8(F/F/Z(|@}@Y+=}s@Z@7#&}L@L@w@!#:@b1c1j}01b1W}w@^-L@G/*}w@&}&}6|K#U}d1e1f1g1w@r*6^:#)1"};
