/* XPM */
static char * lala_xpm[] = {
"64 64 2581 2",
"  	c #5F3C80",
". 	c #4C408B",
"+ 	c #4D408B",
"@ 	c #4D3F8A",
"# 	c #4F5194",
"$ 	c #5167A4",
"% 	c #5071B0",
"& 	c #3B70B4",
"* 	c #1E70B8",
"= 	c #1E75BE",
"- 	c #447BB6",
"; 	c #A7958F",
"> 	c #DDA95B",
", 	c #D3A567",
"' 	c #8F8E9B",
") 	c #5477A8",
"! 	c #B98D72",
"~ 	c #EFAF32",
"{ 	c #F4BA35",
"] 	c #F3B82E",
"^ 	c #EBAD32",
"/ 	c #B0907F",
"( 	c #3F66A2",
"_ 	c #114396",
": 	c #143D92",
"< 	c #105EA9",
"[ 	c #0B72B9",
"} 	c #0D74BB",
"| 	c #0F6BB4",
"1 	c #114D9D",
"2 	c #163891",
"3 	c #1A5EAB",
"4 	c #1D75BE",
"5 	c #1E68B4",
"6 	c #1E50A1",
"7 	c #1B4498",
"8 	c #103B92",
"9 	c #0B358E",
"0 	c #0E3D93",
"a 	c #12499B",
"b 	c #16489A",
"c 	c #173B93",
"d 	c #173690",
"e 	c #14368F",
"f 	c #10358E",
"g 	c #13358F",
"h 	c #153690",
"i 	c #11358E",
"j 	c #0C3D92",
"k 	c #0E51A0",
"l 	c #1165B0",
"m 	c #0F6DB6",
"n 	c #0C6EB6",
"o 	c #0C72BA",
"p 	c #1174BC",
"q 	c #1173BC",
"r 	c #0F73BB",
"s 	c #0F74BB",
"t 	c #0F72B9",
"u 	c #1260AC",
"v 	c #114397",
"w 	c #10368F",
"x 	c #433085",
"y 	c #00469B",
"z 	c #0059A8",
"A 	c #004C9F",
"B 	c #003893",
"C 	c #003E96",
"D 	c #0061AE",
"E 	c #0078C1",
"F 	c #0077C2",
"G 	c #6B86AE",
"H 	c #D1A86F",
"I 	c #FCB920",
"J 	c #F8B62A",
"K 	c #DDA75E",
"L 	c #8D7C8B",
"M 	c #8E727E",
"N 	c #E3A442",
"O 	c #FDBC22",
"P 	c #FDC121",
"Q 	c #FDBE19",
"R 	c #DDA95F",
"S 	c #827C95",
"T 	c #00469C",
"U 	c #003691",
"V 	c #0058A6",
"W 	c #0073BD",
"X 	c #0079C2",
"Y 	c #0077C0",
"Z 	c #006AB5",
"` 	c #0062AE",
" .	c #0070BA",
"..	c #005FAC",
"+.	c #003892",
"@.	c #003591",
"#.	c #003792",
"$.	c #0050A1",
"%.	c #0068B4",
"&.	c #006FB9",
"*.	c #0063AF",
"=.	c #00489C",
"-.	c #003791",
";.	c #003D95",
">.	c #0055A5",
",.	c #0054A4",
"'.	c #003B94",
").	c #0057A6",
"!.	c #0071BB",
"~.	c #006DB8",
"{.	c #004EA0",
"].	c #003C94",
"^.	c #444C96",
"/.	c #0054A5",
"(.	c #006DB7",
"_.	c #0064B0",
":.	c #004198",
"<.	c #003C95",
"[.	c #838BA6",
"}.	c #DEAC5F",
"|.	c #FDBB22",
"1.	c #FCBC26",
"2.	c #F8B32C",
"3.	c #C9905C",
"4.	c #776180",
"5.	c #B58569",
"6.	c #F4B02B",
"7.	c #FDBF22",
"8.	c #FDC122",
"9.	c #F6B631",
"0.	c #B98E71",
"a.	c #3D4F91",
"b.	c #003390",
"c.	c #0056A5",
"d.	c #0076C0",
"e.	c #0075BF",
"f.	c #0062AF",
"g.	c #003490",
"h.	c #004C9E",
"i.	c #006AB6",
"j.	c #0065B1",
"k.	c #004499",
"l.	c #0053A4",
"m.	c #004B9D",
"n.	c #4461A6",
"o.	c #0063B0",
"p.	c #0073BC",
"q.	c #0072BC",
"r.	c #6F86AD",
"s.	c #D4A56D",
"t.	c #FDB920",
"u.	c #FCC027",
"v.	c #FDC02A",
"w.	c #EAAB37",
"x.	c #9E807E",
"y.	c #767A97",
"z.	c #D49F64",
"A.	c #FCB91A",
"B.	c #FCBF20",
"C.	c #FDB81B",
"D.	c #D7A25B",
"E.	c #757591",
"F.	c #0055A6",
"G.	c #0058A7",
"H.	c #0069B4",
"I.	c #003590",
"J.	c #0052A2",
"K.	c #006CB7",
"L.	c #005BA9",
"M.	c #0059A7",
"N.	c #0072BB",
"O.	c #0061AD",
"P.	c #006EB8",
"Q.	c #0076BF",
"R.	c #006BB5",
"S.	c #006BB6",
"T.	c #4467AC",
"U.	c #00479B",
"V.	c #0066B2",
"W.	c #0074BE",
"X.	c #006CB6",
"Y.	c #0060AD",
"Z.	c #337DBB",
"`.	c #BA9A86",
" +	c #F9B425",
".+	c #FDBF25",
"++	c #FDC427",
"@+	c #F9BA28",
"#+	c #CE9D61",
"$+	c #7381A1",
"%+	c #A59191",
"&+	c #EEAF39",
"*+	c #FCBB19",
"=+	c #FCBB20",
"-+	c #F2B338",
";+	c #A9958C",
">+	c #0C75BA",
",+	c #0074BD",
"'+	c #0069B5",
")+	c #0075BE",
"!+	c #00459A",
"~+	c #005DAA",
"{+	c #004197",
"]+	c #005CAA",
"^+	c #005CAB",
"/+	c #0067B2",
"(+	c #0079C1",
"_+	c #446AAE",
":+	c #004B9E",
"<+	c #005EAC",
"[+	c #948D9E",
"}+	c #E7AA4F",
"|+	c #FDBC1F",
"1+	c #FDC324",
"2+	c #FDC228",
"3+	c #F0B236",
"4+	c #AE9388",
"5+	c #7688A4",
"6+	c #D0A16D",
"7+	c #FCB815",
"8+	c #FDBC20",
"9+	c #FBB61C",
"0+	c #C29E7F",
"a+	c #427FB8",
"b+	c #0078C2",
"c+	c #00489B",
"d+	c #006EB9",
"e+	c #003A93",
"f+	c #0060AC",
"g+	c #0068B3",
"h+	c #00499D",
"i+	c #446DB1",
"j+	c #004298",
"k+	c #004A9D",
"l+	c #005EAB",
"m+	c #003993",
"n+	c #567EB3",
"o+	c #C59B78",
"p+	c #FAB71A",
"q+	c #FDC120",
"r+	c #FEC62A",
"s+	c #FCC029",
"t+	c #DBA65A",
"u+	c #85889E",
"v+	c #A59493",
"w+	c #EFB43D",
"x+	c #FCBC1A",
"y+	c #FCB517",
"z+	c #D3A26B",
"A+	c #6C85AD",
"B+	c #004FA0",
"C+	c #446EB2",
"D+	c #006AB4",
"E+	c #005DAB",
"F+	c #9B868E",
"G+	c #EAAE3B",
"H+	c #FDC11D",
"I+	c #FDC421",
"J+	c #FDC326",
"K+	c #F1B02D",
"L+	c #AD8F83",
"M+	c #8C8D99",
"N+	c #DDAB5D",
"O+	c #FDBB18",
"P+	c #FDB81C",
"Q+	c #DEA759",
"R+	c #848AA4",
"S+	c #357AB6",
"T+	c #5A709B",
"U+	c #776B82",
"V+	c #89808A",
"W+	c #8E919B",
"X+	c #898D9B",
"Y+	c #777895",
"Z+	c #616994",
"`+	c #4867A1",
" @	c #2271B6",
".@	c #4F6EB2",
"+@	c #5A7EAF",
"@@	c #C9A075",
"#@	c #FAB61B",
"$@	c #FCBE1A",
"%@	c #FDC31C",
"&@	c #FBBC1F",
"*@	c #D8A45D",
"=@	c #958D90",
"-@	c #C8A175",
";@	c #FCB613",
">@	c #FBB41D",
",@	c #EEAD3D",
"'@	c #B99E80",
")@	c #A39A93",
"!@	c #CDA977",
"~@	c #DFAD5D",
"{@	c #E6AC4B",
"]@	c #E9B04B",
"^@	c #E9B252",
"/@	c #E8B050",
"(@	c #E5AB4D",
"_@	c #E1A54F",
":@	c #DAA15B",
"<@	c #C69E78",
"[@	c #A99A90",
"}@	c #808EA6",
"|@	c #3D7FBA",
"1@	c #0077C1",
"2@	c #0053A3",
"3@	c #566EB2",
"4@	c #0071BA",
"5@	c #0479BF",
"6@	c #9E9196",
"7@	c #EBAA40",
"8@	c #FDC116",
"9@	c #FDC41D",
"0@	c #F6B92F",
"a@	c #BC9C79",
"b@	c #BF9B75",
"c@	c #F8B026",
"d@	c #FBB62D",
"e@	c #F9B632",
"f@	c #EFB449",
"g@	c #EEB54D",
"h@	c #F8B936",
"i@	c #FCBA2B",
"j@	c #FDBB29",
"k@	c #FDBA25",
"l@	c #FDBA21",
"m@	c #FCB921",
"n@	c #FCB723",
"o@	c #FCB523",
"p@	c #FBB325",
"q@	c #F6B137",
"r@	c #EFB14A",
"s@	c #E5AD5C",
"t@	c #CAA379",
"u@	c #979399",
"v@	c #516DA1",
"w@	c #003F96",
"x@	c #0256A5",
"y@	c #016EB9",
"z@	c #004D9F",
"A@	c #004297",
"B@	c #0060AE",
"C@	c #6277A5",
"D@	c #CB986A",
"E@	c #FAB413",
"F@	c #FDBF15",
"G@	c #FDC51A",
"H@	c #FEC41C",
"I@	c #E6B14C",
"J@	c #E0A853",
"K@	c #F8B335",
"L@	c #FCB933",
"M@	c #FCBA31",
"N@	c #FCBB2C",
"O@	c #FCBC27",
"P@	c #FCBE2A",
"Q@	c #FDBF2A",
"R@	c #FDC123",
"S@	c #FDBF21",
"T@	c #FCBE22",
"U@	c #FCBC22",
"V@	c #FCB824",
"W@	c #FCB424",
"X@	c #FBB327",
"Y@	c #F6B337",
"Z@	c #EBB050",
"`@	c #CE9C61",
" #	c #8A717B",
".#	c #2F428E",
"+#	c #4478B1",
"@#	c #8D8895",
"##	c #B28C74",
"$#	c #9F8383",
"%#	c #5A6397",
"&#	c #005AA8",
"*#	c #00469A",
"=#	c #003E95",
"-#	c #164898",
";#	c #95737B",
">#	c #E6A640",
",#	c #FDBC18",
"'#	c #FDC21B",
")#	c #FDC224",
"!#	c #F9B92F",
"~#	c #F8B635",
"{#	c #FBB731",
"]#	c #FCB92B",
"^#	c #FCBD2A",
"/#	c #FDC322",
"(#	c #FDC323",
"_#	c #FDC222",
":#	c #FDC41E",
"<#	c #FDC21C",
"[#	c #FDC220",
"}#	c #FDC020",
"|#	c #FDBF1E",
"1#	c #FDBF20",
"2#	c #FCBB21",
"3#	c #FCB727",
"4#	c #FCB426",
"5#	c #F7B22F",
"6#	c #E4A748",
"7#	c #BE9067",
"8#	c #747597",
"9#	c #0070B9",
"0#	c #003491",
"a#	c #62618C",
"b#	c #B89876",
"c#	c #E6B250",
"d#	c #F1B136",
"e#	c #ECA63B",
"f#	c #C8915C",
"g#	c #756586",
"h#	c #00449A",
"i#	c #004097",
"j#	c #005CA9",
"k#	c #005AA9",
"l#	c #00499C",
"m#	c #003391",
"n#	c #52558E",
"o#	c #C3956A",
"p#	c #F9BA29",
"q#	c #FCBF28",
"r#	c #FCBC2F",
"s#	c #FCBB2E",
"t#	c #FCBA2D",
"u#	c #FCBC28",
"v#	c #FCBE23",
"w#	c #FCBF21",
"x#	c #FDC321",
"y#	c #FCBF1C",
"z#	c #FDC01C",
"A#	c #FDC420",
"B#	c #FDC31F",
"C#	c #FDC51E",
"D#	c #FDC31E",
"E#	c #FDC221",
"F#	c #FCBD22",
"G#	c #FBB924",
"H#	c #FBB725",
"I#	c #FBB527",
"J#	c #FAB52D",
"K#	c #F4B23B",
"L#	c #D4A56B",
"M#	c #878EA4",
"N#	c #1B7CBF",
"O#	c #0B6CB4",
"P#	c #7D7B91",
"Q#	c #CDA05E",
"R#	c #F2B530",
"S#	c #FBBB1D",
"T#	c #FAB327",
"U#	c #F2A335",
"V#	c #EA9D3C",
"W#	c #C28C61",
"X#	c #655A86",
"Y#	c #003894",
"Z#	c #0C5BA5",
"`#	c #A49191",
" $	c #EEB148",
".$	c #FCB830",
"+$	c #FBB72D",
"@$	c #FBB828",
"#$	c #FCBD24",
"$$	c #FCBF1E",
"%$	c #FCBC1C",
"&$	c #FCBD21",
"*$	c #FDBD28",
"=$	c #FDC02C",
"-$	c #FCBE2D",
";$	c #FDC426",
">$	c #FDC629",
",$	c #FDC62A",
"'$	c #FDC529",
")$	c #FDC626",
"!$	c #FCBE1F",
"~$	c #FBBB20",
"{$	c #FBB823",
"]$	c #FBB72B",
"^$	c #FCB72F",
"/$	c #F7B439",
"($	c #E0AB61",
"_$	c #9B949D",
":$	c #2A7DBD",
"<$	c #0279C1",
"[$	c #808DA6",
"}$	c #D3A968",
"|$	c #F7BA29",
"1$	c #FDC019",
"2$	c #FCBD1C",
"3$	c #F8B132",
"4$	c #F2A255",
"5$	c #F3A260",
"6$	c #EFA850",
"7$	c #B88B67",
"8$	c #52639B",
"9$	c #0051A2",
"0$	c #837C8F",
"a$	c #D7AB6E",
"b$	c #F7B538",
"c$	c #FBB62B",
"d$	c #FBB927",
"e$	c #FCBD23",
"f$	c #FCBF1F",
"g$	c #FCC022",
"h$	c #FCBD1E",
"i$	c #FDC022",
"j$	c #FCBD35",
"k$	c #FBBB5E",
"l$	c #FBBF78",
"m$	c #FBC17D",
"n$	c #FBC27D",
"o$	c #FBC383",
"p$	c #FCC381",
"q$	c #FCC472",
"r$	c #FCC168",
"s$	c #FBBC65",
"t$	c #FCBC57",
"u$	c #FCBE39",
"v$	c #FDC325",
"w$	c #FBBB23",
"x$	c #FBB72A",
"y$	c #FBB72E",
"z$	c #FAB431",
"A$	c #E6AD5A",
"B$	c #AD9B90",
"C$	c #5885B3",
"D$	c #7E8DA7",
"E$	c #D2A96E",
"F$	c #F7B62D",
"G$	c #FCB918",
"H$	c #FCBC1B",
"I$	c #FCB81F",
"J$	c #F8AA3E",
"K$	c #F6A161",
"L$	c #F8A975",
"M$	c #FAB167",
"N$	c #E7A64F",
"O$	c #99868C",
"P$	c #546EB2",
"Q$	c #003891",
"R$	c #766683",
"S$	c #D09E5E",
"T$	c #F8B738",
"U$	c #FCBB2A",
"V$	c #FCBD26",
"W$	c #FCC024",
"X$	c #FCC121",
"Y$	c #FCC11F",
"Z$	c #FBB73C",
"`$	c #FBBC67",
" %	c #FBC487",
".%	c #FCC99B",
"+%	c #FCCDA6",
"@%	c #FCCDA8",
"#%	c #FCCEA9",
"$%	c #FCCBA1",
"%%	c #FBC99D",
"&%	c #FBC499",
"*%	c #FBC190",
"=%	c #FBBC7F",
"-%	c #FAB66A",
";%	c #FAB44F",
">%	c #FCBC2E",
",%	c #FDC219",
"'%	c #FCBE1C",
")%	c #FBB920",
"!%	c #FBB728",
"~%	c #FAB430",
"{%	c #EEAF49",
"]%	c #DBA966",
"^%	c #E2AC5C",
"/%	c #F6B62F",
"(%	c #FDBC15",
"_%	c #FDBE1A",
":%	c #FCBA1F",
"<%	c #F4A930",
"[%	c #F19E53",
"}%	c #F7A46C",
"|%	c #F9AE79",
"1%	c #FAB37C",
"2%	c #F9B25D",
"3%	c #CF9D64",
"4%	c #6B6C92",
"5%	c #00489D",
"6%	c #003F97",
"7%	c #776482",
"8%	c #CF9B5D",
"9%	c #F5B236",
"0%	c #FCB827",
"a%	c #FCBD25",
"b%	c #FCC125",
"c%	c #FDC223",
"d%	c #FDC423",
"e%	c #FDC131",
"f%	c #FCBB5D",
"g%	c #FBC187",
"h%	c #FCCBA0",
"i%	c #FCD1AD",
"j%	c #FCD3B2",
"k%	c #FCD4B4",
"l%	c #FCD5B5",
"m%	c #FCD4B5",
"n%	c #FCD2B2",
"o%	c #FCD1B0",
"p%	c #FCCFAE",
"q%	c #FBCCA9",
"r%	c #FBC9A5",
"s%	c #FBC59F",
"t%	c #FABF96",
"u%	c #FAB987",
"v%	c #FAB568",
"w%	c #FCBA3C",
"x%	c #FDC021",
"y%	c #FCC01D",
"z%	c #FCBB25",
"A%	c #FCB92E",
"B%	c #FBB428",
"C%	c #FAB324",
"D%	c #FBB71F",
"E%	c #FCBC19",
"F%	c #FDC41B",
"G%	c #FAB726",
"H%	c #EB9D44",
"I%	c #EB9B64",
"J%	c #F8AC76",
"K%	c #FAB27D",
"L%	c #FAB784",
"M%	c #FBB777",
"N%	c #EFB055",
"O%	c #A88E7F",
"P%	c #1F69AD",
"Q%	c #5665AA",
"R%	c #5F5987",
"S%	c #C39262",
"T%	c #F5B235",
"U%	c #FCB829",
"V%	c #FCBF1D",
"W%	c #FDC11E",
"X%	c #FDC125",
"Y%	c #FDC03B",
"Z%	c #FCC26F",
"`%	c #FCC999",
" &	c #FCCFAB",
".&	c #FCD4B3",
"+&	c #FCD5B6",
"@&	c #FCD5B7",
"#&	c #FCD6B7",
"$&	c #FDD6B8",
"%&	c #FCCFAD",
"&&	c #FBCCAA",
"*&	c #FAC8A5",
"=&	c #FAC39E",
"-&	c #FABD91",
";&	c #FAB775",
">&	c #FBB64A",
",&	c #FDC22B",
"'&	c #FCBD2F",
")&	c #FBB82B",
"!&	c #FBB82C",
"~&	c #FBB629",
"{&	c #FCB924",
"]&	c #FDC61D",
"^&	c #F9B832",
"/&	c #EDA055",
"(&	c #F0A471",
"_&	c #F9B27E",
":&	c #FAB885",
"<&	c #FABD8B",
"[&	c #FABE8C",
"}&	c #FABA69",
"|&	c #CFA771",
"1&	c #6786AE",
"2&	c #4F4D97",
"3&	c #004E9F",
"4&	c #3B488D",
"5&	c #B0886D",
"6&	c #F0AD38",
"7&	c #FBB426",
"8&	c #FCB922",
"9&	c #FDBF1F",
"0&	c #FDC026",
"a&	c #FCBD56",
"b&	c #FCC384",
"c&	c #FCCCA1",
"d&	c #FCD1AF",
"e&	c #FCD6B9",
"f&	c #FCD1B1",
"g&	c #FBCFAF",
"h&	c #FACDAC",
"i&	c #FACAA8",
"j&	c #FAC6A3",
"k&	c #FAB67D",
"l&	c #FBB652",
"m&	c #FCBF2B",
"n&	c #FDC42C",
"o&	c #FCBE2E",
"p&	c #FBBA27",
"q&	c #FCBC21",
"r&	c #FDC11C",
"s&	c #FDC51D",
"t&	c #F9B73C",
"u&	c #F3A764",
"v&	c #F6AD7A",
"w&	c #FAB582",
"x&	c #FABB89",
"y&	c #FAC090",
"z&	c #FBC395",
"A&	c #FBBD80",
"B&	c #ECB060",
"C&	c #9F8A89",
"D&	c #4A60A6",
"E&	c #8F727C",
"F&	c #E3A54A",
"G&	c #FBB722",
"H&	c #FCBD1F",
"I&	c #FCBE1E",
"J&	c #FCBB2F",
"K&	c #FBBC62",
"L&	c #FBC690",
"M&	c #FCCDA7",
"N&	c #FCD3B3",
"O&	c #FCD6B8",
"P&	c #FDD7BA",
"Q&	c #FCD4B6",
"R&	c #FCD3B1",
"S&	c #FBD0B1",
"T&	c #FAC7A3",
"U&	c #FAC098",
"V&	c #FAB67C",
"W&	c #FBB94C",
"X&	c #FBB829",
"Y&	c #FBBB29",
"Z&	c #FEC71F",
"`&	c #F9B740",
" *	c #F6AB6A",
".*	c #F9B17E",
"+*	c #FAB684",
"@*	c #FABC8B",
"#*	c #FBC192",
"$*	c #FBC497",
"%*	c #FBC091",
"&*	c #F9B765",
"**	c #C59465",
"=*	c #506EA6",
"-*	c #0075C0",
";*	c #536CB1",
">*	c #5C5789",
",*	c #C79261",
"'*	c #F8B12C",
")*	c #FBB524",
"!*	c #FBBA1E",
"~*	c #FCBE20",
"{*	c #FCBA29",
"]*	c #FBBD67",
"^*	c #FBC696",
"/*	c #FCCEA8",
"(*	c #FCD1AE",
"_*	c #FCD2B1",
":*	c #FCD7B8",
"<*	c #FDD8BA",
"[*	c #FDD8BB",
"}*	c #FDD7B9",
"|*	c #FCD0AE",
"1*	c #FBCEAC",
"2*	c #FBCBA8",
"3*	c #FBC7A3",
"4*	c #FAC097",
"5*	c #FAB877",
"6*	c #FCBB41",
"7*	c #FDC21F",
"8*	c #FCBF22",
"9*	c #FCBC2A",
"0*	c #FCBF25",
"a*	c #FBB83F",
"b*	c #F8AC6B",
"c*	c #F9B280",
"d*	c #FAB886",
"e*	c #FBBE8F",
"f*	c #FBC598",
"g*	c #FBC498",
"h*	c #FCBB72",
"i*	c #DBA155",
"j*	c #7E7F9D",
"k*	c #5664AA",
"l*	c #9D7977",
"m*	c #EBA740",
"n*	c #FCB324",
"o*	c #FCBB1C",
"p*	c #FCBB22",
"q*	c #FBBD5F",
"r*	c #FBC593",
"s*	c #FBCBA5",
"t*	c #FBCBA6",
"u*	c #FCCCA7",
"v*	c #FCCDA9",
"w*	c #FCCDAA",
"x*	c #FBCDAA",
"y*	c #FBCBA7",
"z*	c #FAC6A2",
"A*	c #FABE93",
"B*	c #FBB969",
"C*	c #FCBD2B",
"D*	c #FDBF1B",
"E*	c #FBBA22",
"F*	c #FCBA27",
"G*	c #FAB343",
"H*	c #F8AB6C",
"I*	c #F9B27F",
"J*	c #FAB887",
"K*	c #FBC597",
"L*	c #FBBC7B",
"M*	c #E8AD54",
"N*	c #97909A",
"O*	c #565AA2",
"P*	c #004399",
"Q*	c #004096",
"R*	c #0055A4",
"S*	c #53538A",
"T*	c #C69261",
"U*	c #FAB22A",
"V*	c #FCB81C",
"W*	c #FCBB1B",
"X*	c #FCBA1C",
"Y*	c #FCBD46",
"Z*	c #FBCBA4",
"`*	c #FCCFAC",
" =	c #FCCCA8",
".=	c #FBCAA3",
"+=	c #FBC9A2",
"@=	c #FBC8A1",
"#=	c #FBC79F",
"$=	c #FBC69D",
"%=	c #FBC9A1",
"&=	c #FBCCA8",
"*=	c #FAC9A6",
"==	c #FAC4A0",
"-=	c #FABC85",
";=	c #FBBA4C",
">=	c #FCBD20",
",=	c #FBB925",
"'=	c #FBB623",
")=	c #FBB320",
"!=	c #F9AE4E",
"~=	c #F8AC73",
"{=	c #F9B380",
"]=	c #FAB989",
"^=	c #FBC193",
"/=	c #FBC599",
"(=	c #FBC69A",
"_=	c #FBBB80",
":=	c #EBAF56",
"<=	c #9C9598",
"[=	c #4D5EA4",
"}=	c #003291",
"|=	c #886F7E",
"1=	c #E0A34D",
"2=	c #FCB427",
"3=	c #FBB423",
"4=	c #FCB91B",
"5=	c #FCBF6A",
"6=	c #FBC79B",
"7=	c #FCD3B4",
"8=	c #FBC7A0",
"9=	c #F7C19A",
"0=	c #F2B88F",
"a=	c #F0B48A",
"b=	c #F2B487",
"c=	c #F8BA8C",
"d=	c #FBC399",
"e=	c #FBC9A3",
"f=	c #FBCAA6",
"g=	c #FAC8A4",
"h=	c #FAC299",
"i=	c #FBBA75",
"j=	c #FCBA39",
"k=	c #FCBE1B",
"l=	c #FBBA21",
"m=	c #FBB923",
"n=	c #FBB323",
"o=	c #F7AB52",
"p=	c #F7AE78",
"q=	c #FAB685",
"r=	c #FABC8D",
"s=	c #FAC497",
"t=	c #FBC99F",
"u=	c #FCCAA0",
"v=	c #FBC79C",
"w=	c #FAB97F",
"x=	c #E4AB60",
"y=	c #92929E",
"z=	c #466BAE",
"A=	c #003A90",
"B=	c #A88172",
"C=	c #F1AC39",
"D=	c #FCB527",
"E=	c #FCB81B",
"F=	c #FBB81D",
"G=	c #FBB954",
"H=	c #FBC08A",
"I=	c #FBC298",
"J=	c #F9BC92",
"K=	c #F4B58A",
"L=	c #F4B88E",
"M=	c #F6BE96",
"N=	c #F3BB94",
"O=	c #F0B389",
"P=	c #EAA677",
"Q=	c #F0B180",
"R=	c #FBC59A",
"S=	c #FBCAA4",
"T=	c #FBC9A4",
"U=	c #FAC5A1",
"V=	c #FBB859",
"W=	c #FCBD1D",
"X=	c #FBB820",
"Y=	c #FBB621",
"Z=	c #F8AF2A",
"`=	c #F4A758",
" -	c #F6AE7B",
".-	c #FAB988",
"+-	c #FAC092",
"@-	c #FBC89D",
"#-	c #FCCDA4",
"$-	c #FCCCA4",
"%-	c #FCC79D",
"&-	c #FAB77C",
"*-	c #DEA966",
"=-	c #8991A2",
"--	c #325A98",
";-	c #BC9577",
">-	c #FAB32E",
",-	c #FCBA28",
"'-	c #FCBA1E",
")-	c #FBBA1B",
"!-	c #FCBC2D",
"~-	c #FBBC6D",
"{-	c #FAC196",
"]-	c #FBC8A2",
"^-	c #FCCCA9",
"/-	c #FCD2B3",
"(-	c #FBCDAB",
"_-	c #FBC398",
":-	c #FAB78A",
"<-	c #F4AB7D",
"[-	c #ECAA81",
"}-	c #D39E7D",
"|-	c #AE8067",
"1-	c #A27660",
"2-	c #B78E79",
"3-	c #D8A78A",
"4-	c #E8AD85",
"5-	c #F3BE94",
"6-	c #FCCCA6",
"7-	c #FBCAA5",
"8-	c #F9C39C",
"9-	c #FABB7C",
"0-	c #FCBA3F",
"a-	c #FCBE18",
"b-	c #FBB91E",
"c-	c #FBB421",
"d-	c #F9B02D",
"e-	c #F4A757",
"f-	c #F6AC79",
"g-	c #FABA8A",
"h-	c #FAC295",
"i-	c #FCC99E",
"j-	c #FCCBA2",
"k-	c #FBCBA2",
"l-	c #FBC59B",
"m-	c #FAB674",
"n-	c #D2A273",
"o-	c #6E89AD",
"p-	c #486EB2",
"q-	c #003992",
"r-	c #003492",
"s-	c #6D7193",
"t-	c #D3A36D",
"u-	c #FCB328",
"v-	c #FCB926",
"w-	c #FBBA45",
"x-	c #FABB7D",
"y-	c #FAC6A0",
"z-	c #FCCBA7",
"A-	c #FCD0B0",
"B-	c #FCCDAB",
"C-	c #FBC8A3",
"D-	c #FBBF94",
"E-	c #F7AD7E",
"F-	c #EEA375",
"G-	c #C28A69",
"H-	c #7F5945",
"I-	c #785E4E",
"J-	c #96857A",
"K-	c #907B71",
"L-	c #A1867D",
"M-	c #D1AA93",
"N-	c #EFBE9A",
"O-	c #FAC7A2",
"P-	c #F9C5A0",
"Q-	c #FAC091",
"R-	c #FBB85F",
"S-	c #FCBC1D",
"T-	c #FBB522",
"U-	c #FBB328",
"V-	c #F5A74B",
"W-	c #F5A770",
"X-	c #FAB786",
"Y-	c #FBC092",
"Z-	c #FBC89E",
"`-	c #FBB568",
" ;	c #CBA177",
".;	c #5A84B2",
"+;	c #536EB2",
"@;	c #003694",
"#;	c #87798B",
"$;	c #DFA65D",
"%;	c #FCB023",
"&;	c #FBB625",
"*;	c #FCB721",
"=;	c #FBB65E",
"-;	c #FABB8B",
";;	c #F9C19A",
">;	c #FCD0B1",
",;	c #FCD1B2",
"';	c #FCD3B5",
");	c #FBBE94",
"!;	c #F8AA7A",
"~;	c #DC946D",
"{;	c #916852",
"];	c #4C2F1C",
"^;	c #564A42",
"/;	c #78736F",
"(;	c #7B6B62",
"_;	c #6F534A",
":;	c #B19789",
"<;	c #ECC5A8",
"[;	c #FBC7A1",
"};	c #F9C39D",
"|;	c #FABD79",
"1;	c #FCBE36",
"2;	c #FDC01D",
"3;	c #F3A43E",
"4;	c #F09C5F",
"5;	c #F8AC78",
"6;	c #FABB8A",
"7;	c #FBC295",
"8;	c #F5B05B",
"9;	c #B79B88",
"0;	c #2B7DBC",
"a;	c #00489F",
"b;	c #98858C",
"c;	c #E9AA4C",
"d;	c #FCAF20",
"e;	c #FBB122",
"f;	c #FCB71D",
"g;	c #FCB732",
"h;	c #FAB56D",
"i;	c #F8BC91",
"j;	c #F7C09B",
"k;	c #F8C6A3",
"l;	c #F9CAA9",
"m;	c #FBCEAD",
"n;	c #FBCEAE",
"o;	c #FCCFAF",
"p;	c #FCD0AF",
"q;	c #FBBE93",
"r;	c #F9AB7A",
"s;	c #CC8A69",
"t;	c #755B4E",
"u;	c #452F1B",
"v;	c #2D2728",
"w;	c #31333A",
"x;	c #5C493C",
"y;	c #66442F",
"z;	c #B5927D",
"A;	c #F3C8A8",
"B;	c #F9C6A2",
"C;	c #F8C5A1",
"D;	c #F9C08E",
"E;	c #FCBE59",
"F;	c #FDBF1D",
"G;	c #FCB822",
"H;	c #FBB225",
"I;	c #F6A83A",
"J;	c #EF9753",
"K;	c #F39D67",
"L;	c #F9B07D",
"M;	c #FABD8D",
"N;	c #FBC296",
"O;	c #FAC297",
"P;	c #E0A666",
"Q;	c #8B8FA0",
"R;	c #006EBA",
"S;	c #A19095",
"T;	c #EEAC41",
"U;	c #FCB123",
"V;	c #FBAF1F",
"W;	c #FBB41A",
"X;	c #FBB738",
"Y;	c #F9B570",
"Z;	c #F7BB92",
"`;	c #F6C09C",
" >	c #F7C5A3",
".>	c #F8C9A8",
"+>	c #F9CBA9",
"@>	c #FBCBA9",
"#>	c #FBC9A8",
"$>	c #FBC7A5",
"%>	c #FAC7A4",
"&>	c #FBC8A6",
"*>	c #FBC9A7",
"=>	c #FCCEAC",
"->	c #FCCEAB",
";>	c #FBC097",
">>	c #FAB283",
",>	c #D3926E",
"'>	c #7D5A4A",
")>	c #4B321E",
"!>	c #3F2F23",
"~>	c #413229",
"{>	c #83634B",
"]>	c #BF9779",
"^>	c #E9BC9C",
"/>	c #FACAA6",
"(>	c #FAC49F",
"_>	c #F7C4A1",
":>	c #F7C09A",
"<>	c #FABE70",
"[>	c #FCBC23",
"}>	c #FCB929",
"|>	c #FAB132",
"1>	c #F5A24F",
"2>	c #F6A169",
"3>	c #F9AF7B",
"4>	c #FABF91",
"5>	c #F9BA8B",
"6>	c #F4AF65",
"7>	c #BD9B80",
"8>	c #487DB4",
"9>	c #4E6DB2",
"0>	c #9C919B",
"a>	c #EAA946",
"b>	c #FBB224",
"c>	c #FBB21A",
"d>	c #FBB634",
"e>	c #F8B56D",
"f>	c #F5B991",
"g>	c #F5BF9B",
"h>	c #F6C4A2",
"i>	c #F8C8A7",
"j>	c #F9C9A6",
"k>	c #FAC29B",
"l>	c #FAC09A",
"m>	c #FABF99",
"n>	c #FABD98",
"o>	c #FABF9B",
"p>	c #FBC4A0",
"q>	c #FAC49D",
"r>	c #FABB90",
"s>	c #EFAB81",
"t>	c #C78966",
"u>	c #996549",
"v>	c #9C6E50",
"w>	c #C2916E",
"x>	c #E1B08C",
"y>	c #F3C39F",
"z>	c #FBC6A2",
"A>	c #FAC09B",
"B>	c #FABB95",
"C>	c #FABB94",
"D>	c #F9BF9A",
"E>	c #F6C39F",
"F>	c #F5C19E",
"G>	c #F8BA82",
"H>	c #FBBA48",
"I>	c #FBB229",
"J>	c #F9A939",
"K>	c #F9AC64",
"L>	c #FAB381",
"M>	c #FAB888",
"N>	c #F8B584",
"O>	c #F8B16A",
"P>	c #E2A558",
"Q>	c #8F7A84",
"R>	c #004D9E",
"S>	c #4559A2",
"T>	c #006FBA",
"U>	c #006DB9",
"V>	c #94828F",
"W>	c #E6A346",
"X>	c #FBB223",
"Y>	c #FCB820",
"Z>	c #FBB61A",
"`>	c #FBB62F",
" ,	c #F8B46A",
".,	c #F3B78F",
"+,	c #F3BE9B",
"@,	c #F5C2A0",
"#,	c #F7C6A3",
"$,	c #FAC39D",
"%,	c #FAC29A",
"&,	c #FABE95",
"*,	c #FAB98D",
"=,	c #FAB488",
"-,	c #F9AF85",
";,	c #F9B189",
">,	c #FAB993",
",,	c #FBC39D",
"',	c #F9C199",
"),	c #F8BC93",
"!,	c #F7B88F",
"~,	c #F0B18A",
"{,	c #E7AA84",
"],	c #E8AD87",
"^,	c #F3BA93",
"/,	c #FAC59F",
"(,	c #FBC7A2",
"_,	c #FAC29D",
":,	c #FABE99",
"<,	c #F9BD98",
"[,	c #F6BF9C",
"},	c #F3C09E",
"|,	c #F6BB8E",
"1,	c #FBB95E",
"2,	c #FCBA20",
"3,	c #FBB125",
"4,	c #FBAD23",
"5,	c #FAAF52",
"6,	c #F9B47D",
"7,	c #F6B383",
"8,	c #F6AD65",
"9,	c #EDAC50",
"0,	c #AF8D79",
"a,	c #405192",
"b,	c #42388B",
"c,	c #0050A3",
"d,	c #91727E",
"e,	c #E39E45",
"f,	c #FAAC21",
"g,	c #FBB11D",
"h,	c #FCB725",
"i,	c #F8B462",
"j,	c #F3B58C",
"k,	c #F2BD9A",
"l,	c #F5C29F",
"m,	c #F8C3A0",
"n,	c #FAC099",
"o,	c #FAB98E",
"p,	c #F8AB7C",
"q,	c #F69F6E",
"r,	c #F69867",
"s,	c #F79C6F",
"t,	c #F8A97F",
"u,	c #F9B78E",
"v,	c #FACBA9",
"w,	c #FBD0B0",
"x,	c #FACCAA",
"y,	c #F9C49E",
"z,	c #F8C39D",
"A,	c #F9C39E",
"B,	c #F9C6A1",
"C,	c #FAC9A5",
"D,	c #FAC6A4",
"E,	c #F9C4A1",
"F,	c #F7BE9B",
"G,	c #F3BB98",
"H,	c #F0BD9A",
"I,	c #F4BA94",
"J,	c #FAB76B",
"K,	c #FCB828",
"L,	c #FBAF24",
"M,	c #FAAC20",
"N,	c #FBAE35",
"O,	c #F9B05C",
"P,	c #F6AE5D",
"Q,	c #EFA945",
"R,	c #BF9B7E",
"S,	c #5E79A7",
"T,	c #432985",
"U,	c #0052A3",
"V,	c #003794",
"W,	c #856A7E",
"X,	c #DD9B4D",
"Y,	c #FAAB24",
"Z,	c #FBB21C",
"`,	c #FCB821",
" '	c #FAB661",
".'	c #F3B48A",
"+'	c #F0BA96",
"@'	c #F4C09D",
"#'	c #F8C29D",
"$'	c #FBC29B",
"%'	c #F7B78F",
"&'	c #EEA67B",
"*'	c #EBA478",
"='	c #EEA87C",
"-'	c #EFA276",
";'	c #EF9466",
">'	c #F2986B",
",'	c #F3A87E",
"''	c #F3B48B",
")'	c #FBD4B5",
"!'	c #FBD0AF",
"~'	c #FACEAD",
"{'	c #FACEAE",
"]'	c #FBCAAA",
"^'	c #FAC8A8",
"/'	c #F7C19F",
"('	c #F1BA97",
"_'	c #EDB996",
":'	c #F1B893",
"<'	c #F8B772",
"['	c #FCB833",
"}'	c #FCB51E",
"|'	c #FAAC1F",
"1'	c #F9A61D",
"2'	c #FAA81E",
"3'	c #F6AB33",
"4'	c #E0A358",
"5'	c #AA938D",
"6'	c #5B81B4",
"7'	c #1477BE",
"8'	c #005FAD",
"9'	c #4C2985",
"0'	c #69779F",
"a'	c #CF9A6C",
"b'	c #FAA81D",
"c'	c #FAAD1F",
"d'	c #FBB21D",
"e'	c #FCB620",
"f'	c #FBB654",
"g'	c #F4B483",
"h'	c #EFB997",
"i'	c #F9C19C",
"j'	c #FBC39C",
"k'	c #FABF98",
"l'	c #E9A880",
"m'	c #E7A77F",
"n'	c #E3AB87",
"o'	c #BC8B6F",
"p'	c #A5745E",
"q'	c #B4806D",
"r'	c #D59173",
"s'	c #E79B72",
"t'	c #ECAF89",
"u'	c #F7C8A7",
"v'	c #FCD5B8",
"w'	c #FBD4B7",
"x'	c #FAD2B4",
"y'	c #FAD1B2",
"z'	c #F8CFB1",
"A'	c #F9D0B2",
"B'	c #FAD2B3",
"C'	c #FAD0B2",
"D'	c #FACDAE",
"E'	c #F9C9AA",
"F'	c #F5C4A4",
"G'	c #EFBE9C",
"H'	c #ECB997",
"I'	c #F0B591",
"J'	c #F7B56F",
"K'	c #FBB732",
"L'	c #FBB024",
"M'	c #F7A322",
"N'	c #DC9754",
"O'	c #AF9186",
"P'	c #8289A6",
"Q'	c #437DBA",
"R'	c #502B86",
"S'	c #0072BD",
"T'	c #427DB6",
"U'	c #C1977F",
"V'	c #F9A71E",
"W'	c #F9AB22",
"X'	c #FAAD1C",
"Y'	c #FBB11B",
"Z'	c #FBB247",
"`'	c #F5B37B",
" )	c #F0B894",
".)	c #F8BF9B",
"+)	c #FBC49E",
"@)	c #F1B993",
"#)	c #E9A981",
"$)	c #D89D7A",
"%)	c #A2775F",
"&)	c #795A46",
"*)	c #927F72",
"=)	c #8F7A72",
"-)	c #9E6751",
";)	c #D08A66",
">)	c #EAAC84",
",)	c #F7C29C",
"')	c #FBD5B8",
"))	c #FAD5B8",
"!)	c #F8D3B7",
"~)	c #F8D2B6",
"{)	c #F7D1B4",
"])	c #F5CEB1",
"^)	c #F5CFB3",
"/)	c #F7D3B8",
"()	c #F8CFB2",
"_)	c #F7CBAC",
":)	c #F3C6A6",
"<)	c #EFC0A0",
"[)	c #ECBB9A",
"})	c #EFB38F",
"|)	c #F8B468",
"1)	c #FCB82C",
"2)	c #FBAF27",
"3)	c #F3A32D",
"4)	c #B48F86",
"5)	c #407CB8",
"6)	c #1A7ABF",
"7)	c #482D85",
"8)	c #1C7CBE",
"9)	c #B39289",
"0)	c #F2A324",
"a)	c #F7A725",
"b)	c #FAAD1B",
"c)	c #FBB21B",
"d)	c #FBB739",
"e)	c #F7B670",
"f)	c #F0B48E",
"g)	c #F2B994",
"h)	c #F8BE9A",
"i)	c #EFB58D",
"j)	c #DFA07A",
"k)	c #AE7A5D",
"l)	c #5E3E2B",
"m)	c #544235",
"n)	c #7C7774",
"o)	c #847870",
"p)	c #89583D",
"q)	c #C48461",
"r)	c #EBAD86",
"s)	c #F7C5A0",
"t)	c #FBCFAE",
"u)	c #FBD2B3",
"v)	c #FAD3B5",
"w)	c #F4D0B5",
"x)	c #F1CBAF",
"y)	c #E5BFA4",
"z)	c #D4B098",
"A)	c #E5C2A8",
"B)	c #F9D3B7",
"C)	c #F6D0B4",
"D)	c #F3CAAB",
"E)	c #EFC3A4",
"F)	c #ECBD9D",
"G)	c #F0B48D",
"H)	c #F8B45F",
"I)	c #FBB821",
"J)	c #FBB422",
"K)	c #FAAA24",
"L)	c #EEA134",
"M)	c #A38D94",
"N)	c #0067B3",
"O)	c #442F85",
"P)	c #0064B1",
"Q)	c #9E8386",
"R)	c #E89F3C",
"S)	c #F6A220",
"T)	c #FAAB1C",
"U)	c #FBB31B",
"V)	c #FAB65C",
"W)	c #F3B183",
"X)	c #F2B793",
"Y)	c #FBC29A",
"Z)	c #F0B186",
"`)	c #D1926E",
" !	c #8E624D",
".!	c #462D1A",
"+!	c #3A2E28",
"@!	c #383B41",
"#!	c #625246",
"$!	c #A06D4C",
"%!	c #D3926C",
"&!	c #EBB28E",
"*!	c #F5C7A7",
"=!	c #FBD1B2",
"-!	c #F8D0B3",
";!	c #F1C7AA",
">!	c #E2B698",
",!	c #C69D83",
"'!	c #947765",
")!	c #705B4F",
"!!	c #C6A288",
"~!	c #FACFAE",
"{!	c #F9D3B6",
"]!	c #F8D5BA",
"^!	c #F4CEB2",
"/!	c #F0C6A8",
"(!	c #EEBF9F",
"_!	c #F3B586",
":!	c #FAB451",
"<!	c #FBB519",
"[!	c #FBAF1E",
"}!	c #FAA81F",
"|!	c #EAA040",
"1!	c #9C8C99",
"2!	c #443185",
"3!	c #00479D",
"4!	c #81738C",
"5!	c #D79A5C",
"6!	c #F6A221",
"7!	c #F9A81E",
"8!	c #FBB01B",
"9!	c #FCBA1B",
"0!	c #FCBB46",
"a!	c #F6B474",
"b!	c #F2B590",
"c!	c #F6BF9B",
"d!	c #FAC19A",
"e!	c #F1B185",
"f!	c #D0936F",
"g!	c #8B6250",
"h!	c #4C321E",
"i!	c #402F22",
"j!	c #241E21",
"k!	c #8D6348",
"l!	c #CF906A",
"m!	c #E3A37D",
"n!	c #ECB794",
"o!	c #F3C6A7",
"p!	c #F6CCAE",
"q!	c #F8CDAF",
"r!	c #FACCAB",
"s!	c #F4C5A3",
"t!	c #E3B394",
"u!	c #C59579",
"v!	c #99715A",
"w!	c #664B3C",
"x!	c #30221C",
"y!	c #533B2D",
"z!	c #C89E80",
"A!	c #FACAA7",
"B!	c #F8D0B1",
"C!	c #F8D4B8",
"D!	c #F4CFB3",
"E!	c #F0C7A9",
"F!	c #F1BC9A",
"G!	c #F7B373",
"H!	c #FBB533",
"I!	c #FBB417",
"J!	c #FAAB1B",
"K!	c #FAA51C",
"L!	c #E39E4D",
"M!	c #90899E",
"N!	c #617CAA",
"O!	c #CA9671",
"P!	c #F6A11C",
"Q!	c #F7A521",
"R!	c #FAAD1D",
"S!	c #FBB51D",
"T!	c #FCBD30",
"U!	c #FABA63",
"V!	c #F4B489",
"W!	c #F4BC98",
"X!	c #F9C19B",
"Y!	c #E1A37C",
"Z!	c #A27865",
"`!	c #5D4A44",
" ~	c #543A2A",
".~	c #9B7357",
"+~	c #D99D77",
"@~	c #EAA981",
"#~	c #EBB18B",
"$~	c #EFBC9A",
"%~	c #F2C5A6",
"&~	c #F4C9AB",
"*~	c #F5CAAC",
"=~	c #F6C8A7",
"-~	c #EFBC99",
";~	c #D09C7D",
">~	c #996E57",
",~	c #654636",
"'~	c #3C251D",
")~	c #1D0C0D",
"!~	c #1D080A",
"~~	c #956E54",
"{~	c #E5B28E",
"]~	c #FAC9A7",
"^~	c #F6CDAF",
"/~	c #F5D1B4",
"(~	c #F3CDB1",
"_~	c #F5B98D",
":~	c #F9B358",
"<~	c #FAA81C",
"[~	c #FAA216",
"}~	c #D29769",
"|~	c #6E83AC",
"1~	c #443085",
"2~	c #2E7CBB",
"3~	c #6286AC",
"4~	c #C69875",
"5~	c #F8A416",
"6~	c #F7A321",
"7~	c #F8A51F",
"8~	c #FCB81E",
"9~	c #FCBC48",
"0~	c #F7B779",
"a~	c #F4B993",
"b~	c #F7BF99",
"c~	c #FAC198",
"d~	c #F2B88E",
"e~	c #D2A182",
"f~	c #A68370",
"g~	c #B4896F",
"h~	c #E2AA85",
"i~	c #F4B48C",
"j~	c #F1B48D",
"k~	c #EDB894",
"l~	c #F0C09E",
"m~	c #F2C5A7",
"n~	c #F1C6A9",
"o~	c #F0C4A5",
"p~	c #E8B594",
"q~	c #C59173",
"r~	c #835B48",
"s~	c #3B241D",
"t~	c #1B0C0C",
"u~	c #271511",
"v~	c #351F1A",
"w~	c #6E4B36",
"x~	c #CA9772",
"y~	c #F8C19A",
"z~	c #F8CBAA",
"A~	c #F4CEB1",
"B~	c #F3CEB2",
"C~	c #F3CBAD",
"D~	c #F5C09D",
"E~	c #F9B874",
"F~	c #FCB837",
"G~	c #FBB11C",
"H~	c #F9A51B",
"I~	c #F39D26",
"J~	c #B48E87",
"K~	c #337CBB",
"L~	c #174697",
"M~	c #685D86",
"N~	c #A68A7E",
"O~	c #CB9F73",
"P~	c #DCA35F",
"Q~	c #EDA442",
"R~	c #F9A61A",
"S~	c #F8A521",
"T~	c #F8A522",
"U~	c #FAAA1E",
"V~	c #FABB5E",
"W~	c #F6B987",
"X~	c #F6BC96",
"Y~	c #F9BF98",
"Z~	c #F9BF96",
"`~	c #EAB490",
" {	c #EDB590",
".{	c #F6B78F",
"+{	c #F6B890",
"@{	c #F3BD99",
"#{	c #EFBD9C",
"${	c #F0C1A0",
"%{	c #ECBFA0",
"&{	c #DFAD8E",
"*{	c #B78669",
"={	c #734F3D",
"-{	c #311E18",
";{	c #1F0F0E",
">{	c #351E19",
",{	c #442A21",
"'{	c #5D3B2C",
"){	c #B27F5D",
"!{	c #EEB38A",
"~{	c #F5CBAC",
"{{	c #F2CCAF",
"]{	c #F3CBAE",
"^{	c #F4C3A1",
"/{	c #F8BA7D",
"({	c #FCB91F",
"_{	c #FAAC1C",
":{	c #F9A016",
"<{	c #E2964B",
"[{	c #91869D",
"}{	c #527DB0",
"|{	c #A88D81",
"1{	c #DBA04E",
"2{	c #EEAC3A",
"3{	c #F7B127",
"4{	c #FBB016",
"5{	c #FAAA18",
"6{	c #F9A51E",
"7{	c #F9A61F",
"8{	c #F9A61E",
"9{	c #FBB51B",
"0{	c #FCBC37",
"a{	c #FBBC6C",
"b{	c #F7BA8E",
"c{	c #F8BC95",
"d{	c #F9BC94",
"e{	c #F7BB95",
"f{	c #F6B790",
"g{	c #F6B38B",
"h{	c #F6B892",
"i{	c #F2C3A2",
"j{	c #EFC1A2",
"k{	c #EBBE9E",
"l{	c #DAAA8B",
"m{	c #A77C62",
"n{	c #5F4132",
"o{	c #2C1813",
"p{	c #2B1714",
"q{	c #3E261E",
"r{	c #4C3126",
"s{	c #634030",
"t{	c #AA7654",
"u{	c #E6A87E",
"v{	c #F9C099",
"w{	c #F5C5A5",
"x{	c #F0C6A7",
"y{	c #F3C8AA",
"z{	c #F5C4A2",
"A{	c #F8B983",
"B{	c #FBB84E",
"C{	c #FBB71E",
"D{	c #FAAD1E",
"E{	c #F8A11B",
"F{	c #F89C18",
"G{	c #E79B42",
"H{	c #9C8C96",
"I{	c #157DBD",
"J{	c #0C7BBF",
"K{	c #097BC0",
"L{	c #057AC0",
"M{	c #565B92",
"N{	c #B9907A",
"O{	c #EEAD42",
"P{	c #FAB51F",
"Q{	c #FBB619",
"R{	c #FCB919",
"S{	c #FBB11A",
"T{	c #FAAA1A",
"U{	c #F9A61C",
"V{	c #FAAB1F",
"W{	c #FBB11E",
"X{	c #FBB51E",
"Y{	c #FBB94A",
"Z{	c #F9BA7D",
"`{	c #F6BA93",
" ]	c #F5B993",
".]	c #F4B792",
"+]	c #F5AF89",
"@]	c #F6AD87",
"#]	c #F7B894",
"$]	c #F6C3A1",
"%]	c #F4C7A7",
"&]	c #F1C5A7",
"*]	c #E1B597",
"=]	c #A88269",
"-]	c #4E362B",
";]	c #261411",
">]	c #462C23",
",]	c #54362A",
"']	c #77513C",
")]	c #B8815D",
"!]	c #E8A67A",
"~]	c #F9B991",
"{]	c #F7C3A1",
"]]	c #EABA9A",
"^]	c #EBB795",
"/]	c #F6C19D",
"(]	c #F8BA86",
"_]	c #FAB553",
":]	c #FBBA28",
"<]	c #F9A21C",
"[]	c #F79B1B",
"}]	c #F89C1A",
"|]	c #F59E25",
"1]	c #E39F53",
"2]	c #CEA16F",
"3]	c #C9A475",
"4]	c #BFA37F",
"5]	c #A59991",
"6]	c #808EA4",
"7]	c #5485B4",
"8]	c #2D7CBC",
"9]	c #0057A8",
"0]	c #7D6480",
"a]	c #D9994F",
"b]	c #F8AE27",
"c]	c #FAB11E",
"d]	c #FCB61A",
"e]	c #FCB81A",
"f]	c #FBB818",
"g]	c #FCB817",
"h]	c #FBB01A",
"i]	c #F9A81B",
"j]	c #F9A920",
"k]	c #FAAA1F",
"l]	c #FBAF1D",
"m]	c #FBBB63",
"n]	c #F6BA8B",
"o]	c #F1B994",
"p]	c #EFB691",
"q]	c #F1B18D",
"r]	c #F3AC86",
"s]	c #F4AE8A",
"t]	c #F7B996",
"u]	c #F7C2A1",
"v]	c #F6C9AA",
"w]	c #F4CCAF",
"x]	c #D6B095",
"y]	c #866A58",
"z]	c #35211B",
"A]	c #6B4937",
"B]	c #92674C",
"C]	c #BA8763",
"D]	c #DA9E75",
"E]	c #EFAC81",
"F]	c #F9B78F",
"G]	c #F8C19D",
"H]	c #DDA37F",
"I]	c #EDAD84",
"J]	c #F9B480",
"K]	c #FBB75A",
"L]	c #FCBA22",
"M]	c #FAAE1E",
"N]	c #F9A11C",
"O]	c #F89E1C",
"P]	c #F8A01B",
"Q]	c #F9A11A",
"R]	c #F9A21A",
"S]	c #F8A519",
"T]	c #F7AD1F",
"U]	c #F6B025",
"V]	c #F7B426",
"W]	c #F4B632",
"X]	c #EEB445",
"Y]	c #E6B057",
"Z]	c #DDAB65",
"`]	c #CAA476",
" ^	c #9B9796",
".^	c #5083B4",
"+^	c #0063B1",
"@^	c #896F83",
"#^	c #D29248",
"$^	c #D99141",
"%^	c #E09846",
"&^	c #F2A630",
"*^	c #F8AE22",
"=^	c #FBB31E",
"-^	c #FCBB18",
";^	c #FBB719",
">^	c #FAAB1A",
",^	c #F8A520",
"'^	c #F8A31F",
")^	c #F9A71D",
"!^	c #FBB83E",
"~^	c #F8BA76",
"{^	c #EBB593",
"]^	c #ECAE8B",
"^^	c #EEAA86",
"/^	c #EFAE8B",
"(^	c #F4B997",
"_^	c #F7C09F",
":^	c #F6C8A9",
"<^	c #F6CEB2",
"[^	c #EEC7AB",
"}^	c #DDB395",
"|^	c #D3A584",
"1^	c #D7A784",
"2^	c #DFAC87",
"3^	c #E7B089",
"4^	c #F0B48C",
"5^	c #F8B890",
"6^	c #FABD97",
"7^	c #E5AF8D",
"8^	c #D1936F",
"9^	c #DE986E",
"0^	c #F5A870",
"a^	c #FAB052",
"b^	c #FBB92D",
"c^	c #FAB020",
"d^	c #FAA71C",
"e^	c #F9A41B",
"f^	c #F9A51A",
"g^	c #F9A41A",
"h^	c #FAA91A",
"i^	c #FBB31A",
"j^	c #FCBA1A",
"k^	c #FDBD1F",
"l^	c #FDBE1F",
"m^	c #FBB921",
"n^	c #F7B62E",
"o^	c #EBB14A",
"p^	c #D2A86E",
"q^	c #0074BF",
"r^	c #81829F",
"s^	c #C28D61",
"t^	c #BB7945",
"u^	c #BA7844",
"v^	c #CA8235",
"w^	c #D48D2E",
"x^	c #E79D28",
"y^	c #F2A723",
"z^	c #F8B021",
"A^	c #FAB31E",
"B^	c #F9A620",
"C^	c #F9A721",
"D^	c #F8A71F",
"E^	c #FAAF23",
"F^	c #FAB750",
"G^	c #F4B780",
"H^	c #EAB491",
"I^	c #E7AE8C",
"J^	c #E7A785",
"K^	c #E7A885",
"L^	c #EEB391",
"M^	c #F5BD9B",
"N^	c #F5C5A6",
"O^	c #F6CBAD",
"P^	c #F7CCAD",
"Q^	c #F6C7A5",
"R^	c #F4C39F",
"S^	c #F8C49F",
"T^	c #F8C39E",
"U^	c #F6C09A",
"V^	c #F1BA95",
"W^	c #E6AD8A",
"X^	c #D59875",
"Y^	c #C9855F",
"Z^	c #D78B60",
"`^	c #EEA063",
" /	c #F9AA4C",
"./	c #FAAD29",
"+/	c #FAAF1C",
"@/	c #FAAA1D",
"#/	c #F9A41C",
"$/	c #F9A71C",
"%/	c #FAAC1D",
"&/	c #FAAA1B",
"*/	c #FCBD1B",
"=/	c #FCB722",
"-/	c #F9B931",
";/	c #446EB1",
">/	c #5380B4",
",/	c #AE8B7E",
"'/	c #CF874C",
")/	c #CD7E54",
"!/	c #CD7948",
"~/	c #BF733F",
"{/	c #B97336",
"]/	c #BC7730",
"^/	c #C17F34",
"//	c #D99437",
"(/	c #F0A52C",
"_/	c #F8AC20",
":/	c #FAAB1D",
"</	c #F9A720",
"[/	c #F7A522",
"}/	c #F7A420",
"|/	c #F9A91F",
"1/	c #FBB029",
"2/	c #F8B354",
"3/	c #EDAF7A",
"4/	c #E2A986",
"5/	c #DFA483",
"6/	c #DEA07E",
"7/	c #E2A481",
"8/	c #EBB08D",
"9/	c #F0BD9D",
"0/	c #F4C7A8",
"a/	c #F6CBAC",
"b/	c #F5CAAA",
"c/	c #EEBE9D",
"d/	c #E6B28F",
"e/	c #DCA481",
"f/	c #D39875",
"g/	c #C88B67",
"h/	c #BF7D59",
"i/	c #C57A51",
"j/	c #D98858",
"k/	c #EE9B57",
"l/	c #F8A942",
"m/	c #FAAF2A",
"n/	c #F9A61B",
"o/	c #FBAE1D",
"p/	c #FDC622",
"q/	c #FDC621",
"r/	c #FDC71E",
"s/	c #FDC61C",
"t/	c #FDC21D",
"u/	c #FDBF1A",
"v/	c #FCBA23",
"w/	c #047AC0",
"x/	c #A28E92",
"y/	c #DD9853",
"z/	c #E69563",
"A/	c #EA9562",
"B/	c #DE8B57",
"C/	c #CB7D4D",
"D/	c #BB7145",
"E/	c #AD6940",
"F/	c #A9693B",
"G/	c #B07035",
"H/	c #CE882F",
"I/	c #EDA027",
"J/	c #F5A320",
"K/	c #F8A523",
"L/	c #F9A622",
"M/	c #FAA91F",
"N/	c #FAAD2A",
"O/	c #F6AF50",
"P/	c #E7A770",
"Q/	c #D89E7B",
"R/	c #D69B78",
"S/	c #D79977",
"T/	c #DA9E7C",
"U/	c #E2AD8C",
"V/	c #EEC1A1",
"W/	c #F0C5A6",
"X/	c #EABB9B",
"Y/	c #E0AA87",
"Z/	c #D79B75",
"`/	c #D3926B",
" (	c #D18B62",
".(	c #D68A59",
"+(	c #E59349",
"@(	c #F3A33C",
"#(	c #F9A933",
"$(	c #F9A723",
"%(	c #F9A71B",
"&(	c #FEC821",
"*(	c #FDC618",
"=(	c #FDC417",
"-(	c #FDC218",
";(	c #FCBF17",
">(	c #6E7CA6",
",(	c #C99064",
"'(	c #EE9F5A",
")(	c #F3A36F",
"!(	c #F4A16B",
"~(	c #EB9964",
"{(	c #E1905E",
"](	c #D38456",
"^(	c #C3784D",
"/(	c #B46E47",
"((	c #B36E41",
"_(	c #BF7939",
":(	c #C67F30",
"<(	c #D48929",
"[(	c #E89927",
"}(	c #F4A427",
"|(	c #F9A822",
"1(	c #FAA91D",
"2(	c #FAAC29",
"3(	c #F5AB47",
"4(	c #E5A164",
"5(	c #D49670",
"6(	c #CF9370",
"7(	c #D19674",
"8(	c #D69E7C",
"9(	c #DBA583",
"0(	c #E0AC8A",
"a(	c #E6B492",
"b(	c #E7B593",
"c(	c #E5AE8C",
"d(	c #E0A47F",
"e(	c #DE9970",
"f(	c #E19360",
"g(	c #E8974E",
"h(	c #F2A13C",
"i(	c #F7A22C",
"j(	c #F8A01F",
"k(	c #F89E1D",
"l(	c #F89D1C",
"m(	c #F9A31B",
"n(	c #F9A91D",
"o(	c #FAAF1E",
"p(	c #FBAE1C",
"q(	c #FBAF1C",
"r(	c #FBB31D",
"s(	c #FBB71B",
"t(	c #FDC520",
"u(	c #FDC41F",
"v(	c #FDC41A",
"w(	c #FDC418",
"x(	c #FDC519",
"y(	c #FDC317",
"z(	c #FDC115",
"A(	c #1F6CB3",
"B(	c #997B81",
"C(	c #DE9854",
"D(	c #F3A66B",
"E(	c #F8AD7A",
"F(	c #F7AB76",
"G(	c #F5A671",
"H(	c #EF9E6B",
"I(	c #E79764",
"J(	c #DE8F5F",
"K(	c #D38659",
"L(	c #C77C51",
"M(	c #B97246",
"N(	c #B5703B",
"O(	c #C67E30",
"P(	c #DE9127",
"Q(	c #F1A225",
"R(	c #F9AA22",
"S(	c #F9AA24",
"T(	c #F6AB3A",
"U(	c #EBA050",
"V(	c #DB915D",
"W(	c #D28D65",
"X(	c #D08F69",
"Y(	c #CF8F6B",
"Z(	c #D3936E",
"`(	c #D89771",
" _	c #DC9870",
"._	c #E2996C",
"+_	c #E99C61",
"@_	c #F0A24E",
"#_	c #F4A438",
"$_	c #F7A527",
"%_	c #F89F1C",
"&_	c #F8A21C",
"*_	c #FAAF1D",
"=_	c #FAAE1B",
"-_	c #FBB31C",
";_	c #FCB71F",
">_	c #FBB724",
",_	c #FBB322",
"'_	c #FCB623",
")_	c #FCBD29",
"!_	c #FBBA25",
"~_	c #FCBE1D",
"{_	c #FDC518",
"]_	c #FDC215",
"^_	c #FDC017",
"/_	c #4E73AB",
"(_	c #BC9077",
"__	c #EFA659",
":_	c #F5B07C",
"<_	c #FAB686",
"[_	c #FAB27F",
"}_	c #F8AD79",
"|_	c #F6A975",
"1_	c #F3A572",
"2_	c #EEA06E",
"3_	c #E59767",
"4_	c #DA8C5D",
"5_	c #CE8053",
"6_	c #BF7443",
"7_	c #C07531",
"8_	c #D78B29",
"9_	c #ED9E25",
"0_	c #F7A520",
"a_	c #F9A71F",
"b_	c #FAAA21",
"c_	c #F9AD2C",
"d_	c #F4A836",
"e_	c #EE9E3E",
"f_	c #E89545",
"g_	c #E5924A",
"h_	c #E6934D",
"i_	c #EB974A",
"j_	c #EF9E44",
"k_	c #F3A53C",
"l_	c #F7A933",
"m_	c #FAAD27",
"n_	c #F8A11C",
"o_	c #F8A21B",
"p_	c #FAA91C",
"q_	c #FAAC1B",
"r_	c #FAB11A",
"s_	c #FBB61D",
"t_	c #FCBF4D",
"u_	c #FBBC5A",
"v_	c #FBB741",
"w_	c #FCBC20",
"x_	c #FDC12B",
"y_	c #FDC316",
"z_	c #FDC314",
"A_	c #506EB2",
"B_	c #7E81A0",
"C_	c #D59C61",
"D_	c #F6AB5C",
"E_	c #F8B37F",
"F_	c #FAB785",
"G_	c #FAB481",
"H_	c #F8AE7B",
"I_	c #F5A976",
"J_	c #F1A270",
"K_	c #EB9B69",
"L_	c #DF8D5C",
"M_	c #CA7948",
"N_	c #BC7138",
"O_	c #CC812D",
"P_	c #E39323",
"Q_	c #F29F22",
"R_	c #F8A623",
"S_	c #F9AC22",
"T_	c #F8AC25",
"U_	c #F7AA28",
"V_	c #F8AA29",
"W_	c #F9AD27",
"X_	c #F9AA23",
"Y_	c #F8A01C",
"Z_	c #F9A51C",
"`_	c #F8A41B",
" :	c #FAB01D",
".:	c #FCBB44",
"+:	c #FCC167",
"@:	c #FCC05D",
"#:	c #FCBC30",
"$:	c #FDC430",
"%:	c #FDC02E",
"&:	c #FBB723",
"*:	c #FBB124",
"=:	c #FDC214",
"-:	c #FDC216",
";:	c #2C58A0",
">:	c #A07A75",
",:	c #E7A245",
"':	c #F7AC5A",
"):	c #F7B480",
"!:	c #FABD8F",
"~:	c #FABD8E",
"{:	c #FAB583",
"]:	c #F8B07E",
"^:	c #F7AD7A",
"/:	c #F4A571",
"(:	c #E79360",
"_:	c #D27F4F",
"::	c #CC7C42",
"<:	c #D7862F",
"[:	c #E4901F",
"}:	c #EF9820",
"|:	c #F59E20",
"1:	c #F79A1D",
"2:	c #F7981D",
"3:	c #F9A81A",
"4:	c #FCBA21",
"5:	c #FCBE21",
"6:	c #FCBA4D",
"7:	c #FCBC5B",
"8:	c #FCBF3D",
"9:	c #FDC21E",
"0:	c #FCBB26",
"a:	c #FCB826",
"b:	c #FBB025",
"c:	c #FAAE24",
"d:	c #FDC213",
"e:	c #4A4C8B",
"f:	c #A67E6E",
"g:	c #E5A146",
"h:	c #F9AD51",
"i:	c #F9B376",
"j:	c #F9BC8D",
"k:	c #FABF92",
"l:	c #FABC8E",
"m:	c #FABB8C",
"n:	c #F9AF7D",
"o:	c #EA9765",
"p:	c #E2905E",
"q:	c #DE8C50",
"r:	c #E58D33",
"s:	c #EA8E1E",
"t:	c #ED911F",
"u:	c #F49922",
"v:	c #F79D21",
"w:	c #F8A21D",
"x:	c #F79B1D",
"y:	c #F7991D",
"z:	c #F7971D",
"A:	c #F7951D",
"B:	c #F7931D",
"C:	c #F7911D",
"D:	c #F8981C",
"E:	c #FCBA1D",
"F:	c #FDBD22",
"G:	c #FBB539",
"H:	c #FDBF24",
"I:	c #FDC31B",
"J:	c #FDC319",
"K:	c #FDC11A",
"L:	c #FCBD1A",
"M:	c #FBB81C",
"N:	c #FBB523",
"O:	c #FBAD21",
"P:	c #FAA923",
"Q:	c #FDC01A",
"R:	c #FDC117",
"S:	c #016AB5",
"T:	c #01489C",
"U:	c #464A8B",
"V:	c #9A7675",
"W:	c #DB9C4D",
"X:	c #F6AC41",
"Y:	c #F7AD5E",
"Z:	c #F4AE76",
"`:	c #F5B282",
" <	c #F8B688",
".<	c #F9B788",
"+<	c #F9B688",
"@<	c #F7B181",
"#<	c #F3A776",
"$<	c #EC9F6F",
"%<	c #E09366",
"&<	c #DD8D5B",
"*<	c #E68E40",
"=<	c #E48B29",
"-<	c #C88760",
";<	c #C0876C",
"><	c #DC8942",
",<	c #EF8E1F",
"'<	c #F6931D",
")<	c #F6911E",
"!<	c #F28B1D",
"~<	c #ED841D",
"{<	c #EE821E",
"]<	c #F3851E",
"^<	c #F58B1E",
"/<	c #F7951C",
"(<	c #FCB91D",
"_<	c #FCBB1D",
":<	c #FCBF26",
"<<	c #FBB825",
"[<	c #FBB919",
"}<	c #FCB81D",
"|<	c #FBB420",
"1<	c #F9AA28",
"2<	c #F9AE22",
"3<	c #FDBF17",
"4<	c #5666AB",
"5<	c #37448E",
"6<	c #7E667F",
"7<	c #BC8964",
"8<	c #E29E4A",
"9<	c #F3A842",
"0<	c #F7AA4C",
"a<	c #F7A959",
"b<	c #F7AA60",
"c<	c #F6AC66",
"d<	c #F0A867",
"e<	c #EA9F60",
"f<	c #E99B57",
"g<	c #E5954C",
"h<	c #E59140",
"i<	c #E28D38",
"j<	c #B9795C",
"k<	c #735E84",
"l<	c #675C88",
"m<	c #B3725C",
"n<	c #E07F1D",
"o<	c #EB841E",
"p<	c #F18F21",
"q<	c #F59925",
"r<	c #F39623",
"s<	c #EF8620",
"t<	c #F07E1E",
"u<	c #F3821E",
"v<	c #F5891E",
"w<	c #F7971C",
"x<	c #F9A91A",
"y<	c #FAAF1B",
"z<	c #FDC127",
"A<	c #FDC024",
"B<	c #FCBB24",
"C<	c #FDBE1B",
"D<	c #FBBA20",
"E<	c #FBB51F",
"F<	c #FBAF20",
"G<	c #F8A924",
"H<	c #F8A622",
"I<	c #FBB51A",
"J<	c #516999",
"K<	c #1D3B90",
"L<	c #534E8A",
"M<	c #7A6382",
"N<	c #A77C6F",
"O<	c #CB9057",
"P<	c #DD9747",
"Q<	c #E79D3D",
"R<	c #EDA23B",
"S<	c #E89E3E",
"T<	c #DF9640",
"U<	c #DB9544",
"V<	c #CE9157",
"W<	c #B68367",
"X<	c #936975",
"Y<	c #5B4E87",
"Z<	c #2A4A91",
"`<	c #95757A",
" [	c #DD9440",
".[	c #F29B1B",
"+[	c #F5A321",
"@[	c #F8AF32",
"#[	c #FAB43A",
"$[	c #F79A1C",
"%[	c #F89D1B",
"&[	c #FBB41C",
"*[	c #FCB91C",
"=[	c #FBB71D",
"-[	c #FAAE21",
";[	c #F9A923",
">[	c #F8A423",
",[	c #F9A51D",
"'[	c #FAAA1C",
")[	c #4E82A8",
"![	c #0066B3",
"~[	c #3C458D",
"{[	c #615487",
"][	c #725C83",
"^[	c #7D6180",
"/[	c #836983",
"([	c #827B98",
"_[	c #7C85A6",
":[	c #7682A9",
"<[	c #6A80AD",
"[[	c #5368A0",
"}[	c #2F418F",
"|[	c #837185",
"1[	c #D99F56",
"2[	c #F9B02B",
"3[	c #FCB72E",
"4[	c #FCBB31",
"5[	c #FCC040",
"6[	c #FDC343",
"7[	c #FCBF35",
"8[	c #FBB41E",
"9[	c #FCB818",
"0[	c #FAB01A",
"a[	c #FDC11F",
"b[	c #FCBC1E",
"c[	c #FBB52B",
"d[	c #FBB624",
"e[	c #FBB520",
"f[	c #FBB61F",
"g[	c #FBB023",
"h[	c #F9A520",
"i[	c #FAAB1E",
"j[	c #4D8CB3",
"k[	c #003592",
"l[	c #004398",
"m[	c #0067B1",
"n[	c #007AC1",
"o[	c #406BA3",
"p[	c #BB9C7C",
"q[	c #F7BA33",
"r[	c #FEC82F",
"s[	c #FDC92E",
"t[	c #FECA2F",
"u[	c #FDCA2F",
"v[	c #FDBF1C",
"w[	c #FDC719",
"x[	c #FCBB16",
"y[	c #FBB618",
"z[	c #FBB71C",
"A[	c #FCBB1E",
"B[	c #FBB528",
"C[	c #FCB92A",
"D[	c #FBB526",
"E[	c #FBB425",
"F[	c #FBB622",
"G[	c #FBB221",
"H[	c #FBAE22",
"I[	c #FAA823",
"J[	c #FAA922",
"K[	c #FAAD20",
"L[	c #4F86AB",
"M[	c #0057A9",
"N[	c #0073BE",
"O[	c #868DA4",
"P[	c #DFB064",
"Q[	c #FDC72B",
"R[	c #FEC82B",
"S[	c #FECD2F",
"T[	c #FECE2C",
"U[	c #FECD2A",
"V[	c #FECD2D",
"W[	c #FDC823",
"X[	c #FCBF19",
"Y[	c #FEC517",
"Z[	c #FDC611",
"`[	c #FCC014",
" }	c #FBAD1F",
".}	c #FBB32A",
"+}	c #FCB72D",
"@}	c #FBB627",
"#}	c #FBB726",
"$}	c #FBB822",
"%}	c #FAAD21",
"&}	c #FAAB20",
"*}	c #FAAB23",
"=}	c #FBAE23",
"-}	c #4F7FA3",
";}	c #004099",
">}	c #004FA1",
",}	c #177BBE",
"'}	c #AD9791",
")}	c #F3B03A",
"!}	c #FDBE23",
"~}	c #FDC625",
"{}	c #FDC91F",
"]}	c #FDC91E",
"^}	c #FECA23",
"/}	c #FEC920",
"(}	c #FDC515",
"_}	c #FCBC17",
":}	c #FBB819",
"<}	c #FBB71A",
"[}	c #FAA91B",
"}}	c #FCBB29",
"|}	c #FAAF20",
"1}	c #FBB022",
"2}	c #FAAD22",
"3}	c #FBAC21",
"4}	c #FBAE21",
"5}	c #FAAC1E",
"6}	c #4F82A6",
"7}	c #0070BB",
"8}	c #566A9D",
"9}	c #C8976D",
"0}	c #FBB121",
"a}	c #FDC523",
"b}	c #FDC822",
"c}	c #FDC71C",
"d}	c #FDC318",
"e}	c #FDC018",
"f}	c #FCBB1A",
"g}	c #FBB91D",
"h}	c #FCBE14",
"i}	c #FCBA17",
"j}	c #FBB419",
"k}	c #FBB119",
"l}	c #FAAE1A",
"m}	c #F9A31D",
"n}	c #F8A11E",
"o}	c #FBB126",
"p}	c #FAB027",
"q}	c #FAAE25",
"r}	c #FAAC22",
"s}	c #FAA71E",
"t}	c #FAA91E",
"u}	c #528CB0",
"v}	c #0D66B3",
"w}	c #0D63AF",
"x}	c #0D72BB",
"y}	c #0D7AC2",
"z}	c #0D6CB6",
"A}	c #0D4C9E",
"B}	c #0D3992",
"C}	c #0D3B94",
"D}	c #0D3A93",
"E}	c #0D3891",
"F}	c #0D4B9E",
"G}	c #0D79C1",
"H}	c #0D76BE",
"I}	c #0D5EAB",
"J}	c #0D3E97",
"K}	c #7E6884",
"L}	c #DA9C54",
"M}	c #FCAE24",
"N}	c #FCBB23",
"O}	c #FDC320",
"P}	c #FBB620",
"Q}	c #FBB721",
"R}	c #FCB91E",
"S}	c #FBB21F",
"T}	c #FAA720",
"U}	c #F8A121",
"V}	c #F69F23",
"W}	c #F7A626",
"X}	c #FAAE2A",
"Y}	c #F8A828",
"Z}	c #F8A829",
"`}	c #F9AC2A",
" |	c #F9AC29",
".|	c #FAA924",
"+|	c #FAA822",
"@|	c #F9A323",
"#|	c #F9A422",
"  . + @ # $ % & * = - ; > , ' ) ! ~ { ] ^ / ( _ : < [ } | 1 2 3 4 5 6 7 8 9 0 a b c d e f g h g i j k l m n o p q r p s t u v w ",
"x y z A B C D E E F G H I J K L M N O P Q R S T U V W X Y Z `  .E ..+.@.#.$.%. .&.*.=.@.-.U ;.>.,.C '.).!.X E E E E E X ~.{.U ].",
"^./.(._.:.<.` E E F [.}.|.1.2.3.4.5.6.7.8.9.0.a.b.c.W E E d.e.Y E f.<.g.h.i.Y E Y j.k.@.l...$._.~.{.g.).W E E E E E E E (.A g.m.",
"n.>.o.p.j._.q.Y Y F r.s.t.u.v.w.x.y.z.A.B.C.D.E.F.Z Y E E E E E E q.D G.H.d.E E p.).#.I.J.K.L.M.N.Z O.P.Q.Y E E E E E E Q.R.D S.",
"T.>.U.V.W.Q.X.>.Y.W.Z.`. +.+++@+#+$+%+&+*+=+-+;+>+d.,+'+S.e.E E E E )+p.Q.E E E d.V.A !+~+W Y.{+]+!.Q.!.^+G.&.E E q./+P.(+Y Q.Y ",
"_+G.@.:+S.E <++.U.H.X [+}+|+1+2+3+4+5+6+7+8+9+0+a+b+_.!+c+j.E E E E E E E E E E E e. .d+p.E *.].C ` E %.!+e+f+Y X g+h+D E E E E ",
"i+j.j+k+S.E l+U m+O.b+n+o+p+q+r+s+t+u+v+w+x+y+z+A+b+*.<.g.G.W.E )+W d.E E E E E E E E E E E ~.B+;.D E %.!+b.c.p.X f.y j.E E E E ",
"C+)+(.P.e.E D+c+I.E+E p.F+G+H+I+J+K+L+M+N+O+P+Q+R+b+S+T+U+V+W+X+Y+Z+`+ @E E E E E E E E E E Q.&.X.p.E q.>.I.J. .X _.~+,+E E E E ",
".@X E E E E e.O.{+..X e.+@@@#@$@%@&@*@=@-@;@>@,@'@)@!@~@{@]@^@/@(@_@:@<@[@}@|@E !.` Y. .E E E E E E E 1@S.m.2@!.(+q.N.Q.P.d+Y E ",
"3@b+E q.Y.` W.4@2@E+W.W.5@6@7@7+8@9@0@a@b@c@d@e@f@g@h@i@j@k@l@m@n@o@p@q@r@s@t@u@v@{+w@z q.E E E Y /+]+&.Y ~+x@y@W d.E Z z@h.%.E ",
"3@b+X H.U.j+Y.K.2@A@:+B+B@C@D@E@F@G@H@I@J@K@L@M@N@O@P@Q@R@P S@T@U@I I V@W@X@Y@Z@`@ #.#k+S.(+E E !.,.'.>.+#@###$#%#&#Z &#+.U &#e.",
"3@b+X H.*#@.{+c+=#@.I.-.w@-#;#>#,#'#)#!#~#{#]#^#u./#(#_#I+:#'#<#[#}#|#1#2#V@3#4#5#6#7#8#9#E E E !.2@0#a#b#c#d#e#f#g#h#i#U U j#Q.",
"3@b+E ,+V.k#l#g.U U U U U m#n#o#p#q#r#s#t#u#v#w#q+x#q+y#z#9@A#B#:#C#D#E#8.F#G#H#I#J#K#L#M#N#E E Y O#P#Q#R#S#T#U#V#W#X#Y#:+E+&.W.",
"3@b+E E Q./+=.@.U U U U U U Z#`# $.$+$@$#$E#$$%$z#8.&$2#*$=$r#-$;$>$,$'$)$E#!$~${$]$^$/$($_$:$E <$[$}$|$1$2$3$4$5$6$7$8$i.W.W ..",
"3@b+E E ~.9$e+U U U U U U +.0$a$b$c$d$e$f$x#g$h$i$j$k$l$m$n$o$p$q$r$s$t$u$=$v$z#y#w$x$y$z$A$B$C$D$E$F$G$H$I$J$K$L$M$N$O$9#d+z i#",
"P$b+E ,+&#m+U U U U U U Q$R$S$T$U$V$W$X$Y$1+O@Z$`$ %.%+%@%#%#%+%$%%%&%*%=%-%;%>%,%'%)%!%d@~%{%]%^%/%(%_%:%<%[%}%|%1%2%3%4%5%6%+.",
"P$b+E P.B+g.U U U U U @.7%8%9%0%a%b%c%[#d%e%f%g%h%i%j%k%k%l%m%n%o%p%q%r%s%t%u%v%w%x%y%z%A%d@B%C%D%E%,%F%G%H%I%J%K%L%M%N%O%P%'+g+",
"Q%Z q.S.k+I.U U U U 0#R%S%T%U%1.B.V%W%X%Y%Z%`% &.&+&@&+&l%#&$&@&m%j%o%%&&&*&=&-&;&>&a%,&'&)&!&~&{&h$,%]&^&/&(&_&:&<&[&}&|&1&F Y ",
"2&k+_.S.3&I.U U U @.4&5&6&7&8&h$2$9&0&a&b&c&d&k%+&e&e&@&+&@&$&$&@&m%j%f&g&h&i&j&t%k&l&m&n&o&]#)&p&q&r&s&t&u&v&w&x&y&z&A&B&C&X.b+",
"D&%.q.&.9$I.U U U U E&F&7&G&H&I&I&J&K&L&M&d&N&+&O&P&P&O&+&+&@&@&Q&k%R&f&f&S&g&&&T&U&V&W&X%2+^#X&Y&1.E#Z&`& *.*+*@*#*$*%*&***=*-*",
";*)+,+V.*#@.U U 0#>*,*'*)*!*~*v#{*]*^*/*(*_*m%:*<*[*[*}*@&l%k%N&_*d& & &%&p%|*1*2*3*4*5*6*7*8*{$d$9*0*B#a*b*c*d*e*z&f*g*h*i*j*-*",
"k*z h.!+m+U U U +.l*m*n*)%o*o*p*q*r*#%|*_*N&+&P&[*[*<*}*+&k%n%|* &@%s*t*u*u*v*w*x*y*z*A*B*C*D*E*Y&C*F*=+G*H*I*J*%*K*K*g*L*M*N*F ",
"O*P*g.Q*R*$.e+0#S*T*U*p@V*W*X*Y*o$Z*`*o%n%k%$&<*[*P&}*$&+&N&|* =Z*.=+=@=#=$=$=%=y*&=*===-=;=$@>=,=,='=)=!=~={=]=^=/=(=/=_=:=<=F ",
"[=l#'.L.q.D+m.}=|=1=2=3=4=x+z%5=6=&&%&o%N&+&}*P&}*O&#&+&7=o%v*+=#=8=8=9=0=a=b=c=d=e=f=g=h=i=j=k=l=m={&n=o=p=q=r=s=t=u=v=w=x=y=F ",
"z=g+*.!.X S.l#A=B=C=D=I E=F=G=H=e=w*p%f&N&@&O&O&O&#&#&l%n%%&s*$=I=J=K=L=M=N=O=P=Q=R=S=T=U=[&V=h$W=X=Y=Z=`= -.-+-@-#-$-%-&-*-=-F ",
"C+d.Q.1@K.$.B --;->-,-'-)-!-~-{-]-^-p%f&/-m%@&@&@&@&+&N&o%(-.=_-:-<-[-}-|-1-2-3-4-5-6-7-T&8-9-0-a-b-c-d-e-f-g-h-i-j-k-l-m-n-o-F ",
"p-X E q.).q-r-s-t-u-v-X=E=w-x-h=y-z-p%f&/-7=m%+&@&Q&k%j%A-B-C-D-E-F-G-H-I-J-K-L-M-N-/*S=O-P-Q-R-S-W=T-U-V-W-X-Y-(=@-Z-{-`- ;.;F ",
"+;b+E  .9$g.@;#;$;%;&;I$*;=;-;;;U=2*%&A->;,;/-7=';7=N&_*|*w*]-);!;~;{;];^;/;(;_;:;<;#%S=[;P-};|;1;2;{&p@3;4;5;6;7;/=R=-;8;9;0;E ",
"3@b+E Q.f.k.a;b;c;d;e;f;g;h;i;j;k;l;h&m;m;n;n;g&o;p;d&d&|*w*]-q;r;s;t;u;v;w;x;y;z;A;u*T=]-B;C;D;E;F;G;H;I;J;K;L;M;N;O;V&P;Q;b+E ",
"3@X W. . .~.R;S;T;U;V;W;X;Y;Z;`; >.>+>@>#>$>%>&>&>*>q%=>`*->7-;>>>,>'>)>!>~>{>]>^>/>[;(>(>P-_>:><>P@[>}>|>1>2>3>]=4>5>6>7>8>d.E ",
"9>e...c+f.Y b+0>a>b>)=c>d>e>f>g>h>i>j>O-(>k>l>m>n>o>p>f=->`*z-q>r>s>t>u>v>w>x>y>/>z>A>B>C>D>E>F>G>H>2#@$I>J>K>L>M>N>O>P>Q>R>L.!.",
"S>T>).m+O.Y U>V>W>X>Y>Z>`> ,.,+,@,#,z*$,%,&,*,=,-,;,>,,,T=7-y-',),!,~,{,],^,/,7-7-(,_,:,n><,[,},|,1,2,H#3,4,5,6,7,8,9,0,a,0#;.B+",
"b,J.l#B+&.~.c,d,e,f,g,W;h,i,j,k,l,m,$,k>n,o,p,q,r,s,t,u,&,8-v,w,x,z*y,z,A,B,C,q%=>(-*>D,E,F,G,H,I,J,K,G&L,M,N,O,P,Q,R,S,A U U +.",
"T,e++.U,%.c.V,W,X,Y,V;Z,`, '.'+'@'#'k>$'%'&'*'='-';'>','''k;)'k%d&|*!'~'h&h&h&{',;f&n;]'^'/'('_':'<'['}'|'1'2'3'4'5'6'7'K.` 8'z@",
"9'U @.=#:+$.F.0'a'b'c'd'e'f'g'h'+,i'j'k'l'm'n'o'p'q'r's't'u'!'&=B-7=v'w'x'x'y'z'A'B'C'D'E'F'G'H'I'J'K'*;L'M'N'O'P'Q'E E Y Q.,+M.",
"R'U U g.B+Z S'T'U'V'W'X'Y'Z'`' )G,.)+)@)#)$)%)&)*)=)-);)>),)f=@>m;';')))!)~){)])^)/)!)()_):)<)[)})|)1)'=2)3)4)5)6)E d.W ,+d.E ~+",
"7)U U I.{.d+b+8)9)0)a)b)c)d)e)f)g)h)j'i)j)k)l)m)n)o)p)q)r)s)t)A-m;o;u)v)!)w)x)y)z)A)B)~)C)D)E)F)G)H)I)J)K)L)M)X E e.D m.>.K.E N)",
"O)U U I.$.N)P)l+Q)R)S)T)U)V@V)W)X).)Y)Z)`) !.!+!@!#!$!%!&!*!A'=!(-q%g&-!;!>!,!'!)!!!~!{!]!^!/!(!_!:!<![!}!|!1!b+E W.M.c+_.W.(+S.",
"2!U U g.V  .D 3!4!5!6!7!8!9!0!a!b!c!d!e!f!g!h!i!j!k!l!m!n!o!p!q!r!y*s!t!u!v!w!x!y!z!A!B!C!D!E!F!G!H!I!J!K!L!M!b+E Y  .P.e.E d+>.",
"2!U U I.l#Y.S.~.N!O!P!Q!R!S!T!U!V!W!X!i;Y!Z!`! ~.~+~@~#~$~%~&~*~=~-~;~>~,~'~)~!~~~{~]~^~/~(~%~_~:~V*W;<~[~}~|~b+E E E (+Y V.:+].",
"1~y G.h.q-w@` 2~3~4~5~6~7~R!8~9~0~a~b~c~d~e~f~g~h~i~j~k~l~m~n~o~p~q~r~s~t~u~v~w~x~y~z~A~B~C~D~E~F~A.G~H~I~J~K~E E E E X (.{.U '.",
"^.,.K.o.L~M~N~O~P~Q~R~S~T~U~8!K,V~W~X~Y~Z~N=`~ {.{+{@{#{${o~%{&{*{={-{;{>{,{'{){!{z*~{{{]{^{/{w-w#({_{:{<{[{E E E E E E K.h.g.k+",
"n.>._.}{|{1{2{3{4{5{H~6{7{8{_{9{0{a{b{c{d{c{e{f{g{h{F>i{j{k{l{m{n{o{p{q{r{s{t{u{v{w{x{y{z{A{B{=+C{D{E{F{G{H{I{J{K{L{E E Q.Z D Z ",
"T./.M{N{O{P{Q{R{Z>S{T{U{V'7{V{W{X{Y{Z{`{ ]I,.]+]@]#]$]%]&]*]=]-];]>{>],]'])]!]~]{]]]^]/](]_]:]8~D{<][]}]|]1]2]-@3]4]5]6]7]8]Q.Y ",
"_+9]0]a]W'b]c]d]e]f]g]h]i]V'j]k]l]]$m]n]o]p]q]r]s]t]u]v]w]x]y]z]r{A]B]C]D]E]F]G]p~H]I]J]K]T!L]M]N]O]P]Q]R]S]T]U]V]W]X]Y]Z]`] ^.^",
"i++^@^#^$^%^&^*^=^Z>-^;^>^U{,^'^)^W{!^~^o]{^]^^^/^(^_^:^<^[^}^|^1^2^3^4^5^6^[,7^8^9^0^a^b^L]c^d^e^f^R~f^g^h^i^j^2$k^l^|+m^n^o^p^",
"C+q^r^s^t^u^v^w^x^y^z^A^G~J!1'B^C^D^E^F^G^H^I^J^K^L^M^N^O^P^Q^R^E>S^T^U^V^W^X^Y^Z^`^ /./+/@/#/$/%/_{&/T)J!S{*/%@:#I+[#q+>=8~=/-/",
";/b+>/,/'/)/!/~/{/]/^///(/_/:/</[/}/|/1/2/3/4/5/6/7/8/9/0/a/b/:)c/d/e/f/g/h/i/j/k/l/m/V{U{n/T)o/o/_{_{_{h]W=p/q/r/s/t/<#u/W*({v/",
";/b+w/x/y/z/A/B/C/D/E/F/G/H/I/J/6!K/L/M/N/O/P/Q/R/S/T/U/]]V/W/o~X/Y/Z/`/ (.(+(@(#($()^$/%(X'G~d'G~_{_{b)i^D#&(s/*(=(-(,%8@;(x+'-",
";/b+b+>(,('()(!(~({(](^(/(((_(:(<([(}(|(1(2(3(4(5(6(7(8(9(0(a(b(c(d(e(f(g(h(i(j(k(l(m(n(o(d'p(_{q(g,r(c)s(t/t(u(v(=(w(x(y(z(1$2$",
";/b+b+A(B(C(D(E(F(G(H(I(J(K(L(M(N(O(P(Q(R(1(S(T(U(V(W(X(Y(Z(`( _._+_@_#_$_V'H~E{%_O]&_@/o(*_=_-_;_G&>_,_'_)_m&)_,-!_~_w({_y(]_^_",
";/b+E W /_(___:_<_[_}_|_1_2_3_4_5_6_7_8_9_0_a_b_c_d_e_f_g_h_i_j_k_l_m_q(h^<]n_P]O]%_o_p_X'q_r_s_i@t_u_v_m@w_v#x_o&I#,_V%=(y_z_z_",
"A_b+E E Q.B_C_D_E_]=F_G_.*H_I_J_K_L_M_N_O_P_Q_R_R(M,S_T_U_V_W_X_7!%(U{U{Y_l(l(P]Z_U{`_H~&/ :F=:%.:+:@:#:u/W%J+$:%:&:*:n@u/=:-:]_",
"3@b+E E ~.;:>:,:':):!:~:]={:c*]:^:/:(:_:::<:[:}:|:'^V'p_%(Z_U{)^Z_P]l(1:2:2:O]H~n/H~e^3:W{4:5:w_6:7:8:9:F%B#8.V$0:a:b:c:'-d:8@-:",
"3@b+E q.G.m+e:f:g:h:i:j:k:l:m:]=<_n:)(o:p:q:r:s:t:u:v:%_n_w:k(x:y:z:A:B:C:D:m(i]&/&/T{U)E:F:X%q&G:Z$H:I:J:K:L:M:D%N:O:P:)=Q:R:8@",
"3@b+X S:T:I.-.U:V:W:X:Y:Z:`: <.<+<@<#<$<%<&<*<=<-<;<><,<'<A:)<!<~<{<]<^</<P]H~%(b)W;(<_<4=a%,&:<@$<<!$r&,%$@[<}<D%|<b>1<2<E%^_3<",
"4<S.W '+U.@.U U 5<6<7<8<9<0<a<b<c<d<e<f<g<h<i<j<k<l<m<n<o<p<q<r<s<t<u<v<w<m(x<y<W;j^'%H$A.e$z<A<B<:%H$_%C<4=D<G;I$E<F<G<H<_{c>I<",
"J<5%_.S.3&I.U U @.K<L<M<N<O<P<Q<R<S<T<U<V<W<X<Y<Z<`< [.[+[@[#[>-|/k(l($[w<%[%(y<Y'&[X**/H$I&[#.+{*V$>=o**[=[G&G&T--[U~;[>[,[b''[",
")[![q.&.9$g.U U U U @.-.~[{[][^[/[([_[:[<[[[}[m+|[1[2[3[4[5[6[7[!%8[9[f]0[3:%(J!J!G~H&a[%$*[b[,-c[d[&:e[>@r(f[>_g[2':/P:h[b'i[@/",
"j[q^e./+U.@.U U U U U U @.0#k[U l[m[n[(+b+~.k#o[p[q[,&r[s[t[u['$v#:%v[w[y(x[y[i^W{8[z[A[=+C{>@H;B[X&C[D[E[F[E<G[H[O:V{I[J[V{K[|'",
"L[M[A !+m+U U U U U U U i#$.U.g.h.K.E E E Y N[O[P[,&Q[R[S[T[U[V[W[X[*[~_Y[Z[`[-^M:>@s(M:s_9{c> }.}+}B[@}#}$})=K[|'%}&}*}=}K[V{i[",
"-};}g.w@2@>}e+U U U U I.>.d+L.{+8'e.E E E E ,}'})}!})$~}W[{}]}^}/}F%2$I$V%(}=:_}:}<}s(9{Q{;^S{[}|(Y,L'p@&;}}D[|}1}L'2}3}4}i[D{5}",
"6}T e+k#!.H.m.I.U U U w@o.E q.~.W E E E 7}8'8}9}0}:%Y$a}b}c}w(-(d}e}f}g}({f}h}i}Q{[<[<j}k}0[l}i]m}n}W'H;o}p}q}L'L'3,r}k]2's}t}U{",
"u}v}w}x}y}z}A}B}C}D}E}F}z}y}G}G}G}G}G}H}I}J}K}L}M})*N}A<1+O}D#9:|#:%P}Y=G&N:Q}b-R}8~f[S}c'c'M,T}U}V}W}X}Y}Z}X}./`} |.|+|L/@|#|e^"};
