/* XPM */
static char * po_xpm[] = {
"64 64 2242 2",
"  	c #226C00",
". 	c #428702",
"+ 	c #5FA505",
"@ 	c #60A605",
"# 	c #5A9F04",
"$ 	c #2A7200",
"% 	c #236D00",
"& 	c #CE2C34",
"* 	c #DF183C",
"= 	c #D81737",
"- 	c #CE1634",
"; 	c #C21330",
"> 	c #964422",
", 	c #367B01",
"' 	c #5BA104",
") 	c #2E7500",
"! 	c #2D7500",
"~ 	c #3F8401",
"{ 	c #5EA404",
"] 	c #476C09",
"^ 	c #C41932",
"/ 	c #CF1534",
"( 	c #B4102B",
"_ 	c #BA122C",
": 	c #A43426",
"< 	c #317700",
"[ 	c #5AA004",
"} 	c #256E00",
"| 	c #5BA004",
"1 	c #206C00",
"2 	c #B5362E",
"3 	c #D31636",
"4 	c #E61A3D",
"5 	c #D61738",
"6 	c #CA1533",
"7 	c #86571E",
"8 	c #357B01",
"9 	c #599E04",
"0 	c #2C6C02",
"a 	c #C72334",
"b 	c #CD1534",
"c 	c #BC122C",
"d 	c #B9112D",
"e 	c #984522",
"f 	c #4E9203",
"g 	c #4A8F02",
"h 	c #448902",
"i 	c #589E04",
"j 	c #3E8301",
"k 	c #286C01",
"l 	c #BC332D",
"m 	c #D31635",
"n 	c #D21634",
"o 	c #D61636",
"p 	c #CD1535",
"q 	c #8D5C21",
"r 	c #529703",
"s 	c #5CA204",
"t 	c #6D7F41",
"u 	c #CF2E3C",
"v 	c #D11634",
"w 	c #C71431",
"x 	c #CF1633",
"y 	c #8B5120",
"z 	c #4B8F02",
"A 	c #458A02",
"B 	c #509503",
"C 	c #236C00",
"D 	c #3E8207",
"E 	c #2D7309",
"F 	c #2D6D04",
"G 	c #BA372D",
"H 	c #D11635",
"I 	c #CA1431",
"J 	c #D31632",
"K 	c #DD1837",
"L 	c #C74B33",
"M 	c #6EA113",
"N 	c #60A606",
"O 	c #62A70A",
"P 	c #5CA205",
"Q 	c #599D06",
"R 	c #B3653D",
"S 	c #DD1C3A",
"T 	c #CA1530",
"U 	c #C91531",
"V 	c #C4132F",
"W 	c #775819",
"X 	c #2B7106",
"Y 	c #5FA506",
"Z 	c #347A01",
"` 	c #277000",
" .	c #4B9002",
"..	c #377C01",
"+.	c #478C02",
"@.	c #569C03",
"#.	c #945121",
"$.	c #D51736",
"%.	c #DA1834",
"&.	c #D91736",
"*.	c #CD1533",
"=.	c #CE1536",
"-.	c #C84234",
";.	c #948924",
">.	c #5E950D",
",.	c #367901",
"'.	c #456A08",
").	c #A15027",
"!.	c #E21C3C",
"~.	c #E2193A",
"{.	c #CB1530",
"].	c #BD122C",
"^.	c #B7182C",
"/.	c #6C5E17",
"(.	c #428602",
"_.	c #458902",
":.	c #266F00",
"<.	c #5DA304",
"[.	c #246E00",
"}.	c #438802",
"|.	c #5DA305",
"1.	c #397F01",
"2.	c #2F7600",
"3.	c #589D04",
"4.	c #387D01",
"5.	c #5C6411",
"6.	c #D32039",
"7.	c #DB1738",
"8.	c #E01939",
"9.	c #E1193A",
"0.	c #D61736",
"a.	c #D71835",
"b.	c #BB322D",
"c.	c #BB342E",
"d.	c #D21F36",
"e.	c #DC1837",
"f.	c #E81A3D",
"g.	c #C3132C",
"h.	c #C91530",
"i.	c #9B3D23",
"j.	c #2D7400",
"k.	c #4A8E02",
"l.	c #287100",
"m.	c #3A7F01",
"n.	c #5EA405",
"o.	c #3C8101",
"p.	c #9F4728",
"q.	c #CC1534",
"r.	c #D51735",
"s.	c #D21633",
"t.	c #CF1531",
"u.	c #C91432",
"v.	c #D71737",
"w.	c #DC183A",
"x.	c #DD183A",
"y.	c #DA1737",
"z.	c #DD1839",
"A.	c #C0122E",
"B.	c #BD232C",
"C.	c #55650E",
"D.	c #498E02",
"E.	c #468B02",
"F.	c #307700",
"G.	c #488D02",
"H.	c #579C04",
"I.	c #307600",
"J.	c #579D03",
"K.	c #599F04",
"L.	c #539803",
"M.	c #276F00",
"N.	c #416908",
"O.	c #B4322F",
"P.	c #C91434",
"Q.	c #D01633",
"R.	c #CF1632",
"S.	c #CC1632",
"T.	c #D91737",
"U.	c #DB1836",
"V.	c #D41731",
"W.	c #C4142D",
"X.	c #CB152F",
"Y.	c #B5102B",
"Z.	c #B5142A",
"`.	c #8F7C22",
" +	c #539704",
".+	c #317801",
"++	c #408401",
"@+	c #549903",
"#+	c #4D9203",
"$+	c #5CA104",
"%+	c #418502",
"&+	c #4D9202",
"*+	c #367C01",
"=+	c #5E6914",
"-+	c #D63638",
";+	c #E0193A",
">+	c #E3193A",
",+	c #D51734",
"'+	c #D71735",
")+	c #D81735",
"!+	c #CA152D",
"~+	c #C2142C",
"{+	c #BD122D",
"]+	c #AF152B",
"^+	c #786D1B",
"/+	c #61A507",
"(+	c #287000",
"_+	c #397E01",
":+	c #4C9002",
"<+	c #297100",
"[+	c #216C00",
"}+	c #246D00",
"|+	c #4C9003",
"1+	c #529604",
"2+	c #2A7201",
"3+	c #539008",
"4+	c #C64431",
"5+	c #D41734",
"6+	c #D81835",
"7+	c #D41735",
"8+	c #CB1532",
"9+	c #CB1434",
"0+	c #D01634",
"a+	c #C0132D",
"b+	c #B1112B",
"c+	c #A64B27",
"d+	c #728B14",
"e+	c #347A00",
"f+	c #337901",
"g+	c #377D01",
"h+	c #4F9303",
"i+	c #7F9318",
"j+	c #CE172F",
"k+	c #D31630",
"l+	c #C6142E",
"m+	c #C2132D",
"n+	c #BE122D",
"o+	c #C32A30",
"p+	c #A55727",
"q+	c #82861B",
"r+	c #66A30C",
"s+	c #498D02",
"t+	c #5FA605",
"u+	c #2B7300",
"v+	c #2E7401",
"w+	c #306C03",
"x+	c #316B03",
"y+	c #446709",
"z+	c #6D9315",
"A+	c #769819",
"B+	c #6E9D12",
"C+	c #729913",
"D+	c #A56F26",
"E+	c #C4142C",
"F+	c #D31730",
"G+	c #CD152F",
"H+	c #DA1734",
"I+	c #CC1630",
"J+	c #695E15",
"K+	c #357B00",
"L+	c #427207",
"M+	c #785A1D",
"N+	c #8D5423",
"O+	c #A25F2A",
"P+	c #B0322D",
"Q+	c #B1282A",
"R+	c #BA1A2D",
"S+	c #BB1C33",
"T+	c #C41F38",
"U+	c #C61F38",
"V+	c #C81C33",
"W+	c #D41631",
"X+	c #D01537",
"Y+	c #D61737",
"Z+	c #E31939",
"`+	c #E01837",
" @	c #CD1532",
".@	c #BF2E32",
"+@	c #336B04",
"@@	c #488C02",
"#@	c #66A40E",
"$@	c #908825",
"%@	c #B45131",
"&@	c #C52337",
"*@	c #D5173C",
"=@	c #D5163A",
"-@	c #C21334",
";@	c #B8102F",
">@	c #C11231",
",@	c #C11230",
"'@	c #D11638",
")@	c #D1153A",
"!@	c #CB1435",
"~@	c #CA1437",
"{@	c #D01538",
"]@	c #D11539",
"^@	c #D21639",
"/@	c #D6163A",
"(@	c #B3382D",
"_@	c #2A6D01",
":@	c #5DA204",
"<@	c #317800",
"[@	c #62A508",
"}@	c #8A8921",
"|@	c #BE4637",
"1@	c #C91638",
"2@	c #CE163C",
"3@	c #D7173C",
"4@	c #D11637",
"5@	c #BE112F",
"6@	c #BB112D",
"7@	c #C1132F",
"8@	c #BC112F",
"9@	c #C31332",
"0@	c #C61430",
"a@	c #D01636",
"b@	c #D01638",
"c@	c #C61334",
"d@	c #CC1437",
"e@	c #D2153A",
"f@	c #D3153B",
"g@	c #D51639",
"h@	c #D41838",
"i@	c #934C26",
"j@	c #769619",
"k@	c #599D05",
"l@	c #418601",
"m@	c #478B02",
"n@	c #559A03",
"o@	c #5B9F05",
"p@	c #79961B",
"q@	c #AB6432",
"r@	c #D1193E",
"s@	c #D2163A",
"t@	c #CB1437",
"u@	c #CF1537",
"v@	c #D01637",
"w@	c #D41637",
"x@	c #D81739",
"y@	c #BF122F",
"z@	c #BE122B",
"A@	c #CC1433",
"B@	c #C91533",
"C@	c #C91433",
"D@	c #CE1535",
"E@	c #CE1533",
"F@	c #D71739",
"G@	c #D31639",
"H@	c #D61639",
"I@	c #D0153A",
"J@	c #C81339",
"K@	c #BE3337",
"L@	c #917028",
"M@	c #529009",
"N@	c #367C00",
"O@	c #357A01",
"P@	c #8A8625",
"Q@	c #BE2436",
"R@	c #CD143B",
"S@	c #D21538",
"T@	c #D01535",
"U@	c #C81431",
"V@	c #D11633",
"W@	c #D61735",
"X@	c #D01631",
"Y@	c #D01630",
"Z@	c #C8152C",
"`@	c #CA1532",
" #	c #CA1531",
".#	c #C8142F",
"+#	c #C2132F",
"@#	c #CC1532",
"##	c #D71638",
"$#	c #DA1839",
"%#	c #D61739",
"&#	c #D4163A",
"*#	c #C81438",
"=#	c #C61339",
"-#	c #C91A3C",
";#	c #AC5332",
">#	c #699415",
",#	c #519603",
"'#	c #2C7300",
")#	c #408501",
"!#	c #529603",
"~#	c #3B8001",
"{#	c #65A30C",
"]#	c #928127",
"^#	c #C6263A",
"/#	c #C71337",
"(#	c #C61433",
"_#	c #C91430",
":#	c #D41633",
"<#	c #CC152F",
"[#	c #D11632",
"}#	c #D61734",
"|#	c #D21630",
"1#	c #CB152C",
"2#	c #D41733",
"3#	c #C7142D",
"4#	c #C8142E",
"5#	c #CB152E",
"6#	c #C5142D",
"7#	c #CA152F",
"8#	c #D11630",
"9#	c #CF1630",
"0#	c #CA1434",
"a#	c #CA1432",
"b#	c #BF1230",
"c#	c #C31236",
"d#	c #C41237",
"e#	c #C3123A",
"f#	c #A83432",
"g#	c #50630F",
"h#	c #4F9403",
"i#	c #327801",
"j#	c #256D00",
"k#	c #926926",
"l#	c #D01B40",
"m#	c #C71433",
"n#	c #CA152E",
"o#	c #C7132F",
"p#	c #C2132C",
"q#	c #CE162E",
"r#	c #D11732",
"s#	c #CF162F",
"t#	c #D41632",
"u#	c #C2132B",
"v#	c #D61730",
"w#	c #D81733",
"x#	c #C9142F",
"y#	c #C0132B",
"z#	c #BC1229",
"A#	c #D3172F",
"B#	c #CB152D",
"C#	c #C0132A",
"D#	c #C4132E",
"E#	c #C71434",
"F#	c #BA1031",
"G#	c #C41337",
"H#	c #C31239",
"I#	c #A8222F",
"J#	c #697A18",
"K#	c #4D9004",
"L#	c #408502",
"M#	c #2C7400",
"N#	c #5EA305",
"O#	c #539703",
"P#	c #5CA105",
"Q#	c #865823",
"R#	c #D81B41",
"S#	c #CB1431",
"T#	c #C1132C",
"U#	c #C6142F",
"V#	c #C7142C",
"W#	c #D21731",
"X#	c #D51733",
"Y#	c #D01632",
"Z#	c #D61732",
"`#	c #D21631",
" $	c #CF152F",
".$	c #BC1227",
"+$	c #C6142A",
"@$	c #C7142F",
"#$	c #D21635",
"$$	c #CE1530",
"%$	c #C4132C",
"&$	c #B91128",
"*$	c #BF132C",
"=$	c #B00F29",
"-$	c #C0122F",
";$	c #B40F2D",
">$	c #B40E32",
",$	c #B81031",
"'$	c #BA1034",
")$	c #B12C34",
"!$	c #858522",
"~$	c #579D04",
"{$	c #569B04",
"]$	c #428103",
"^$	c #886722",
"/$	c #A25F2B",
"($	c #9B7E29",
"_$	c #6E9D14",
":$	c #488C03",
"<$	c #7F8F1F",
"[$	c #CD263D",
"}$	c #D91942",
"|$	c #C91435",
"1$	c #DA1838",
"2$	c #D11533",
"3$	c #CC1531",
"4$	c #C9152F",
"5$	c #C7142E",
"6$	c #D91834",
"7$	c #E02039",
"8$	c #E0333F",
"9$	c #E87365",
"0$	c #ED7A6D",
"a$	c #EE8B79",
"b$	c #EE907A",
"c$	c #E87C68",
"d$	c #E26253",
"e$	c #DE3339",
"f$	c #D71C30",
"g$	c #B20F2B",
"h$	c #BB112A",
"i$	c #B61129",
"j$	c #B9112B",
"k$	c #B81030",
"l$	c #B30F32",
"m$	c #BC1135",
"n$	c #B90F37",
"o$	c #A33531",
"p$	c #597012",
"q$	c #2F7500",
"r$	c #327800",
"s$	c #3D8101",
"t$	c #4E8908",
"u$	c #B0492E",
"v$	c #D43142",
"w$	c #DF4951",
"x$	c #D11B3B",
"y$	c #C03C31",
"z$	c #636E14",
"A$	c #3A6F07",
"B$	c #BD4037",
"C$	c #DD1843",
"D$	c #DF183D",
"E$	c #E0183B",
"F$	c #D81833",
"G$	c #DC1A32",
"H$	c #E63138",
"I$	c #F08471",
"J$	c #F8B8A2",
"K$	c #FAC5AD",
"L$	c #FCD7C0",
"M$	c #FDDAC3",
"N$	c #FDD9C2",
"O$	c #FCD9C1",
"P$	c #FCD8BF",
"Q$	c #FCD7BE",
"R$	c #FAC8AE",
"S$	c #F5A890",
"T$	c #EE8372",
"U$	c #DF4045",
"V$	c #D01832",
"W$	c #C2142D",
"X$	c #BB122A",
"Y$	c #B10F2A",
"Z$	c #BA112E",
"`$	c #C2142F",
" %	c #CD162F",
".%	c #BC1130",
"+%	c #AF0E2F",
"@%	c #AD0D30",
"#%	c #B30F34",
"$%	c #99382C",
"%%	c #366A06",
"&%	c #4D9103",
"*%	c #599D04",
"=%	c #9D8229",
"-%	c #DE5458",
";%	c #EDB8A8",
">%	c #F8C7B3",
",%	c #DB4752",
"'%	c #CA1536",
")%	c #C03130",
"!%	c #4A7009",
"~%	c #3A7C02",
"{%	c #9B562B",
"]%	c #E31944",
"^%	c #DF1842",
"/%	c #D61637",
"(%	c #CE162F",
"_%	c #D91833",
":%	c #E13237",
"<%	c #F18C79",
"[%	c #FAC4AC",
"}%	c #FDDDC8",
"|%	c #FDDEC9",
"1%	c #FDDFCA",
"2%	c #FDE0CD",
"3%	c #FDE1CE",
"4%	c #FDE0CC",
"5%	c #FDE0CB",
"6%	c #FDDFC9",
"7%	c #FDDDC6",
"8%	c #FDDAC2",
"9%	c #FCD7BF",
"0%	c #FACAB1",
"a%	c #EF9E87",
"b%	c #D85349",
"c%	c #CE1831",
"d%	c #C21331",
"e%	c #AD0D2E",
"f%	c #A1092C",
"g%	c #AF0D33",
"h%	c #AA0D34",
"i%	c #786121",
"j%	c #307601",
"k%	c #689C10",
"l%	c #CA3539",
"m%	c #E7A59A",
"n%	c #F3CDBB",
"o%	c #EFC2B0",
"p%	c #D85B5D",
"q%	c #CD1632",
"r%	c #D31734",
"s%	c #B64B29",
"t%	c #958225",
"u%	c #DB3041",
"v%	c #E01841",
"w%	c #DB183F",
"x%	c #D9173A",
"y%	c #CF162E",
"z%	c #D91A32",
"A%	c #EC6959",
"B%	c #F8B8A0",
"C%	c #FDDAC4",
"D%	c #FDDDCA",
"E%	c #FDE2D0",
"F%	c #FDE3D0",
"G%	c #FDE3D1",
"H%	c #FDE2CF",
"I%	c #FDE1CD",
"J%	c #FDDDC7",
"K%	c #FCD6BE",
"L%	c #FAC7AC",
"M%	c #E88E79",
"N%	c #DA4240",
"O%	c #CB1631",
"P%	c #C71430",
"Q%	c #BD1130",
"R%	c #B00E2B",
"S%	c #AB0E2A",
"T%	c #A90C2D",
"U%	c #970728",
"V%	c #A0092F",
"W%	c #9A1D30",
"X%	c #72981A",
"Y%	c #918723",
"Z%	c #D93A4A",
"`%	c #F6C9B7",
" &	c #FBD1BB",
".&	c #F4BA9F",
"+&	c #EC9085",
"@&	c #D21738",
"#&	c #DC193B",
"$&	c #E31942",
"%&	c #CD1439",
"&&	c #D4163C",
"*&	c #DB183A",
"=&	c #D11631",
"-&	c #DD1A35",
";&	c #EA6E5F",
">&	c #FBCAB1",
",&	c #FCDAC4",
"'&	c #FDE3D2",
")&	c #FDE4D2",
"!&	c #FDDECA",
"~&	c #FCD5BC",
"{&	c #FCD1B7",
"]&	c #F9C1A4",
"^&	c #E66A5E",
"/&	c #D01731",
"(&	c #C41330",
"_&	c #C11232",
":&	c #AC0E29",
"<&	c #B6102C",
"[&	c #B91132",
"}&	c #AB0D2F",
"|&	c #AB0C31",
"1&	c #92042C",
"2&	c #875829",
"3&	c #63A50B",
"4&	c #B47131",
"5&	c #E4726F",
"6&	c #FBD3C0",
"7&	c #FBCFB4",
"8&	c #FBC9AA",
"9&	c #F5BAA5",
"0&	c #DE273E",
"a&	c #D21730",
"b&	c #E2193D",
"c&	c #E01840",
"d&	c #CC1436",
"e&	c #CA1435",
"f&	c #D51635",
"g&	c #D61934",
"h&	c #F07E71",
"i&	c #FBD0B8",
"j&	c #FDDBC7",
"k&	c #FDDECB",
"l&	c #FDE0CE",
"m&	c #FDE2D1",
"n&	c #FDE5D3",
"o&	c #FDDFCC",
"p&	c #FDDAC5",
"q&	c #FCD5BD",
"r&	c #FBCEB2",
"s&	c #F9C0A1",
"t&	c #EF8C73",
"u&	c #CC2135",
"v&	c #AF0F2B",
"w&	c #BB112F",
"x&	c #A20A2A",
"y&	c #900526",
"z&	c #97072B",
"A&	c #8D032A",
"B&	c #8D092B",
"C&	c #74841F",
"D&	c #4E9303",
"E&	c #387E01",
"F&	c #61A607",
"G&	c #C75939",
"H&	c #EC9C8E",
"I&	c #FCD5BF",
"J&	c #FCD3BA",
"K&	c #FCCFB2",
"L&	c #F5B7A3",
"M&	c #D9203F",
"N&	c #D91734",
"O&	c #DB1839",
"P&	c #E71A40",
"Q&	c #E41941",
"R&	c #DA1739",
"S&	c #CE1631",
"T&	c #D41932",
"U&	c #EC6C62",
"V&	c #FBCEB7",
"W&	c #FDDCC8",
"X&	c #FDDFCD",
"Y&	c #FDE1CF",
"Z&	c #FDE2CE",
"`&	c #FBD3BC",
" *	c #FAC9AD",
".*	c #F9C0A0",
"+*	c #EA9176",
"@*	c #C72536",
"#*	c #BA1130",
"$*	c #C71332",
"%*	c #B71030",
"&*	c #A3092F",
"**	c #8C032A",
"=*	c #8B022B",
"-*	c #6A4D1E",
";*	c #3D8201",
">*	c #64A50B",
",*	c #C14338",
"'*	c #EAAC9C",
")*	c #FCD6BF",
"!*	c #F8CAB4",
"~*	c #E35358",
"{*	c #E3193C",
"]*	c #E5193F",
"^*	c #E0183D",
"/*	c #DE1839",
"(*	c #D31631",
"_*	c #E85250",
":*	c #FBCBB3",
"<*	c #FCDBC7",
"[*	c #FDDECC",
"}*	c #FDDFCB",
"|*	c #FDE0CA",
"1*	c #FDDCC9",
"2*	c #FCDAC5",
"3*	c #FBD7C2",
"4*	c #F9CFB9",
"5*	c #F9C8AD",
"6*	c #FABD9D",
"7*	c #E97562",
"8*	c #C81432",
"9*	c #B20F2E",
"0*	c #B30E30",
"a*	c #860225",
"b*	c #8A0328",
"c*	c #8C022C",
"d*	c #7F2B26",
"e*	c #256C01",
"f*	c #80971B",
"g*	c #D41F3D",
"h*	c #EFB2A0",
"i*	c #F9CFB8",
"j*	c #E1837A",
"k*	c #DB1837",
"l*	c #E61A3C",
"m*	c #E11B3F",
"n*	c #DE183C",
"o*	c #DA1835",
"p*	c #DE2A3B",
"q*	c #F6B29B",
"r*	c #FCDCCB",
"s*	c #FCDCCA",
"t*	c #FDDDC9",
"u*	c #FDDCC7",
"v*	c #FDDCC6",
"w*	c #FDDCC5",
"x*	c #FDDEC7",
"y*	c #FDDEC8",
"z*	c #FAD8C3",
"A*	c #F8D2BE",
"B*	c #F7CBB5",
"C*	c #F8C3A7",
"D*	c #F7AD8D",
"E*	c #D53D40",
"F*	c #BE122F",
"G*	c #B40F2E",
"H*	c #A20A29",
"I*	c #9C082B",
"J*	c #9A072D",
"K*	c #96052D",
"L*	c #8E1029",
"M*	c #306903",
"N*	c #7A9A1A",
"O*	c #D8233D",
"P*	c #F2B8A5",
"Q*	c #FCD8C0",
"R*	c #FDDBC4",
"S*	c #FCDAC3",
"T*	c #FAD0B9",
"U*	c #DE746D",
"V*	c #DA193B",
"W*	c #E4193F",
"X*	c #CC152E",
"Y*	c #DB1833",
"Z*	c #F18D7A",
"`*	c #FDDCCA",
" =	c #FCDDCB",
".=	c #FDDBC6",
"+=	c #FDDBC3",
"@=	c #FBDAC6",
"#=	c #FAD7C2",
"$=	c #F6D2BF",
"%=	c #F4CCBA",
"&=	c #F5C6AF",
"*=	c #F6BA9D",
"==	c #ED7867",
"-=	c #B70F31",
";=	c #B10E2D",
">=	c #AB0C2E",
",=	c #9C082D",
"'=	c #93042D",
")=	c #8C072B",
"!=	c #5B7D13",
"~=	c #72801A",
"{=	c #DE2A40",
"]=	c #F5C0AB",
"^=	c #FCD9C2",
"/=	c #FACFB7",
"(=	c #E8837C",
"_=	c #D81736",
":=	c #DC1839",
"<=	c #E0193F",
"[=	c #E51A3F",
"}=	c #E22D3C",
"|=	c #F9BFA7",
"1=	c #FDD9C0",
"2=	c #FDD8BD",
"3=	c #FDD9BE",
"4=	c #FDDAC1",
"5=	c #FDE0CF",
"6=	c #FCDCC8",
"7=	c #FAD9C4",
"8=	c #F9D5C1",
"9=	c #F7D1BD",
"0=	c #F4CDBA",
"a=	c #F3C8B4",
"b=	c #F4BFA6",
"c=	c #F3A487",
"d=	c #D7323F",
"e=	c #BB1231",
"f=	c #B50F31",
"g=	c #A30A2C",
"h=	c #A2092F",
"i=	c #91052B",
"j=	c #7D0226",
"k=	c #6B8B19",
"l=	c #418602",
"m=	c #686015",
"n=	c #D2273F",
"o=	c #F8CBB6",
"p=	c #E6867D",
"q=	c #E4193C",
"r=	c #E3193E",
"s=	c #D8173A",
"t=	c #F08978",
"u=	c #FCD8C2",
"v=	c #FDDAC0",
"w=	c #FDDBC2",
"x=	c #FCD6BA",
"y=	c #FCD6BB",
"z=	c #FDDBC5",
"A=	c #FBD8C2",
"B=	c #FAD4BF",
"C=	c #F8D1BC",
"D=	c #F6CFBB",
"E=	c #F2C9B5",
"F=	c #F1C1AB",
"G=	c #F3B497",
"H=	c #EA7261",
"I=	c #A00A29",
"J=	c #9D082A",
"K=	c #8D0426",
"L=	c #89022A",
"M=	c #85022A",
"N=	c #6C861B",
"O=	c #5E6312",
"P=	c #D52441",
"Q=	c #F8CEBA",
"R=	c #F9D0BA",
"S=	c #E99187",
"T=	c #E91A40",
"U=	c #DE183A",
"V=	c #D51636",
"W=	c #D0162D",
"X=	c #E73B42",
"Y=	c #FAC7AE",
"Z=	c #FCD7BB",
"`=	c #FDD8BC",
" -	c #FCD6B9",
".-	c #FCD4B8",
"+-	c #FCD4BA",
"@-	c #FCD4B9",
"#-	c #FCD7BD",
"$-	c #FCD8BE",
"%-	c #FCDCC9",
"&-	c #FCDBC8",
"*-	c #FBD5BE",
"=-	c #FAD3BC",
"--	c #F8D0B9",
";-	c #F6CEB8",
">-	c #F3CBB8",
",-	c #F0C8B7",
"'-	c #EFC3B0",
")-	c #F0B9A0",
"!-	c #F2967B",
"~-	c #BD1530",
"{-	c #A90C2B",
"]-	c #A90C2E",
"^-	c #A3092C",
"/-	c #8D032C",
"(-	c #7F0228",
"_-	c #6A8619",
":-	c #62880E",
"<-	c #D03043",
"[-	c #F8CCB7",
"}-	c #FDDDC5",
"|-	c #FDDCC4",
"1-	c #DF6465",
"2-	c #E71A41",
"3-	c #E1193B",
"4-	c #DF183B",
"5-	c #CC1530",
"6-	c #CF1631",
"7-	c #EE7A6B",
"8-	c #FCD4BD",
"9-	c #FDD9C1",
"0-	c #FCD4B7",
"a-	c #FCD3B2",
"b-	c #FBCDAB",
"c-	c #FAC099",
"d-	c #FABB94",
"e-	c #FABE98",
"f-	c #FBC7A7",
"g-	c #FCD3B8",
"h-	c #FBDAC7",
"i-	c #FAD5BF",
"j-	c #FBD2BB",
"k-	c #FAD1B9",
"l-	c #F9D0B9",
"m-	c #F3CBB6",
"n-	c #EFCAB8",
"o-	c #EDC5B3",
"p-	c #EEBCA5",
"q-	c #F3A88A",
"r-	c #CF3D3F",
"s-	c #9E092E",
"t-	c #89032C",
"u-	c #617918",
"v-	c #719915",
"w-	c #C3323E",
"x-	c #F6C7B2",
"y-	c #FACFB8",
"z-	c #E36664",
"A-	c #DD183B",
"B-	c #D71736",
"C-	c #D41831",
"D-	c #F5A18D",
"E-	c #FCD9C3",
"F-	c #FBCBA5",
"G-	c #FBCAA7",
"H-	c #FBD0B5",
"I-	c #F7D1B9",
"J-	c #F8CCB1",
"K-	c #F8B690",
"L-	c #F8A97A",
"M-	c #FAC19D",
"N-	c #FCD1B1",
"O-	c #FCD1B3",
"P-	c #FCD2B6",
"Q-	c #FAD6C1",
"R-	c #FAD3BD",
"S-	c #F9D1B9",
"T-	c #FAD1B8",
"U-	c #FAD2BA",
"V-	c #F9D2BB",
"W-	c #F8D0B8",
"X-	c #F6CDB7",
"Y-	c #F3CBB7",
"Z-	c #EFC9B8",
"`-	c #EDC5B4",
" ;	c #EDBFAB",
".;	c #F1AE94",
"+;	c #D84848",
"@;	c #B30F2F",
"#;	c #C41335",
"$;	c #A40A31",
"%;	c #90032C",
"&;	c #700224",
"*;	c #4D6612",
"=;	c #719B14",
"-;	c #C52F38",
";;	c #F5C0AC",
">;	c #FDDEC6",
",;	c #E88279",
"';	c #D7173A",
");	c #DB1838",
"!;	c #CF1530",
"~;	c #DD293A",
"{;	c #F8B9A3",
"];	c #FCD3B4",
"^;	c #FAC9A6",
"/;	c #E1C3B0",
"(;	c #9A8D8C",
"_;	c #5F5B66",
":;	c #6D6267",
"<;	c #B59B90",
"[;	c #F2B795",
"};	c #F9AE7F",
"|;	c #FBC8A2",
"1;	c #FCCFAE",
"2;	c #FCD1B4",
"3;	c #FBD8C3",
"4;	c #FAD1BA",
"5;	c #FACEB4",
"6;	c #FBCFB3",
"7;	c #FBCFB2",
"8;	c #FAD1B7",
"9;	c #F8CFB7",
"0;	c #F5CDB7",
"a;	c #F1C9B6",
"b;	c #EDC6B4",
"c;	c #E9C3B3",
"d;	c #E9BEAD",
"e;	c #EFB199",
"f;	c #E34D4E",
"g;	c #B5102E",
"h;	c #9B0927",
"i;	c #97062A",
"j;	c #850228",
"k;	c #680123",
"l;	c #608017",
"m;	c #759715",
"n;	c #A26F27",
"o;	c #947B26",
"p;	c #657D15",
"q;	c #4E8D07",
"r;	c #C64235",
"s;	c #F2B5A2",
"t;	c #FCD9C0",
"u;	c #FCD6BD",
"v;	c #E6837A",
"w;	c #BE122C",
"x;	c #C4142E",
"y;	c #E35A54",
"z;	c #FBCEB8",
"A;	c #FBD3B6",
"B;	c #DDB9A4",
"C;	c #6A6B72",
"D;	c #222831",
"E;	c #353530",
"F;	c #6F6C69",
"G;	c #58575F",
"H;	c #917E7C",
"I;	c #F5AC7F",
"J;	c #FBC69D",
"K;	c #FCCDAB",
"L;	c #FCD8C1",
"M;	c #FBD4BE",
"N;	c #F9CCB0",
"O;	c #F9C6A5",
"P;	c #FAC3A1",
"Q;	c #FAC5A4",
"R;	c #FBCAAA",
"S;	c #FACCB1",
"T;	c #F9CFB6",
"U;	c #F7CFB7",
"V;	c #F1CAB6",
"W;	c #EDC7B5",
"X;	c #E8C4B6",
"Y;	c #E4BDAD",
"Z;	c #EBAD96",
"`;	c #DD4D4B",
" >	c #A30A2A",
".>	c #930627",
"+>	c #8C0429",
"@>	c #6E0121",
"#>	c #5C011C",
"$>	c #5F311B",
"%>	c #8C4524",
"&>	c #BC1A30",
"*>	c #C61437",
"=>	c #AC2E36",
"->	c #5C5D16",
";>	c #AB3E2A",
">>	c #EC9788",
",>	c #FCD5BA",
"'>	c #E67D74",
")>	c #D31638",
"!>	c #C51430",
"~>	c #C51330",
"{>	c #EB8174",
"]>	c #FCD7C3",
"^>	c #F5CEB7",
"/>	c #B7A79A",
"(>	c #212F43",
"_>	c #423F33",
":>	c #060811",
"<>	c #6B696D",
"[>	c #74726E",
"}>	c #343E54",
"|>	c #D5A88D",
"1>	c #FBC7A0",
"2>	c #FCCEAD",
"3>	c #FCD5B9",
"4>	c #FACEB6",
"5>	c #F9C9AC",
"6>	c #F8BD9C",
"7>	c #F6AC84",
"8>	c #F8AB81",
"9>	c #F9B38B",
"0>	c #FABF9B",
"a>	c #FBC9A9",
"b>	c #F9D1B8",
"c>	c #F5CDB8",
"d>	c #EFC9B7",
"e>	c #EAC6B8",
"f>	c #E5BFB1",
"g>	c #EBAA95",
"h>	c #D33641",
"i>	c #B81032",
"j>	c #8E042A",
"k>	c #6C0121",
"l>	c #66011E",
"m>	c #6C011B",
"n>	c #A70B2B",
"o>	c #C41235",
"p>	c #A3273D",
"q>	c #A06167",
"r>	c #8A3A38",
"s>	c #306902",
"t>	c #5EA304",
"u>	c #944A28",
"v>	c #E0635F",
"w>	c #FCD4BC",
"x>	c #E37E73",
"y>	c #C3142C",
"z>	c #F1A08F",
"A>	c #FBD7C4",
"B>	c #F6D3BE",
"C>	c #ABA097",
"D>	c #222A35",
"E>	c #363328",
"F>	c #050710",
"G>	c #060911",
"H>	c #38352D",
"I>	c #283246",
"J>	c #D1AE98",
"K>	c #FBCAA5",
"L>	c #FCD3B6",
"M>	c #F9C9AD",
"N>	c #F29E76",
"O>	c #F0895A",
"P>	c #F29465",
"Q>	c #F49F71",
"R>	c #F6A87C",
"S>	c #FBD1B7",
"T>	c #F5CDB6",
"U>	c #EFC9B6",
"V>	c #EBC6B6",
"W>	c #E4BDAE",
"X>	c #E9A491",
"Y>	c #CB2A39",
"Z>	c #B8112B",
"`>	c #A50B2E",
" ,	c #840228",
".,	c #6D0121",
"+,	c #5D0119",
"@,	c #81041F",
"#,	c #B8112E",
"$,	c #A41032",
"%,	c #7B4554",
"&,	c #85646E",
"*,	c #8C4B54",
"=,	c #708C19",
"-,	c #7D581D",
";,	c #D7303F",
">,	c #F9C2AB",
",,	c #FCD7BC",
"',	c #E27A6B",
"),	c #D31D33",
"!,	c #F7B7A6",
"~,	c #FAD9C6",
"{,	c #FCDBC6",
"],	c #DAC1B1",
"^,	c #46454D",
"/,	c #363329",
"(,	c #27251E",
"_,	c #39362C",
":,	c #36322C",
"<,	c #4D4953",
"[,	c #EDC0A2",
"},	c #FBCFB1",
"|,	c #FBD2B9",
"1,	c #F8C5A8",
"2,	c #F4AF8B",
"3,	c #EB8A5E",
"4,	c #E9B093",
"5,	c #E6C5B1",
"6,	c #F0CEBA",
"7,	c #F5B591",
"8,	c #FAC8A8",
"9,	c #FBD0B4",
"0,	c #F6CCB4",
"a,	c #EEC7B4",
"b,	c #EAC6B7",
"c,	c #E2BAAC",
"d,	c #E6897D",
"e,	c #C21631",
"f,	c #850224",
"g,	c #8E0429",
"h,	c #69011F",
"i,	c #560113",
"j,	c #960823",
"k,	c #C41432",
"l,	c #B11031",
"m,	c #852438",
"n,	c #7A4A4D",
"o,	c #A47E7C",
"p,	c #915B61",
"q,	c #77821D",
"r,	c #D31F36",
"s,	c #F2AA98",
"t,	c #FAC6A6",
"u,	c #DA5152",
"v,	c #D62D39",
"w,	c #FAC7B5",
"x,	c #FCD8C4",
"y,	c #E9CAB9",
"z,	c #A78E81",
"A,	c #6F5D53",
"B,	c #51433E",
"C,	c #68565A",
"D,	c #CEA58E",
"E,	c #FBD6BF",
"F,	c #F8CBB3",
"G,	c #F5BEA1",
"H,	c #E79D79",
"I,	c #C09786",
"J,	c #5E5D6A",
"K,	c #2B3851",
"L,	c #424356",
"M,	c #958284",
"N,	c #EABEA9",
"O,	c #F1B796",
"P,	c #FBCBAB",
"Q,	c #F6C9B0",
"R,	c #F0C9B6",
"S,	c #E8C4B5",
"T,	c #E1B8AA",
"U,	c #DE756D",
"V,	c #B10E2C",
"W,	c #A60C2B",
"X,	c #A80C2E",
"Y,	c #6D0120",
"Z,	c #5B011A",
"`,	c #72021A",
" '	c #AD0D2A",
".'	c #AE0F2E",
"+'	c #8E2138",
"@'	c #754148",
"#'	c #996A61",
"$'	c #C19287",
"%'	c #9B595D",
"&'	c #808B1C",
"*'	c #266C00",
"='	c #AC3A29",
"-'	c #E2736D",
";'	c #FBD1BA",
">'	c #FCD1B6",
",'	c #F8B89B",
"''	c #D22341",
")'	c #CB1439",
"!'	c #D7353D",
"~'	c #FACDBB",
"{'	c #FBDAC8",
"]'	c #FCD3BF",
"^'	c #FBD0BA",
"/'	c #FBD0BB",
"('	c #FBD3BE",
"_'	c #FCD6C2",
":'	c #FCD9C4",
"<'	c #FAD4BD",
"['	c #F6CEB6",
"}'	c #F9CDB4",
"|'	c #FCD5BE",
"1'	c #FBD4BC",
"2'	c #F8CEB7",
"3'	c #F2C2AC",
"4'	c #EFB79C",
"5'	c #C69179",
"6'	c #4A5363",
"7'	c #34332F",
"8'	c #403E34",
"9'	c #918E8B",
"0'	c #5C5A5F",
"a'	c #7B707A",
"b'	c #E2AD96",
"c'	c #F1BF9F",
"d'	c #F7CBB1",
"e'	c #F1CCBA",
"f'	c #E9C6B8",
"g'	c #E5B4A5",
"h'	c #D84F52",
"i'	c #97062B",
"j'	c #740123",
"k'	c #560115",
"l'	c #880421",
"m'	c #AE0E2D",
"n'	c #841A33",
"o'	c #6E3F4B",
"p'	c #835755",
"q'	c #B98473",
"r'	c #CB9B8F",
"s'	c #964652",
"t'	c #6E9A13",
"u'	c #665913",
"v'	c #C02339",
"w'	c #F0B2A3",
"x'	c #FACEB5",
"y'	c #E78175",
"z'	c #C9153A",
"A'	c #B6112A",
"B'	c #DD3540",
"C'	c #FACEBC",
"D'	c #FBD8C7",
"E'	c #FBCFBB",
"F'	c #FAC9B1",
"G'	c #FACAB3",
"H'	c #FBCDB8",
"I'	c #FBD1BE",
"J'	c #FCDBC5",
"K'	c #FCD6C0",
"L'	c #FBD4BD",
"M'	c #FBDBC8",
"N'	c #F7D1BC",
"O'	c #F2C2AA",
"P'	c #EEBEA8",
"Q'	c #E8B6A0",
"R'	c #B18476",
"S'	c #232E3C",
"T'	c #37342C",
"U'	c #56555A",
"V'	c #58544D",
"W'	c #3B4358",
"X'	c #B2958D",
"Y'	c #DFAE93",
"Z'	c #F6CBB3",
"`'	c #EFCBB9",
" )	c #E9C5B7",
".)	c #E8A698",
"+)	c #C22337",
"@)	c #9F0828",
"#)	c #9A0729",
"$)	c #9B082C",
"%)	c #690119",
"&)	c #9B0729",
"*)	c #98072B",
"=)	c #793141",
"-)	c #74494E",
";)	c #A57365",
">)	c #D49C87",
",)	c #C0938B",
"')	c #7E332D",
"))	c #61A309",
"!)	c #347901",
"~)	c #396A06",
"{)	c #AF342B",
"])	c #D2474C",
"^)	c #ED9F96",
"/)	c #D13347",
"()	c #CF153B",
"_)	c #C91339",
":)	c #AE0E2B",
"<)	c #B8102B",
"[)	c #D02536",
"})	c #F6BDAC",
"|)	c #FAD5C5",
"1)	c #FBD1BF",
"2)	c #FACAB5",
"3)	c #FBD2BF",
"4)	c #FCDAC6",
"5)	c #FBDAC5",
"6)	c #FBD6C0",
"7)	c #FCDBC9",
"8)	c #F8D9C8",
"9)	c #EFC5B2",
"0)	c #E7B7A1",
"a)	c #E6B7A3",
"b)	c #CA9D8E",
"c)	c #32343C",
"d)	c #302D25",
"e)	c #070911",
"f)	c #3E3A31",
"g)	c #394153",
"h)	c #B09B95",
"i)	c #E3B6A0",
"j)	c #F5CDB9",
"k)	c #EFCBBB",
"l)	c #E8C3B6",
"m)	c #E99488",
"n)	c #BD1833",
"o)	c #9B0828",
"p)	c #A50B2D",
"q)	c #820227",
"r)	c #590118",
"s)	c #7C031E",
"t)	c #8B0427",
"u)	c #782A39",
"v)	c #70424D",
"w)	c #885D59",
"x)	c #BF8878",
"y)	c #DCA692",
"z)	c #A47070",
"A)	c #76521E",
"B)	c #4E670C",
"C)	c #A6392A",
"D)	c #B71034",
"E)	c #C21338",
"F)	c #C61337",
"G)	c #B91036",
"H)	c #C5142E",
"I)	c #DB2237",
"J)	c #F4B7A8",
"K)	c #F5D2C3",
"L)	c #F9D0BF",
"M)	c #FBCCB9",
"N)	c #FACBB7",
"O)	c #FBCDBA",
"P)	c #FBD0BE",
"Q)	c #FCD9C6",
"R)	c #FCD3BC",
"S)	c #F9CCB2",
"T)	c #F4C7B0",
"U)	c #E3B5A1",
"V)	c #E6BAA7",
"W)	c #E7BAA7",
"X)	c #B69082",
"Y)	c #51473F",
"Z)	c #3C382D",
"`)	c #484333",
" !	c #27272C",
".!	c #6F7177",
"+!	c #BCA296",
"@!	c #F5CFBA",
"#!	c #F3CDBA",
"$!	c #EFCCBC",
"%!	c #E7B8AA",
"&!	c #E26762",
"*!	c #9C0828",
"=!	c #A80C2B",
"-!	c #99072A",
";!	c #750223",
">!	c #67011C",
",!	c #810222",
"'!	c #772338",
")!	c #6E434E",
"!!	c #774D52",
"~!	c #9F7167",
"{!	c #D19884",
"]!	c #D9A594",
"^!	c #A54750",
"/!	c #797B1C",
"(!	c #336A03",
"_!	c #794D1F",
":!	c #913429",
"<!	c #AE1733",
"[!	c #BD1137",
"}!	c #C81436",
"|!	c #E21C39",
"1!	c #F1A698",
"2!	c #F1CFC0",
"3!	c #F5CDBE",
"4!	c #FACDBC",
"5!	c #FBCDBB",
"6!	c #FAD3C2",
"7!	c #F9D4C3",
"8!	c #F7D6C4",
"9!	c #F9DAC8",
"0!	c #FBDCCA",
"a!	c #FADCCA",
"b!	c #FADDCC",
"c!	c #FADCCB",
"d!	c #FCD9C5",
"e!	c #FCD2B9",
"f!	c #FACDB2",
"g!	c #F6C8B1",
"h!	c #EFC6B3",
"i!	c #EAC1AF",
"j!	c #E7BEAC",
"k!	c #EFC1AD",
"l!	c #E5BCA8",
"m!	c #B5978A",
"n!	c #83706C",
"o!	c #73686E",
"p!	c #BCACA2",
"q!	c #ECCAB6",
"r!	c #F1CAB9",
"s!	c #EDC8BA",
"t!	c #EAA697",
"u!	c #D32D3F",
"v!	c #AF0E2E",
"w!	c #AE0D30",
"x!	c #840327",
"y!	c #69011E",
"z!	c #650017",
"A!	c #74182E",
"B!	c #6E424D",
"C!	c #70464E",
"D!	c #865D5C",
"E!	c #B88474",
"F!	c #DDA58F",
"G!	c #BF8E84",
"H!	c #9B4830",
"I!	c #65A30D",
"J!	c #488B03",
"K!	c #7D851F",
"L!	c #AC1534",
"M!	c #B91039",
"N!	c #BC1132",
"O!	c #E8756F",
"P!	c #F1CBBD",
"Q!	c #F6CCBC",
"R!	c #F9D1C0",
"S!	c #F8D6C7",
"T!	c #F7D6C7",
"U!	c #F4D3C3",
"V!	c #F7D6C6",
"W!	c #F8DACA",
"X!	c #F8DACB",
"Y!	c #F8DBCC",
"Z!	c #F9DAC9",
"`!	c #FAD7C4",
" ~	c #F9D4BF",
".~	c #F7D3C0",
"+~	c #F3D2C2",
"@~	c #EDC8B9",
"#~	c #E8C0B0",
"$~	c #ECC2B0",
"%~	c #F4C7B2",
"&~	c #F6CCB7",
"*~	c #F7D0BC",
"=~	c #F5CEBB",
"-~	c #F2CBB9",
";~	c #F1C8B5",
">~	c #EEC8B8",
",~	c #E9C1B4",
"'~	c #EC867C",
")~	c #B6112F",
"!~	c #920527",
"~~	c #890326",
"{~	c #7D0224",
"]~	c #6A011F",
"^~	c #6D011B",
"/~	c #7A3040",
"(~	c #6E444E",
"_~	c #7B5355",
":~	c #A0736A",
"<~	c #CE9884",
"[~	c #DCA794",
"}~	c #945659",
"|~	c #7E7F23",
"1~	c #63A40A",
"2~	c #926A2C",
"3~	c #AE0E37",
"4~	c #C5133A",
"5~	c #D4313D",
"6~	c #EFB6A8",
"7~	c #ECC9BC",
"8~	c #EFCABC",
"9~	c #F5D1C1",
"0~	c #F6D3C3",
"a~	c #F7D7C8",
"b~	c #F4D3C5",
"c~	c #EBC1B2",
"d~	c #EBC0B0",
"e~	c #EEC5B7",
"f~	c #F3D0C1",
"g~	c #F9D8C7",
"h~	c #FAD3BE",
"i~	c #FBD0B6",
"j~	c #FBD3BB",
"k~	c #F6D0BE",
"l~	c #F3D1C2",
"m~	c #F0D0C1",
"n~	c #EDCBBC",
"o~	c #EBC7B8",
"p~	c #EBC5B5",
"q~	c #F2C7B4",
"r~	c #F5C7B3",
"s~	c #F6C7B3",
"t~	c #F5C6B3",
"u~	c #F2C6B4",
"v~	c #EEC6B6",
"w~	c #EBC8BA",
"x~	c #E6B3A8",
"y~	c #E55959",
"z~	c #A50B2C",
"A~	c #7B0122",
"B~	c #890327",
"C~	c #750122",
"D~	c #63021D",
"E~	c #752639",
"F~	c #6C424F",
"G~	c #744A50",
"H~	c #916863",
"I~	c #BD897A",
"J~	c #DBA591",
"K~	c #B68880",
"L~	c #751D29",
"M~	c #6C9C18",
"N~	c #4C9102",
"O~	c #6A9A16",
"P~	c #A92435",
"Q~	c #B10E34",
"R~	c #CF1634",
"S~	c #E88176",
"T~	c #EABDB0",
"U~	c #EAC6B9",
"V~	c #F3D0C2",
"W~	c #F6D4C4",
"X~	c #F7D7C7",
"Y~	c #9D7062",
"Z~	c #82554C",
"`~	c #A56A5D",
" {	c #CC8775",
".{	c #DD9886",
"+{	c #E9AC96",
"@{	c #F1B599",
"#{	c #F9C5A4",
"${	c #F5CCB9",
"%{	c #F0CCBF",
"&{	c #EECBBE",
"*{	c #ECC8BB",
"={	c #EBC7B9",
"-{	c #EDC9BA",
";{	c #F3CCBB",
">{	c #F5C8B5",
",{	c #F6C2AE",
"'{	c #F5BDAA",
"){	c #F3BFAE",
"!{	c #EEC2B2",
"~{	c #EAC4B5",
"{{	c #E3BAAF",
"]{	c #E69085",
"^{	c #D0243A",
"/{	c #870322",
"({	c #8A0425",
"_{	c #820225",
":{	c #5F011D",
"<{	c #651F32",
"[{	c #6B4250",
"}{	c #6E4650",
"|{	c #845C5A",
"1{	c #AC7C70",
"2{	c #D29A86",
"3{	c #D2A090",
"4{	c #8F424A",
"5{	c #777D23",
"6{	c #62A608",
"7{	c #337900",
"8{	c #61A606",
"9{	c #90782A",
"0{	c #AC0D33",
"a{	c #BD1236",
"b{	c #C91536",
"c{	c #D4353C",
"d{	c #ED9F8E",
"e{	c #E7BAAC",
"f{	c #E8C2B6",
"g{	c #F2D1C2",
"h{	c #F8CEB9",
"i{	c #DEAC90",
"j{	c #532C29",
"k{	c #400814",
"l{	c #531C1D",
"m{	c #7D372D",
"n{	c #984638",
"o{	c #A95240",
"p{	c #D28065",
"q{	c #E8A48B",
"r{	c #EDB29E",
"s{	c #ECBAAD",
"t{	c #E8B7AC",
"u{	c #E3B4A9",
"v{	c #E5BCAF",
"w{	c #ECC8BA",
"x{	c #F4CEBF",
"y{	c #F5CBBB",
"z{	c #F6C4B2",
"A{	c #F4BCA9",
"B{	c #F2B9A8",
"C{	c #EDB7A8",
"D{	c #E1B7AC",
"E{	c #D79D94",
"F{	c #DB4A4F",
"G{	c #A30B2B",
"H{	c #870326",
"I{	c #7D0222",
"J{	c #760224",
"K{	c #602537",
"L{	c #6A3F4C",
"M{	c #6B434E",
"N{	c #7A5254",
"O{	c #9D6F65",
"P{	c #C48E7C",
"Q{	c #D7A18E",
"R{	c #9F6A6A",
"S{	c #8A4F2C",
"T{	c #6D9B15",
"U{	c #A02330",
"V{	c #B91137",
"W{	c #C1132D",
"X{	c #DD3D45",
"Y{	c #E99C8C",
"Z{	c #E1AEA1",
"`{	c #EAC1B4",
" ]	c #F4D1C3",
".]	c #F7C5B5",
"+]	c #F29082",
"@]	c #DD474E",
"#]	c #D31B3B",
"$]	c #D2193B",
"%]	c #AF1432",
"&]	c #510615",
"*]	c #34050C",
"=]	c #531919",
"-]	c #852F2B",
";]	c #C84043",
">]	c #E55257",
",]	c #E75B61",
"']	c #E47876",
")]	c #E4A69B",
"!]	c #ECC1B4",
"~]	c #F0C8BA",
"{]	c #F2C5B6",
"]]	c #F3C4B3",
"^]	c #EDB5A4",
"/]	c #E2A496",
"(]	c #DA9B8F",
"_]	c #C5938D",
":]	c #CF6565",
"<]	c #BA1530",
"[]	c #8E0528",
"}]	c #6E011D",
"|]	c #770122",
"1]	c #660A24",
"2]	c #693B46",
"3]	c #6D434C",
"4]	c #764E53",
"5]	c #926862",
"6]	c #B88374",
"7]	c #D49B87",
"8]	c #B38179",
"9]	c #83192E",
"0]	c #738C19",
"a]	c #827E24",
"b]	c #A81532",
"c]	c #B5102F",
"d]	c #DE4D4B",
"e]	c #EA907E",
"f]	c #E4A395",
"g]	c #EC8C88",
"h]	c #E73D51",
"i]	c #E1193D",
"j]	c #E21939",
"k]	c #E71A3E",
"l]	c #C91738",
"m]	c #850E26",
"n]	c #34020A",
"o]	c #A8122F",
"p]	c #E81A40",
"q]	c #E41A3B",
"r]	c #E3193B",
"s]	c #E61A3E",
"t]	c #E74555",
"u]	c #E17373",
"v]	c #EBB6A9",
"w]	c #EEBDAD",
"x]	c #EBB9AB",
"y]	c #D79F94",
"z]	c #C78B83",
"A]	c #B77D76",
"B]	c #A96767",
"C]	c #BD2B3B",
"D]	c #70011F",
"E]	c #70011D",
"F]	c #68011F",
"G]	c #5C1A2A",
"H]	c #6D4149",
"I]	c #795154",
"J]	c #906761",
"K]	c #B38070",
"L]	c #CE9581",
"M]	c #C49083",
"N]	c #8B313D",
"O]	c #7F7A21",
"P]	c #65A20D",
"Q]	c #823C25",
"R]	c #A20A2E",
"S]	c #C61432",
"T]	c #AB0E25",
"U]	c #D54243",
"V]	c #E45559",
"W]	c #E71C41",
"X]	c #E51A3E",
"Y]	c #E01A39",
"Z]	c #E31938",
"`]	c #DA1837",
" ^	c #E2183B",
".^	c #DC183D",
"+^	c #B01733",
"@^	c #E91B3F",
"#^	c #EB1A3E",
"$^	c #E71A3D",
"%^	c #E4193B",
"&^	c #CA163B",
"*^	c #D97170",
"=^	c #E8AFA2",
"-^	c #D5A39A",
";^	c #BA8782",
">^	c #A6716F",
",^	c #915B5C",
"'^	c #B53842",
")^	c #AC0D2E",
"!^	c #7D0122",
"~^	c #7C0122",
"{^	c #790222",
"]^	c #5A0621",
"^^	c #652932",
"/^	c #784D4E",
"(^	c #8F6762",
"_^	c #B27F71",
":^	c #CC947F",
"<^	c #C59082",
"[^	c #93484E",
"}^	c #96612B",
"|^	c #64A40B",
"1^	c #509403",
"2^	c #63A509",
"3^	c #729D18",
"4^	c #927F24",
"5^	c #A15A27",
"6^	c #7E101F",
"7^	c #860424",
"8^	c #9C0829",
"9^	c #96081F",
"0^	c #BE132F",
"a^	c #D31B3D",
"b^	c #DA193D",
"c^	c #E2193B",
"d^	c #E11939",
"e^	c #E71A3C",
"f^	c #DC1835",
"g^	c #DF1836",
"h^	c #DF1838",
"i^	c #D81738",
"j^	c #E91A3D",
"k^	c #EA1B3B",
"l^	c #DB1834",
"m^	c #E01937",
"n^	c #CD1537",
"o^	c #C2183B",
"p^	c #C66D6D",
"q^	c #B98883",
"r^	c #9A6C6C",
"s^	c #87555A",
"t^	c #A93A45",
"u^	c #BC132E",
"v^	c #820423",
"w^	c #7C0121",
"x^	c #6F011E",
"y^	c #754445",
"z^	c #8A5F5A",
"A^	c #A5786F",
"B^	c #C28F80",
"C^	c #BF8B7F",
"D^	c #96434A",
"E^	c #815B22",
"F^	c #65A40D",
"G^	c #4C9103",
"H^	c #928626",
"I^	c #C53336",
"J^	c #D01838",
"K^	c #C31334",
"L^	c #A20A27",
"M^	c #680115",
"N^	c #7B031F",
"O^	c #A40B29",
"P^	c #C91D3E",
"Q^	c #D3163B",
"R^	c #E0183A",
"S^	c #DE1837",
"T^	c #DA1836",
"U^	c #D91836",
"V^	c #DF1936",
"W^	c #E71A3A",
"X^	c #DF1839",
"Y^	c #E71A3B",
"Z^	c #E01838",
"`^	c #D91738",
" /	c #D51637",
"./	c #C21335",
"+/	c #B3223D",
"@/	c #895960",
"#/	c #815159",
"$/	c #9F313F",
"%/	c #AD112D",
"&/	c #72021C",
"*/	c #6E011C",
"=/	c #730120",
"-/	c #5A0118",
";/	c #540114",
">/	c #74021F",
",/	c #854A4B",
"'/	c #9A706A",
")/	c #AF827B",
"!/	c #AC7D79",
"~/	c #903D46",
"{/	c #895727",
"]/	c #669F0F",
"^/	c #317701",
"//	c #4B8F03",
"(/	c #66A30E",
"_/	c #B44F32",
":/	c #CA1838",
"</	c #950720",
"[/	c #610111",
"}/	c #6C021B",
"|/	c #D0163D",
"1/	c #E2193C",
"2/	c #DD1835",
"3/	c #D91835",
"4/	c #DF1937",
"5/	c #DD1838",
"6/	c #DA1735",
"7/	c #D61733",
"8/	c #D41634",
"9/	c #D21636",
"0/	c #D61638",
"a/	c #BD1134",
"b/	c #AB0D33",
"c/	c #852B3D",
"d/	c #9A1C30",
"e/	c #A50C2A",
"f/	c #7F0420",
"g/	c #7D0320",
"h/	c #520116",
"i/	c #4E0112",
"j/	c #5C0013",
"k/	c #71011C",
"l/	c #7A2E38",
"m/	c #975E5F",
"n/	c #975256",
"o/	c #86162E",
"p/	c #876126",
"q/	c #669E11",
"r/	c #2B7200",
"s/	c #5D7D14",
"t/	c #B75136",
"u/	c #CB1739",
"v/	c #CB1533",
"w/	c #D51732",
"x/	c #D71733",
"y/	c #BA1229",
"z/	c #8D051D",
"A/	c #A80E32",
"B/	c #CE1537",
"C/	c #D91837",
"D/	c #DC1838",
"E/	c #DA1738",
"F/	c #D71734",
"G/	c #D31733",
"H/	c #DE1834",
"I/	c #CF1533",
"J/	c #BE122E",
"K/	c #B00E2F",
"L/	c #A80B31",
"M/	c #8A032A",
"N/	c #7A021D",
"O/	c #6F011A",
"P/	c #830321",
"Q/	c #760220",
"R/	c #580117",
"S/	c #4D0E13",
"T/	c #45200E",
"U/	c #560312",
"V/	c #610017",
"W/	c #66011B",
"X/	c #760925",
"Y/	c #703224",
"Z/	c #738A1C",
"`/	c #63A309",
" (	c #57900C",
".(	c #B4572F",
"+(	c #CA1535",
"@(	c #C6152E",
"#(	c #C9162C",
"$(	c #CD162D",
"%(	c #CD162C",
"&(	c #C31428",
"*(	c #CA162A",
"=(	c #B00F2A",
"-(	c #D31633",
";(	c #D81834",
">(	c #CD1631",
",(	c #D31634",
"'(	c #A70C2B",
")(	c #A80B2F",
"!(	c #6F0122",
"~(	c #5D0114",
"{(	c #77021C",
"](	c #72011C",
"^(	c #4A0B13",
"/(	c #326007",
"((	c #276A01",
"_(	c #335D07",
":(	c #4F720B",
"<(	c #58840D",
"[(	c #56870E",
"}(	c #5E9E0A",
"|(	c #A07628",
"1(	c #CC1B30",
"2(	c #C6152D",
"3(	c #D0172E",
"4(	c #CE162D",
"5(	c #C51529",
"6(	c #BD1324",
"7(	c #C01325",
"8(	c #C31526",
"9(	c #C8152B",
"0(	c #CD153B",
"a(	c #D71939",
"b(	c #D21734",
"c(	c #D21733",
"d(	c #D31732",
"e(	c #D41636",
"f(	c #C61431",
"g(	c #C7152E",
"h(	c #9D082F",
"i(	c #6C0020",
"j(	c #610116",
"k(	c #5D0115",
"l(	c #520112",
"m(	c #3F000B",
"n(	c #3A040C",
"o(	c #38510C",
"p(	c #569B03",
"q(	c #916826",
"r(	c #CB1F33",
"s(	c #CB162F",
"t(	c #C8152A",
"u(	c #D2172D",
"v(	c #C41425",
"w(	c #C21424",
"x(	c #C01425",
"y(	c #B51220",
"z(	c #B81223",
"A(	c #D2163B",
"B(	c #CC1533",
"C(	c #CE1633",
"D(	c #C51431",
"E(	c #BF132D",
"F(	c #C3132F",
"G(	c #BC112E",
"H(	c #C01331",
"I(	c #B7112D",
"J(	c #C81430",
"K(	c #CD1531",
"L(	c #BB122D",
"M(	c #C01230",
"N(	c #A60B29",
"O(	c #A10A2D",
"P(	c #8A0229",
"Q(	c #64011E",
"R(	c #48000D",
"S(	c #41000A",
"T(	c #3D0009",
"U(	c #4C000E",
"V(	c #5C0114",
"W(	c #6A121C",
"X(	c #475D0E",
"Y(	c #6C6519",
"Z(	c #C12331",
"`(	c #C5152B",
" _	c #C61529",
"._	c #C71526",
"+_	c #BD1323",
"@_	c #C61526",
"#_	c #C01423",
"$_	c #AE101D",
"%_	c #C91431",
"&_	c #BF122D",
"*_	c #C4142F",
"=_	c #B8112D",
"-_	c #C51332",
";_	c #B20E2E",
">_	c #C51331",
",_	c #BA112C",
"'_	c #B7102C",
")_	c #B9112E",
"!_	c #980728",
"~_	c #9A072B",
"{_	c #870227",
"]_	c #3A0008",
"^_	c #45000B",
"/_	c #620012",
"(_	c #78011A",
"__	c #8B051F",
":_	c #900525",
"<_	c #921D29",
"[_	c #5D5A19",
"}_	c #50660E",
"|_	c #BF3031",
"1_	c #C9162B",
"2_	c #CB162A",
"3_	c #D0172C",
"4_	c #C71528",
"5_	c #B91223",
"6_	c #B81221",
"7_	c #AA0F1C",
"8_	c #BC122E",
"9_	c #CC1537",
"0_	c #CE1532",
"a_	c #B20F2A",
"b_	c #AA0D29",
"c_	c #9E0929",
"d_	c #AF0F29",
"e_	c #B8102D",
"f_	c #AC0D29",
"g_	c #AB0D2A",
"h_	c #A70B2C",
"i_	c #A0092A",
"j_	c #9D092B",
"k_	c #7E0125",
"l_	c #550116",
"m_	c #4E000D",
"n_	c #6E0016",
"o_	c #8D0420",
"p_	c #A00A26",
"q_	c #AB0E28",
"r_	c #BB102E",
"s_	c #B40F32",
"t_	c #A81D31",
"u_	c #717D1D",
"v_	c #586714",
"w_	c #B92D2D",
"x_	c #D4172E",
"y_	c #C11427",
"z_	c #B6121E",
"A_	c #C21429",
"B_	c #C51336",
"C_	c #CE1531",
"D_	c #C41331",
"E_	c #BF1130",
"F_	c #B8102E",
"G_	c #BD112F",
"H_	c #AB0D2B",
"I_	c #B60F2F",
"J_	c #8D0625",
"K_	c #9E0A2A",
"L_	c #B00E2C",
"M_	c #B10E2B",
"N_	c #B00F2F",
"O_	c #960529",
"P_	c #760122",
"Q_	c #79021F",
"R_	c #7E0219",
"S_	c #9A0821",
"T_	c #A60C25",
"U_	c #B41029",
"V_	c #BE1131",
"W_	c #C31237",
"X_	c #B33A31",
"Y_	c #719B16",
"Z_	c #B8352F",
"`_	c #C3142E",
" :	c #BC132A",
".:	c #BA1325",
"+:	c #B71221",
"@:	c #B1111E",
"#:	c #B31125",
"$:	c #C51432",
"%:	c #CE1539",
"&:	c #CD1436",
"*:	c #CE1436",
"=:	c #D51731",
"-:	c #A20A28",
";:	c #990728",
">:	c #990727",
",:	c #AD0D2D",
"':	c #970628",
"):	c #6B011B",
"!:	c #8E0621",
"~:	c #A00A28",
"{:	c #AC0D2B",
"]:	c #A10928",
"^:	c #A10A28",
"/:	c #B10F2D",
"(:	c #A60B2D",
"_:	c #8F0526",
"::	c #B91032",
"<:	c #A40A32",
"[:	c #7E021B",
"}:	c #920620",
"|:	c #A30C23",
"1:	c #B00F27",
"2:	c #BD1131",
"3:	c #BC1034",
"4:	c #AE4A31",
"5:	c #6A9D11",
"                        . + @ @ @ @ @ @ @ @ @ @ # $             % & * = - ; > , ' ) ! ~ { ] ^ / ( _ :             < [ @ @ @ @ @ ",
"                      } ' @ @ @ @ @ @ @ @ @ @ | !               1 2 3 4 5 6 7 8 @ + + @ 9 0 a b c d e             f @ @ @ @ @ @ ",
"                        . g h i @ @ @ @ @ @ @ j                 k l m n o p q r @ @ @ @ s t u v w x y             8 z A B @ @ @ ",
"          C                 % D @ @ @ @ @ @ @ E                 F G H I J K L M N O + P Q R S T U V W                   X Y N @ ",
"Z                   `  ...    j @ @ @ i +.@.@ $                   #.$.%.&.*.=.-.;.>.,.'.).!.~.{.].^./.          (._.C   :.{ @ @ ",
"<.[.                }.@ |.1.2.3.@ @ @ . [.h @ 4.                  5.6.7.8.9.9.0.a.b.c.d.e.f.= g.h.i.C         j.+ @ k.l. .@ @ @ ",
"B   +.m.            8 n.@ @ @ @ @ @ @ |.' @ @ o.                  C p.q.r.s.t.u.v.v.w.x.y.z.].A.B.C.          } @.@ @ @ @ @ @ @ ",
"j.  D.+ E.$ F.G.H.j   I.J.@ @ @ @ @ @ @ s K.L.M.                    N.O.P.Q.R.S.T.U.V.W.X.Y.( Z.`. +.+$ ++@+#+% :. .@ @ @ @ @ @ ",
"`   B @ @ + @ $+@ H.    %+@ @ @ @ @ @ + I.%                     &+*+  =+-+;+>+,+'+x )+!+~+{+]+^+/+@ @ + + s @ )   (+{ @ @ @ @ @ ",
"| i @ @ @ @ @ _+:+$+<+M.@+@ @ @ @ @ @ P [+  }+k.|+}+          1.@ 1+2+3+4+5+6+7+8+9+0+a+b+c+d++ @ @ @ @ #+4.@ o.  }.@ @ @ @ @ @ ",
"@ @ @ @ @ @ @ e+}.@ <.<.@ @ @ @ @ @ @ + f+  G.@ @ g+          h+@ N n.i+j+k+g.l+m+n+o+p+q+r+@ @ @ @ @ @ s+I.n.+ ' @ @ @ @ @ @ @ ",
"@ @ @ @ @ @ @ + @ @ @ @ @ @ @ @ @ @ @ @ s L.t+@ ' u+  v+w+x+y+z+A+B+C+D+E+F+G+H+v I+J+K+@ @ @ @ @ @ @ @ @ + @ @ @ @ @ @ @ @ @ @ ",
"@ @ @ @ @ @ @ @ @ @ @ @ @ @ @ @ @ @ @ @ @ @ @ 3.L+M+N+O+P+Q+R+S+T+U+V+W+X+Y+Z+`+ @.@+@@@@ @ @ @ @ @ @ @ @ @ @ @ @ @ @ @ @ @ @ @ ",
"<.@ @ @ @ @ @ @ @ @ @ @ @ @ @ @ @ @ @ @ @ #@$@%@&@*@=@-@;@>@9+,@P.'@)@!@~@{@]@^@/@(@_@K.@ :@@ @ @ @ @ @ @ @ @ @ @ @ @ @ @ @ @ @ ",
"<@@ B ~ h+@ @ @ @ @ @ @ @ @ @ @ @ @ @ [@}@|@1@2@3@4@^@4@5@6@7@8@9@0@a@b@c@d@e@f@g@h@i@j@k@% H.K.l@m@:@@ @ @ @ @ @ @ @ @ @ @ @ @ ",
"n@[ [.    |+@ @ @ @ @ @ + 3.+ n@` o@p@q@r@s@t@u@v@=.w@x@y@z@A@B@x C@D@E@F@G@H@X+g@I@J@K@L@M@+ 4.    *++ @ @ @ @ @ @ # $+@ 2.z @ ",
"@ s+      N@@ @ @ @ @ @ ~   _.s O@P@Q@R@S@T@U@V@0.W@X@Y@Z@V `@E@ #.#+#@#x@x@##$#%#&#*#=#-#;#>#}     % # @ @ @ @ @ ,#}+'#@ )#!#@ ",
"(+C       A @ @ @ @ @ + )   ~#{#]#^#/#(#_#:#s.<#[#}#|#1#2#3#4#X@5#6#7#8#9# @0#a#u.b#~@c#d#e#f#g#    ) n.@ @ @ @ @ _.  % s + n.3.",
"  <+g  .h#+ @ @ @ @ @ @ H.i#j#k#l#I@m#n#o#_#p#q#r#s#t#u#v#w#X.x#y#z#9#A#8#B#C#u#D#; E#b#F#G#H#I#J#K#| @ @ @ @ @ @ <.L#  1.A M#  ",
"  .+N#@ @ + @ @ @ + O#$+@ P#Q#R#=#p S#3#_#T#U#u#V#W#X#Y#Z#`# $!+.$+$@$X@#$$$%$u#&$*$=$-$;$>$,$'$)$!$@ + @ @ @ ~${$@ @ _+        ",
"    u+j ]$^$/$($_$:$  ) # <$[$}$|$1$2$<#R.3$4$5$!+6$7$8$9$0$a$b$c$d$e$f$X.h.8+7@g$h$i$j$6 k$l$m$n$o$p$q$B @ H.} }+h#<.r$        ",
"    s$t$u$v$w$x$y$z$    A$B$C$D$E$3 #$|#9#v F$G$H$I$J$K$L$M$N$O$P$Q$R$S$T$U$V$W$X$Y$Z$`$ %n+.%+%@%#%$%%%m@@ &%    % l.          ",
"    *%=%-%;%>%,%'%)%!%~%{%]%^%/%a@(%8+E@W@_%:%<%[%M$}%|%1%2%3%4%5%6%7%8%9%0%a%b%c%0@y@R. %_#d%e%f%g%h%i%|.@ 9 F.8 j%            ",
"    k%l%m%n%o%p%q%r%s%t%u%v%w%x% @y%4$Q.z%A%B%C%D%4%3%E%E%F%G%F%E%H%I%1%J%M$K%L%M%N%O%P%+#Q%R%S%T%U%V%W%X%@ @ @ @ :@%           ",
"  ..Y%Z%`% &.&+&@&X.T #&$&%&&&*&X@=&'+-&;&>&,&D%2%E%'&)&G%)&'&G%E%E%H%I%2%!&C%~&{&]&^&/&(&_&:&<&[&}&|&1&2&3&@ @ @ :+            ",
",#{ 4&5&6&7&8&9&0&a&r%b&c&d&e&f&g.G+g&h&i&j&k&l&m&E%)&)&G%n&G%G%G%E%H%3%3%o&D%p&q&r&s&t&u&v&w& #x&y&z&A&B&C&9 D&E&C             ",
"@ F&G&H&I&J&K&L&M&N&O&P&Q&R&b S&5$T&U&V&W&X&l&Y&Y&3%Z&H%H%F%G%G%E%E%E%Y&Y&2%k&W&,&`& *.*+*@*#*$*+%%*&***=*-*      l.o.;*<+      ",
"@ >*,*'*)*Q$q&!*~*v.{*]*^*/*7#R.(*_*:*<*k&[*2%I%}*|%6%|*|*4%Z&E%m&E%E%3%2%2%D%1*2*3*4*5*6*7*8*;$9*0*a*b*c*d*e*  _+s @ @ :@m.  % ",
"@ f*g*h*L$8%C%i*j*k*l*m*n*T.x o*p*q*2*r*s*t*t*}%u*v*w*x*6%y*}*3%G%m&Y&Y&2%k&[*D%<*z*A*B*C*D*E*F*G*H*I*J*K*L*M*u+s @ @ @ r (+  _+",
"@ N*O*P*Q*R*S*T*U*$#V*W*^*X*X@Y*Z*I&`* =W&.=R*8%+=+=R*R*v*J%J%o&Y&E%E%3%X&k&k&1*@=#=$=%=&=*===e&-=;=>=,='=)=!=3.@ @ @ @ ~     % ",
"# ~={=]=9%R*^=/=(=_=:=<=[=U#3$}=|=j&[*1*+=8%1=2=3=1=4=8%+=v*v*|%o&l&5=l&[*D%1*6=7=8=9=0=a=b=c=d=e=f=g=h=i=j=k=@ @ @ @ @ ' l=e+_.",
"j m=n=o=M$R*L$i*p=q=r=s== H+6$t=u= =k&R*1=v=w=w=3=x=y=Q$1=R*}%}%k&o&o&[*D%W&z=A=B=C=D=0=E=F=G=H=d%I=J=K=L=M=N=@ @ @ @ @ @ @ @ @ ",
"g O=P=Q=w*v*Q*R=S=b&T=U=V=W=X=Y=.=[*u*1=Z=`= -.-+-x=Z=@-#-$-R*v*k&k&D%%-&-2*u=*-=---;->-,-'-)-!-~-{-]-^-/-(-_-@ @ @ @ @ @ @ @ @ ",
"@ :-<-[-}-|-^=R=1-2-3-4-5-6-7-8-W&W&9-0-a-b-c-d-e-f-.-.-g-@-Q*v*!&1*1*h-#=i-j-k-k-l-;-m-n-o-p-q-r-{-+%s-**t-u-@ @ @ @ @ @ @ @ @ ",
"3.v-w-x-x*|-Q*y-z-*&A-B-(%C-D-E-1*z=y=F-G-H-I-J-K-L-M-N-O-P-9%z=u*<*@=Q-R-S-T-U-V-W-X-Y-Z-`- ;.;+;@;#;$;%;&;*;@ @ @ @ { )#_+n@@ ",
"8 =;-;;;>;w*O$q&,;';F@);!;~;{;j&t*^=];^;/;(;_;:;<;[;};|;1;2;q&u=3;3*i-4;5;6;7;H-8;9;0;a;b;c;d;e;f;g;h;i;j;k;l;/+m;n;o;p;    (+s ",
"  q;r;s;w*|-t;u;v;F@P.w;x;y;z;t*k&+=A;B;C;D;E;F;G;H;I;J;K;2;Q$L;L;M;/=N;O;P;Q;R;S;T;U;V;W;X;Y;Z;`; >.>+>@>#>$>%>&>#;*>=>->    n@",
"    ;>>>M$8%$-,>'>)>!>~>l+{>]>t*1%y*^>/>(>_>:><>[>}>|>1>2>3>4=M$)*4>5>6>7>8>9>0>a>H-b>c>d>e>f>g>h>G*i>j>k>l>m>n>b o>p>q>r>s>Z t>",
"C C u>v>w>P$Q$3>x>^@0+c y>z>A>j&|%y*B>C>D>E>F>G>H>I>J>K>L>+=J%|-q&M>6>N>O>P>Q>R>0>7;S>T>U>V>W>X>Y>Z>`> ,.,+,@,#,E#$,%,&,*,=,+ @ ",
"    -,;,>,$-,,O-',=.k*t.),!,~,{,}%|%|%],^,/,(,_,:,<,[,},8%y*|%R*|,1,2,3,4,5,6,N;7,8,9,0,a,b,c,d,e,x&f,g,h,i,j,k,l,m,n,o,p,q,@ @ ",
"    C.r,s,u;+-t,u,/#5 !>v,w,~,x,2*2*W&W&y,z,A,B,C,D,6;q&,&z=z=E,F,G,H,I,J,K,L,M,N,O,P,Q,R,S,T,U,V,W,X,Y,Z,`, '.'+'@'#'$'%'&'@ @ ",
"    *'='-';'>',''')'*.c !'~'{']'^'/'('_':'E-<'['}'i&j-|')*)*1'2'3'4'5'6'7'8'9'0'a'b'c'd'e'f'g'h'R%T%i'j'k'l'm'n'o'p'q'r's't'@ @ ",
"      u'v'w'x'y'z'G#d A'B'C'D'E'F'G'H'I']>J'z=3;i-E,K'L'@=M'N'O'P'Q'R'S'T':>U'V'W'X'Y'Z'`' ).)+)@)#)$)@>%)&)*)=)-);)>),)')))N @ ",
"!)    ~){)])^)/)()_):)<)[)})|)1)2)G'H'3)4)t*<*5)<*z=4)6)E-7)8)9)0)a)b)c)d)F>e)f)g)h)i)j)k)l)m)n)o)p)q)r)s)t)u)v)w)x)y)z)A)n.@ @ ",
"<.[.    B)C)D)E)F)G).%H)I)J)K)L)M)N)O)P)Q)&-{'%-D%6=D%u=R){&S)T)U)V)W)X)Y)Z)`) !.!+!@!#!$!%!&!*!=!-!;!>!,!'!)!!!~!{!]!^!/!@ @ @ ",
"B   E._+  (!_!:!<!g%[!}!|!1!2!3!4!~'5!6!7!8!9!0!a!b!c!d!K'e!f!g!h!i!j!k!l!m!n!o!p!q!A*r!s!t!u!v!w!x!y!z!A!B!C!D!E!F!G!H!I!@ @ @ ",
")   D.+ A $ 2.J!K!L!M!N!7+O!P!2!Q!R!7!S!T!U!V!W!X!Y!Z!`!L'*- ~.~+~@~#~$~%~&~*~=~-~-~;~>~,~'~)~!~~~{~]~^~/~(~_~:~<~[~}~|~@ @ @ @ ",
":.  h#@ @ + + s 1~2~3~4~y@5~6~7~8~9~0~a~b~c~d~e~f~a~g~h~i~j~k~l~m~n~o~p~q~r~s~t~u~v~v~w~x~y~z~A~B~C~D~E~F~G~H~I~J~K~L~M~@ @ @ @ ",
"[ 3.@ @ @ @ @ 1.N~O~P~Q~w&R~S~T~U~V~W~X~0=Y~Z~`~ {.{+{@{#{x'${%{&{*{={-{;{>{,{'{){!{~{{{]{^{/{({_{:{<{[{}{|{1{2{3{4{5{6{@ @ @ @ ",
"@ @ @ @ @ @ @ 7{. 8{9{0{a{b{c{d{e{f{g{8)h{i{j{k{l{m{n{o{p{q{r{s{t{u{v{w{x{y{z{A{B{C{D{E{F{G{H{I{J{K{L{M{N{O{P{Q{R{S{1~@ @ @ @ @ ",
"@ @ @ @ @ @ @ + @ @ T{U{V{Q%W{X{Y{Z{`{ ].]+]@]#]$]%]&]*]=]-];]>],]'])]!]~]{]]]^]/](]_]:]<][]}]|]1]2]3]4]5]6]7]8]9]0]@ @ @ @ @ @ ",
"@ @ @ @ @ @ @ @ @ @ N a]b]c]S&V@d]e]f]g]h]i]E$q=j]k]l]m]n]o]p]q]r]s]t]u]v]w]x]y]z]A]B]C]y&D]E]F]G]H]I]J]K]L]M]N]O][@@ @ @ @ @ @ ",
"{ @ @ @ @ @ @ @ @ @ @ P]Q]R]S]A'T]U]V]W]X]q]Y]Z]f.`] ^.^+^@^#^$^%^r]x%&^*^=^-^;^>^,^'^)^!^~^{^]^^^/^(^_^:^<^[^}^|^@ @ @ @ @ @ @ ",
"r$@ ,#l@1^@ @ @ 2^3^4^5^6^7^8^9^0^a^b^c^d^e^l*%^f^)+g^h^i^j^k^l^m^`]R~n^o^p^q^r^s^t^u^v^w^x^r)G]y^z^A^B^C^D^E^F^@ @ @ @ @ @ @ @ ",
"@+| [.    G^@ |^H^I^J^K^L^M^N^O^P^Q^R^;+9.S^T^U^U.V^W^X^e.Y^U.Z^j]`^ /3 ./+/@/#/$/%/&/*/=/-/;/>/,/'/)/!/~/{/]/@ @ @ | s @ ^///@ ",
"@ D.      N@(/_/:/s@X+{.a+</[/}/|/4@U.d^1/2/K 3/K 4/)+6$5/6/7/8/9/0/8*X+a/b/c/d/e/f/g/D]h/i/j/k/l/m/n/o/p/q/@ @ @ r } j.@ ~ ,#@ ",
"r/%       s/t/u/v/V@w/x/(%y/z/A/3@B/X^o*U^C/5+D/E/$$F/G/}#H/,+I/n+J/!>d%K/L/M/N/O/P/Q/R/S/T/U/V/W/X/Y/Z/`/@ @ @ @ _.  % s + n.K.",
"  <+k.z  (.(+(*$@(#($(%(&(*(=(R@)@5 #$'+'+a.V@8+6 F$W@m -(;(=&3#>(,(P%>@'()(!(~({(](k'^(/(((_(:(<([(}(N @ @ @ @ @ |.~   m.E.)   ",
"  i#n.>*|(1(2(3(4(5(6(7(8(9(0(d@P.a(b(7+c(d(3$'+e(z.*.f(+#P%g(4/[#~>u.#*T%h(i(j(k(l(m(n(o(    p(@ @ @ + @ @ @ 3.H.@ @ _+        ",
"    M#q(r(s(t(u(v(w(x(y(z(A(3@m w V U@B(C(D(E(u.x;F(G(H(I(J(K(8+L(; M(N(O(P(Q(R(S(T(U(V(W(X(  } ~#)#8 I.,#@ 3.} }+B { 7{        ",
"    Y(Z(`(*( _._+_@_#_$_}!b@=.%_r#)+Q.(&&_(&*_=_ #-_Q%;_>_q.,_'_Z$)_%*!_~_{_h/]_^_/_(___:_<_[_) G.7{    E.@ &%    % <+          ",
"  }_|_1_2_3_4_*(5_6_7_8_9_e('+4#<#s.6-S&0_*.#$S]a_b#b_c_=!'_d_e_f_g_h_i_j_k_l_m_n_o_p_q_r_s_t_u_N + ,#D.|.@ 9 2.!)2.            ",
"v_w_I+3_x_y_+_z_A_(#B_}!C@m+C_s.v n F/@$D_E_F_G_)_H_I_J_K_L_e_R%M_g;9*N_O_P_x!Q_R_S_T_U_&_V_W_X_Y_@ @ @ @ @ @ + @ s %           ",
"Z_`_ :.:+:@:#:$:%:&:*:F(V@h.X.=:7// B(8+y@-:;:>: >,:':):!:~:{:]:^:{-/:(:,!_:::<:[:}:|:1:+#(&2:3:4:5:@ @ @ @ @ @ @ &%            "};
