/* XPM */
static char * tinkywinky_xpm[] = {
"64 64 2886 2",
"  	c #EAC37C",
". 	c #F9C47C",
"+ 	c #F8C47C",
"@ 	c #F8C57C",
"# 	c #F6BC7B",
"$ 	c #F2A97A",
"% 	c #F1A079",
"& 	c #EA9F7D",
"* 	c #D3988C",
"= 	c #B38F9F",
"- 	c #9886A6",
"; 	c #8C81A4",
"> 	c #8B80A1",
", 	c #887F9D",
"' 	c #867E99",
") 	c #857D97",
"! 	c #847D96",
"~ 	c #837C93",
"{ 	c #847C94",
"] 	c #847D94",
"^ 	c #847D93",
"/ 	c #867E96",
"( 	c #8A80A0",
"_ 	c #8D81A5",
": 	c #8F83A9",
"< 	c #8F83AB",
"[ 	c #9284A9",
"} 	c #C89493",
"| 	c #EFA079",
"1 	c #F2AA7A",
"2 	c #F6BA7B",
"3 	c #F8C37C",
"4 	c #F7BE7C",
"5 	c #F3AC7A",
"6 	c #F3AE7B",
"7 	c #F7C07C",
"8 	c #F4AD76",
"9 	c #E5B01B",
"0 	c #F7B21E",
"a 	c #F6B21E",
"b 	c #F5AB1A",
"c 	c #F1940E",
"d 	c #ED7F00",
"e 	c #E67920",
"f 	c #CB6E4F",
"g 	c #A45D73",
"h 	c #844F83",
"i 	c #6A4183",
"j 	c #57357E",
"k 	c #4C2C77",
"l 	c #472871",
"m 	c #43256D",
"n 	c #402269",
"o 	c #402268",
"p 	c #3F2268",
"q 	c #3F2166",
"r 	c #442665",
"s 	c #76515F",
"t 	c #875E62",
"u 	c #674475",
"v 	c #52317F",
"w 	c #502F7B",
"x 	c #4F2E7A",
"y 	c #563785",
"z 	c #5C3D90",
"A 	c #7C4D87",
"B 	c #C86D57",
"C 	c #EE7C00",
"D 	c #ED7B00",
"E 	c #EE8203",
"F 	c #F29D14",
"G 	c #F6B01D",
"H 	c #F5AE1C",
"I 	c #F19911",
"J 	c #EE8003",
"K 	c #ED7A00",
"L 	c #F19612",
"M 	c #F6AF1D",
"N 	c #F19710",
"O 	c #F5AF1C",
"P 	c #EF9915",
"Q 	c #E07B2B",
"R 	c #C36A50",
"S 	c #9E596E",
"T 	c #7E4B7D",
"U 	c #643F85",
"V 	c #5A3A8A",
"W 	c #50317E",
"X 	c #4A2B75",
"Y 	c #482973",
"Z 	c #42246B",
"` 	c #3F2167",
" .	c #432468",
"..	c #6D4963",
"+.	c #B17E50",
"@.	c #D59B41",
"#.	c #AA7A5D",
"$.	c #59377A",
"%.	c #51317D",
"&.	c #53327E",
"*.	c #553482",
"=.	c #523382",
"-.	c #573886",
";.	c #A65D6F",
">.	c #E1782F",
",.	c #EE7B00",
"'.	c #EE8303",
").	c #F29C12",
"!.	c #F5AA19",
"~.	c #F4A919",
"{.	c #F6B11D",
"].	c #F29E14",
"^.	c #EE8708",
"/.	c #F0910E",
"(.	c #EF8B09",
"_.	c #EE8002",
":.	c #E5B01C",
"<.	c #F7B21F",
"[.	c #F3B026",
"}.	c #E3A042",
"|.	c #BA765F",
"1.	c #915277",
"2.	c #764579",
"3.	c #5A377B",
"4.	c #543581",
"5.	c #4E2F7A",
"6.	c #43266E",
"7.	c #43256C",
"8.	c #43256B",
"9.	c #41236A",
"0.	c #482969",
"a.	c #7B515D",
"b.	c #B27E4D",
"c.	c #D69A40",
"d.	c #EDAB2B",
"e.	c #DB9F43",
"f.	c #91666D",
"g.	c #4B2B78",
"h.	c #4F2F79",
"i.	c #53337E",
"j.	c #543481",
"k.	c #523485",
"l.	c #79497E",
"m.	c #C66C54",
"n.	c #EC7C00",
"o.	c #ED7C00",
"p.	c #ED7D00",
"q.	c #ED7D01",
"r.	c #EE8404",
"s.	c #EF8807",
"t.	c #EF8706",
"u.	c #F29A12",
"v.	c #F5AB1B",
"w.	c #ED7C01",
"x.	c #EE8102",
"y.	c #EE8403",
"z.	c #EE8603",
"A.	c #EF8804",
"B.	c #DFAB26",
"C.	c #DF9F4C",
"D.	c #B9856A",
"E.	c #916377",
"F.	c #714980",
"G.	c #593883",
"H.	c #4C2F78",
"I.	c #472A71",
"J.	c #45276E",
"K.	c #402369",
"L.	c #42246A",
"M.	c #44266A",
"N.	c #5B3A66",
"O.	c #8A605D",
"P.	c #BB864E",
"Q.	c #DC9E3B",
"R.	c #ECAA29",
"S.	c #F5B121",
"T.	c #C28B55",
"U.	c #654276",
"V.	c #54337F",
"W.	c #52327E",
"X.	c #543483",
"Y.	c #5B3C8E",
"Z.	c #9E5B78",
"`.	c #DC7537",
" +	c #ED7E01",
".+	c #EF8505",
"++	c #EE8204",
"@+	c #F0920D",
"#+	c #F5AD1B",
"$+	c #F4AC1A",
"%+	c #F5B01D",
"&+	c #F4A91A",
"*+	c #F08D0B",
"=+	c #EE850D",
"-+	c #F29D18",
";+	c #9E7E6D",
">+	c #8E607D",
",+	c #6F4B83",
"'+	c #53337C",
")+	c #4E2F79",
"!+	c #4E2F78",
"~+	c #452770",
"{+	c #40226A",
"]+	c #3F2165",
"^+	c #43246A",
"/+	c #47296D",
"(+	c #61386D",
"_+	c #9A605A",
":+	c #C97B40",
"<+	c #E09130",
"[+	c #EDA828",
"}+	c #F5B221",
"|+	c #F6B21D",
"1+	c #F7B21C",
"2+	c #E09F41",
"3+	c #9B6971",
"4+	c #583784",
"5+	c #573582",
"6+	c #543380",
"7+	c #533380",
"8+	c #56378A",
"9+	c #7A4B89",
"0+	c #C36B5E",
"a+	c #EA7A0B",
"b+	c #F08F0C",
"c+	c #F4A618",
"d+	c #F29F14",
"e+	c #EE8705",
"f+	c #EE7F01",
"g+	c #F29B12",
"h+	c #F6B11E",
"i+	c #F4A717",
"j+	c #F0900C",
"k+	c #EE860F",
"l+	c #F19616",
"m+	c #F3A115",
"n+	c #F6B31E",
"o+	c #675E82",
"p+	c #573381",
"q+	c #4B2C75",
"r+	c #44266D",
"s+	c #3F2369",
"t+	c #3D2066",
"u+	c #3E2167",
"v+	c #422468",
"w+	c #4E2C69",
"x+	c #733E5B",
"y+	c #A75B51",
"z+	c #CA6D41",
"A+	c #DF7829",
"B+	c #EB7F11",
"C+	c #F08C06",
"D+	c #F4A617",
"E+	c #EFAD2E",
"F+	c #B8825E",
"G+	c #694281",
"H+	c #5D3B8B",
"I+	c #593886",
"J+	c #553483",
"K+	c #553587",
"L+	c #56388D",
"M+	c #9C6278",
"N+	c #DC7C3B",
"O+	c #F1930E",
"P+	c #F5AE1B",
"Q+	c #F4A317",
"R+	c #F4A417",
"S+	c #F4A819",
"T+	c #F5AC1B",
"U+	c #F0930F",
"V+	c #ED7E04",
"W+	c #EE8005",
"X+	c #EE8605",
"Y+	c #5D597D",
"Z+	c #563482",
"`+	c #4B2D75",
" @	c #3F2367",
".@	c #361C5D",
"+@	c #3B1E63",
"@@	c #412369",
"#@	c #552E64",
"$@	c #85485B",
"%@	c #B35F45",
"&@	c #D26E2C",
"*@	c #E2761E",
"=@	c #EB7B09",
"-@	c #EE8505",
";@	c #F3A217",
">@	c #F7B31A",
",@	c #DC9F51",
"'@	c #93687E",
")@	c #5A3989",
"!@	c #5C3B88",
"~@	c #583886",
"{@	c #553585",
"]@	c #58388D",
"^@	c #754787",
"/@	c #C5865F",
"(@	c #F0A11D",
"_@	c #F08D07",
":@	c #EF8806",
"<@	c #F0920C",
"[@	c #F29911",
"}@	c #F08D0A",
"|@	c #ED7E00",
"1@	c #565674",
"2@	c #563381",
"3@	c #553581",
"4@	c #553582",
"5@	c #52337F",
"6@	c #4A2B74",
"7@	c #482971",
"8@	c #4D2E77",
"9@	c #613A79",
"0@	c #905165",
"a@	c #C56B40",
"b@	c #E5791C",
"c@	c #EE8100",
"d@	c #EE8304",
"e@	c #F4A719",
"f@	c #F6B31D",
"g@	c #F2B030",
"h@	c #BE8867",
"i@	c #674482",
"j@	c #563580",
"k@	c #533482",
"l@	c #543486",
"m@	c #5B3B8E",
"n@	c #A05C75",
"o@	c #E2953A",
"p@	c #F6B01A",
"q@	c #F5AA1A",
"r@	c #F3A216",
"s@	c #F29D13",
"t@	c #F29B13",
"u@	c #EF8B08",
"v@	c #EE7F02",
"w@	c #F3A316",
"x@	c #54546F",
"y@	c #54307D",
"z@	c #583683",
"A@	c #5B398A",
"B@	c #5D3B8E",
"C@	c #5B3A8A",
"D@	c #5C3B89",
"E@	c #603F8F",
"F@	c #644191",
"G@	c #70458A",
"H@	c #854E84",
"I@	c #A05C7D",
"J@	c #C0786B",
"K@	c #DA914F",
"L@	c #E88B2A",
"M@	c #EE7F00",
"N@	c #F29912",
"O@	c #F7B31B",
"P@	c #DCA047",
"Q@	c #936874",
"R@	c #563583",
"S@	c #55357F",
"T@	c #4E307B",
"U@	c #50317F",
"V@	c #7A5289",
"W@	c #C8855D",
"X@	c #F3A91C",
"Y@	c #F6AF1C",
"Z@	c #F19912",
"`@	c #EF8907",
" #	c #EF8A08",
".#	c #EF8C09",
"+#	c #F3A416",
"@#	c #F1940F",
"##	c #F5AD1C",
"$#	c #54546C",
"%#	c #4D2A72",
"&#	c #502F79",
"*#	c #553381",
"=#	c #51317E",
"-#	c #573685",
";#	c #5C3B8D",
">#	c #5E3D92",
",#	c #5C3B8F",
"'#	c #5C3C91",
")#	c #6A4697",
"!#	c #7C5391",
"~#	c #8A5F86",
"{#	c #A2667A",
"]#	c #C07969",
"^#	c #DF9C4A",
"/#	c #F4B127",
"(#	c #F0AE2E",
"_#	c #B98562",
":#	c #654481",
"<#	c #5B3A89",
"[#	c #5A3988",
"}#	c #553584",
"|#	c #563687",
"1#	c #5B3B91",
"2#	c #A3747B",
"3#	c #E4A43F",
"4#	c #F7B11A",
"5#	c #F19510",
"6#	c #F3A116",
"7#	c #F08F0B",
"8#	c #F4A718",
"9#	c #F3A517",
"0#	c #EF8C0A",
"a#	c #F3A417",
"b#	c #F4AA1A",
"c#	c #5A576A",
"d#	c #4E2B71",
"e#	c #49296E",
"f#	c #492A71",
"g#	c #492972",
"h#	c #4D2C77",
"i#	c #512F7B",
"j#	c #523281",
"k#	c #553484",
"l#	c #59398A",
"m#	c #5D3D91",
"n#	c #5F3E93",
"o#	c #624297",
"p#	c #694693",
"q#	c #77518C",
"r#	c #906585",
"s#	c #B17F78",
"t#	c #B6836F",
"u#	c #875E7B",
"v#	c #523280",
"w#	c #5C3C93",
"x#	c #77538E",
"y#	c #C79065",
"z#	c #F4B123",
"A#	c #F1970F",
"B#	c #B48E4A",
"C#	c #926561",
"D#	c #5C3A6D",
"E#	c #48286C",
"F#	c #46266B",
"G#	c #4A2A70",
"H#	c #48286D",
"I#	c #44256A",
"J#	c #44256B",
"K#	c #46276E",
"L#	c #4D2E78",
"M#	c #523381",
"N#	c #583788",
"O#	c #5D3D8E",
"P#	c #604093",
"Q#	c #634295",
"R#	c #714D93",
"S#	c #765291",
"T#	c #68468E",
"U#	c #5A3A89",
"V#	c #523282",
"W#	c #543487",
"X#	c #5B3B92",
"Y#	c #A7787D",
"Z#	c #E7A742",
"`#	c #F0910D",
" $	c #EF8705",
".$	c #DFAC24",
"+$	c #E4A436",
"@$	c #CD9448",
"#$	c #A37256",
"$$	c #6C4461",
"%$	c #4B2968",
"&$	c #452568",
"*$	c #412265",
"=$	c #3E1F62",
"-$	c #3C1E61",
";$	c #412367",
">$	c #46276D",
",$	c #4A2A74",
"'$	c #4E2E79",
")$	c #543480",
"!$	c #5C3B8C",
"~$	c #5F3E91",
"{$	c #644397",
"]$	c #664697",
"^$	c #654495",
"/$	c #5F3E8E",
"($	c #573786",
"_$	c #533384",
":$	c #533388",
"<$	c #7B5686",
"[$	c #CC9460",
"}$	c #F5B222",
"|$	c #F5AF1D",
"1$	c #EE8405",
"2$	c #E5B01A",
"3$	c #F7B21D",
"4$	c #F3B023",
"5$	c #E7A12C",
"6$	c #D17F33",
"7$	c #B25E42",
"8$	c #854854",
"9$	c #552E5F",
"0$	c #402263",
"a$	c #3E2062",
"b$	c #3F2163",
"c$	c #402164",
"d$	c #402165",
"e$	c #412267",
"f$	c #44266B",
"g$	c #492B74",
"h$	c #533481",
"i$	c #593987",
"j$	c #593A88",
"k$	c #5B3C8B",
"l$	c #553683",
"m$	c #4D2F79",
"n$	c #4C2D7A",
"o$	c #AA7A6C",
"p$	c #E69937",
"q$	c #F39E10",
"r$	c #F5AC1A",
"s$	c #F0930E",
"t$	c #F19711",
"u$	c #F19610",
"v$	c #F6B01B",
"w$	c #F09911",
"x$	c #E57B12",
"y$	c #DB7C26",
"z$	c #CB863F",
"A$	c #AA7A54",
"B$	c #795259",
"C$	c #4C295C",
"D$	c #3F2061",
"E$	c #3B1D5D",
"F$	c #3B1D5E",
"G$	c #3B1D5F",
"H$	c #3B1E5F",
"I$	c #412469",
"J$	c #482A73",
"K$	c #4D2E79",
"L$	c #4A2C76",
"M$	c #482978",
"N$	c #7D556F",
"O$	c #D0954B",
"P$	c #F29F19",
"Q$	c #F29B11",
"R$	c #F1950F",
"S$	c #F39F14",
"T$	c #EE8001",
"U$	c #F29E13",
"V$	c #F4A518",
"W$	c #EF8908",
"X$	c #F6B21F",
"Y$	c #F4A517",
"Z$	c #F2AC23",
"`$	c #EAAA2F",
" %	c #DA8F30",
".%	c #C46B34",
"+%	c #A35744",
"@%	c #713C51",
"#%	c #472559",
"$%	c #3D1F60",
"%%	c #391C5E",
"&%	c #3F2267",
"*%	c #472972",
"=%	c #553789",
"-%	c #975C75",
";%	c #DD923A",
">%	c #F6AA17",
",%	c #F1950D",
"'%	c #EF8504",
")%	c #F6B01C",
"!%	c #F29F15",
"~%	c #F7B31D",
"{%	c #EA7F08",
"]%	c #E17517",
"^%	c #D57327",
"/%	c #C57E3B",
"(%	c #A5704F",
"_%	c #7C4556",
":%	c #572F5C",
"<%	c #422465",
"[%	c #412467",
"}%	c #42256A",
"|%	c #4B2D78",
"1%	c #4F3280",
"2%	c #7E4B79",
"3%	c #C9744F",
"4%	c #E88D2B",
"5%	c #E39239",
"6%	c #D9854A",
"7%	c #CE765C",
"8%	c #C87062",
"9%	c #C46E64",
"0%	c #C47B6B",
"a%	c #C88F6F",
"b%	c #D19968",
"c%	c #D99F5E",
"d%	c #E2A44F",
"e%	c #EFAD36",
"f%	c #F4AC1E",
"g%	c #EF8B0A",
"h%	c #F29C13",
"i%	c #EE8504",
"j%	c #F19811",
"k%	c #F4A817",
"l%	c #F1950E",
"m%	c #EF8D0A",
"n%	c #F3A015",
"o%	c #E19D14",
"p%	c #F1930F",
"q%	c #F3A215",
"r%	c #EE7E00",
"s%	c #F0900B",
"t%	c #F0A61F",
"u%	c #E69426",
"v%	c #D87229",
"w%	c #CD6C32",
"x%	c #AF5E48",
"y%	c #723E62",
"z%	c #44276E",
"A%	c #44276B",
"B%	c #45286E",
"C%	c #51337C",
"D%	c #684589",
"E%	c #8E598C",
"F%	c #A0648D",
"G%	c #9D6691",
"H%	c #976293",
"I%	c #8E5C95",
"J%	c #8B5A97",
"K%	c #8A5B99",
"L%	c #895E9A",
"M%	c #8A639B",
"N%	c #90699A",
"O%	c #966D98",
"P%	c #9D7296",
"Q%	c #B2838C",
"R%	c #C78F7A",
"S%	c #D88959",
"T%	c #E77D26",
"U%	c #EE8909",
"V%	c #F1930D",
"W%	c #F08C08",
"X%	c #EE8606",
"Y%	c #DC8205",
"Z%	c #F19810",
"`%	c #F39E12",
" &	c #EE8000",
".&	c #EC7B00",
"+&	c #E1771D",
"@&	c #A45955",
"#&	c #4D3173",
"$&	c #593A7F",
"%&	c #64448D",
"&&	c #6D4B98",
"*&	c #73519E",
"=&	c #7552A0",
"-&	c #7451A0",
";&	c #7250A0",
">&	c #6E4D9D",
",&	c #6E4C9E",
"'&	c #6F4D9E",
")&	c #6D4B9C",
"!&	c #6C4A9C",
"~&	c #6D4B9D",
"{&	c #704EA0",
"]&	c #7351A1",
"^&	c #7D59A0",
"/&	c #89649E",
"(&	c #966797",
"_&	c #A86785",
":&	c #C67468",
"<&	c #E3833B",
"[&	c #ED8407",
"}&	c #F0940E",
"|&	c #DA7900",
"1&	c #F4A818",
"2&	c #F29E12",
"3&	c #ED9523",
"4&	c #D6834E",
"5&	c #9E607C",
"6&	c #6F4D94",
"7&	c #6F4C9A",
"8&	c #6D4B9B",
"9&	c #6E4B9C",
"0&	c #704D9D",
"a&	c #6E4B9D",
"b&	c #694698",
"c&	c #664494",
"d&	c #624191",
"e&	c #61408E",
"f&	c #634190",
"g&	c #614090",
"h&	c #614091",
"i&	c #634393",
"j&	c #634293",
"k&	c #684799",
"l&	c #6F4E9E",
"m&	c #78539F",
"n&	c #8D5F9B",
"o&	c #A66A8F",
"p&	c #C87268",
"q&	c #E4792A",
"r&	c #F08E0B",
"s&	c #EE8103",
"t&	c #EDAA35",
"u&	c #C98D68",
"v&	c #97668A",
"w&	c #7A5198",
"x&	c #6F4C9B",
"y&	c #694697",
"z&	c #644293",
"A&	c #654494",
"B&	c #674596",
"C&	c #654393",
"D&	c #5B3C88",
"E&	c #573883",
"F&	c #5A3986",
"G&	c #5A3985",
"H&	c #573782",
"I&	c #563682",
"J&	c #50317C",
"K&	c #523480",
"L&	c #694899",
"M&	c #71509F",
"N&	c #7C59A2",
"O&	c #8E609A",
"P&	c #B56D7E",
"Q&	c #DC7845",
"R&	c #F08B08",
"S&	c #F08C09",
"T&	c #F5A91A",
"U&	c #F5B120",
"V&	c #E1A352",
"W&	c #B7847F",
"X&	c #8B6294",
"Y&	c #724D9B",
"Z&	c #694699",
"`&	c #654294",
" *	c #613F90",
".*	c #5C3B8B",
"+*	c #573684",
"@*	c #5A3A85",
"#*	c #583880",
"$*	c #4D2E72",
"%*	c #533174",
"&*	c #653A77",
"**	c #794675",
"=*	c #854F73",
"-*	c #8E5670",
";*	c #8D5470",
">*	c #784574",
",*	c #653A78",
"'*	c #5B3579",
")*	c #5C3982",
"!*	c #5D3C87",
"~*	c #583884",
"{*	c #573987",
"]*	c #5C3D8B",
"^*	c #654694",
"/*	c #6E4D9C",
"(*	c #7554A1",
"_*	c #865EA0",
":*	c #AE6A83",
"<*	c #DA7748",
"[*	c #EC7C04",
"}*	c #F0900D",
"|*	c #F3AA21",
"1*	c #D68F56",
"2*	c #A36F87",
"3*	c #805A9C",
"4*	c #714E9D",
"5*	c #6E4A9A",
"6*	c #674493",
"7*	c #5E3C8A",
"8*	c #593885",
"9*	c #51327A",
"0*	c #4E2E75",
"a*	c #533074",
"b*	c #6D3E6D",
"c*	c #996171",
"d*	c #BC817F",
"e*	c #D3988E",
"f*	c #DFA698",
"g*	c #E4AD9D",
"h*	c #E6B1A0",
"i*	c #E5AFA0",
"j*	c #DFA89C",
"k*	c #D59C94",
"l*	c #C78B89",
"m*	c #B77980",
"n*	c #975F79",
"o*	c #6A3E76",
"p*	c #53337B",
"q*	c #563783",
"r*	c #583A87",
"s*	c #604290",
"t*	c #6F4D9D",
"u*	c #7755A3",
"v*	c #845EA1",
"w*	c #B26D83",
"x*	c #DF7942",
"y*	c #ECAB3B",
"z*	c #D89D59",
"A*	c #D2995E",
"B*	c #E4A144",
"C*	c #EF991C",
"D*	c #F3B02A",
"E*	c #D39661",
"F*	c #9C688E",
"G*	c #7A529E",
"H*	c #704C9D",
"I*	c #6A4796",
"J*	c #50317B",
"K*	c #4C2C73",
"L*	c #4F2967",
"M*	c #83526C",
"N*	c #BA7F7E",
"O*	c #D79C8E",
"P*	c #E7AD9B",
"Q*	c #F1B7A2",
"R*	c #F7BEA9",
"S*	c #FAC4AF",
"T*	c #FAC8B4",
"U*	c #FACBB8",
"V*	c #FBCBB9",
"W*	c #FACBB9",
"X*	c #F8C8B7",
"Y*	c #F5C4B4",
"Z*	c #F0BEAF",
"`*	c #E7B3A6",
" =	c #D19B94",
".=	c #A56F7C",
"+=	c #704379",
"@=	c #624392",
"#=	c #684898",
"$=	c #6B4A9A",
"%=	c #7453A2",
"&=	c #855C9F",
"*=	c #B46C7E",
"==	c #E0793E",
"-=	c #F19F12",
";=	c #D69157",
">=	c #A77784",
",=	c #936894",
"'=	c #9C729C",
")=	c #A97893",
"!=	c #BE746F",
"~=	c #E2863A",
"{=	c #F3A113",
"]=	c #F5A919",
"^=	c #EE8704",
"/=	c #F3B025",
"(=	c #D09765",
"_=	c #956A92",
":=	c #79539D",
"<=	c #724E9E",
"[=	c #6D4A9B",
"}=	c #62408E",
"|=	c #51317C",
"1=	c #492665",
"2=	c #7B4667",
"3=	c #B57572",
"4=	c #DD9F8F",
"5=	c #F0B6A2",
"6=	c #F7BFAA",
"7=	c #FAC3AD",
"8=	c #FAC6B2",
"9=	c #FAC7B5",
"0=	c #FAC9B7",
"a=	c #FACBBA",
"b=	c #FACCBC",
"c=	c #FBCEBE",
"d=	c #FBCFBF",
"e=	c #FBD0C0",
"f=	c #FBD0C1",
"g=	c #F7CBBC",
"h=	c #EABAAD",
"i=	c #CB9490",
"j=	c #94617D",
"k=	c #6A4389",
"l=	c #634493",
"m=	c #614292",
"n=	c #694998",
"o=	c #7453A1",
"p=	c #875D9E",
"q=	c #BF7176",
"r=	c #E77A2A",
"s=	c #F08F08",
"t=	c #F39F10",
"u=	c #DB8246",
"v=	c #A16480",
"w=	c #7D589E",
"x=	c #B390B4",
"y=	c #DEBEC8",
"z=	c #D8BAC6",
"A=	c #AE8AA7",
"B=	c #BE8371",
"C=	c #ECA939",
"D=	c #F39F13",
"E=	c #F4AB1A",
"F=	c #F5B220",
"G=	c #D99E5D",
"H=	c #9B6F8C",
"I=	c #714D99",
"J=	c #6E4A99",
"K=	c #6A4695",
"L=	c #613E8D",
"M=	c #50317A",
"N=	c #47286F",
"O=	c #5C316B",
"P=	c #995D6B",
"Q=	c #D39082",
"R=	c #EFAE98",
"S=	c #F8BCA6",
"T=	c #F9C2AD",
"U=	c #F9C3AF",
"V=	c #FAC4B1",
"W=	c #FAC5B2",
"X=	c #FAC6B4",
"Y=	c #FAC7B6",
"Z=	c #FAC9B8",
"`=	c #FACABA",
" -	c #FACCBB",
".-	c #FACDBC",
"+-	c #FBCEBD",
"@-	c #FBCFBE",
"#-	c #FBD2C3",
"$-	c #FBD4C6",
"%-	c #FBD4C5",
"&-	c #F5C9BB",
"*-	c #E0AEA3",
"=-	c #AC7989",
"--	c #6B4383",
";-	c #5E3E8E",
">-	c #7B59A6",
",-	c #94659B",
"'-	c #CB7367",
")-	c #ED870E",
"!-	c #F29B0E",
"~-	c #E99E35",
"{-	c #B77A75",
"]-	c #714794",
"^-	c #9B79A8",
"/-	c #E0BCC2",
"(-	c #FBD3C4",
"_-	c #F8CDBC",
":-	c #DAB5BB",
"<-	c #B08BA2",
"[-	c #D19462",
"}-	c #F29E15",
"|-	c #ED7F01",
"1-	c #DB7900",
"2-	c #EF8404",
"3-	c #F0910C",
"4-	c #F6B21C",
"5-	c #E0A34A",
"6-	c #A87883",
"7-	c #7A559D",
"8-	c #6E4A98",
"9-	c #664391",
"0-	c #5D3B87",
"a-	c #50307A",
"b-	c #47286D",
"c-	c #593067",
"d-	c #A46772",
"e-	c #DF9A89",
"f-	c #F5B59D",
"g-	c #F9BEA8",
"h-	c #F9C0AC",
"i-	c #F9C1AD",
"j-	c #F9C2AF",
"k-	c #FAC5B3",
"l-	c #FAC6B5",
"m-	c #FAC8B6",
"n-	c #FACAB9",
"o-	c #FBD1C1",
"p-	c #FBD5C7",
"q-	c #FCD7C8",
"r-	c #FAD2C4",
"s-	c #E9BCB1",
"t-	c #B48592",
"u-	c #744B8A",
"v-	c #634392",
"w-	c #72519E",
"x-	c #7E5CA6",
"y-	c #A66A8E",
"z-	c #DA7A4D",
"A-	c #EE8300",
"B-	c #C87953",
"C-	c #7E5682",
"D-	c #57358B",
"E-	c #A282A6",
"F-	c #E8C1BC",
"G-	c #FCC7A8",
"H-	c #FBBC96",
"I-	c #F5C2AC",
"J-	c #C39EAE",
"K-	c #B5767D",
"L-	c #E48233",
"M-	c #DE9009",
"N-	c #F1900C",
"O-	c #EDAC37",
"P-	c #BE8971",
"Q-	c #7D5691",
"R-	c #6A4692",
"S-	c #62408B",
"T-	c #5B3985",
"U-	c #503077",
"V-	c #3F2263",
"W-	c #552C60",
"X-	c #A56970",
"Y-	c #E29D8A",
"Z-	c #F6B69F",
"`-	c #F9C1AF",
" ;	c #F9C2B0",
".;	c #F9C3B1",
"+;	c #F9C4B1",
"@;	c #F9C4B2",
"#;	c #FAC5B4",
"$;	c #FAC8B7",
"%;	c #FBD1C2",
"&;	c #FBD7C8",
"*;	c #FCD9CC",
"=;	c #FBD8CB",
"-;	c #EDC4BA",
";;	c #BA8C98",
">;	c #724884",
",;	c #573887",
"';	c #654594",
");	c #7555A1",
"!;	c #835EA1",
"~;	c #BC6F79",
"{;	c #DC783F",
"];	c #AA5F6E",
"^;	c #5B3A87",
"/;	c #533187",
"(;	c #A07DA3",
"_;	c #E6B8AE",
":;	c #FBC09C",
"<;	c #FAB78C",
"[;	c #DBACA8",
"};	c #AF7E97",
"|;	c #D17359",
"1;	c #E2A214",
"2;	c #F1920D",
"3;	c #D1975C",
"4;	c #8C6288",
"5;	c #6C4892",
"6;	c #623F89",
"7;	c #5A3881",
"8;	c #513179",
"9;	c #502861",
"0;	c #A06268",
"a;	c #E09A86",
"b;	c #F9BFAB",
"c;	c #F9C1AC",
"d;	c #F9C1AE",
"e;	c #F9C2B1",
"f;	c #F9C3B2",
"g;	c #FBD5C6",
"h;	c #FBD8CA",
"i;	c #FCDBCF",
"j;	c #FCDACD",
"k;	c #EDC6BB",
"l;	c #B28995",
"m;	c #633C7D",
"n;	c #5B3B8A",
"o;	c #6D4C9B",
"p;	c #7958A5",
"q;	c #966497",
"r;	c #AA6878",
"s;	c #865077",
"t;	c #543485",
"u;	c #523186",
"v;	c #A07C9E",
"w;	c #E7B5AA",
"x;	c #FBC19E",
"y;	c #FABC96",
"z;	c #FBB88F",
"A;	c #EEB5A0",
"B;	c #B78EA3",
"C;	c #C1796D",
"D;	c #F09816",
"E;	c #E4A917",
"F;	c #F3A317",
"G;	c #F5A716",
"H;	c #E19035",
"I;	c #A56B71",
"J;	c #6A478D",
"K;	c #64428B",
"L;	c #5E3D85",
"M;	c #58377F",
"N;	c #48296D",
"O;	c #46215D",
"P;	c #935463",
"Q;	c #D88F7C",
"R;	c #F4B199",
"S;	c #F8BBA4",
"T;	c #F9BDA8",
"U;	c #F9C0AA",
"V;	c #F9C2AE",
"W;	c #FAC7B4",
"X;	c #FACAB8",
"Y;	c #FBCCBB",
"Z;	c #FBCEBC",
"`;	c #FBD6C7",
" >	c #FCD9CB",
".>	c #FCDCCF",
"+>	c #E4BEB6",
"@>	c #9E768F",
"#>	c #593683",
"$>	c #634391",
"%>	c #7352A0",
"&>	c #7F5BA3",
"*>	c #7C5696",
"=>	c #623F80",
"->	c #4A2C77",
";>	c #4D2D81",
">>	c #A17D9F",
",>	c #E7B8AE",
"'>	c #FBC4A7",
")>	c #FAC0A3",
"!>	c #FABA95",
"~>	c #F7BA9A",
"{>	c #C599A6",
"]>	c #B9837E",
"^>	c #EDA833",
"/>	c #F6B11C",
"(>	c #E4AC18",
"_>	c #C66F54",
":>	c #7D4D82",
"<>	c #624088",
"[>	c #613E87",
"}>	c #5C3B84",
"|>	c #4D2E73",
"1>	c #3D2062",
"2>	c #713C5E",
"3>	c #C47D72",
"4>	c #F0A990",
"5>	c #F7B8A1",
"6>	c #F8BDA7",
"7>	c #F8BFAA",
"8>	c #FAC6B3",
"9>	c #FAC9B6",
"0>	c #FBCDBA",
"a>	c #FBCFBD",
"b>	c #FCDDD0",
"c>	c #F9D9CD",
"d>	c #D1AAAA",
"e>	c #815781",
"f>	c #563681",
"g>	c #674694",
"h>	c #7755A2",
"i>	c #75539F",
"j>	c #5E3F89",
"k>	c #523286",
"l>	c #9C78A1",
"m>	c #E3B6B2",
"n>	c #FBC7AE",
"o>	c #FAC3A9",
"p>	c #F9BDA0",
"q>	c #FBBE9F",
"r>	c #D5A6AB",
"s>	c #B88A90",
"t>	c #E3A448",
"u>	c #E5AF1A",
"v>	c #F39D13",
"w>	c #ED8002",
"x>	c #EF8707",
"y>	c #F3A518",
"z>	c #EB9824",
"A>	c #B16261",
"B>	c #674183",
"C>	c #613E85",
"D>	c #5F3C85",
"E>	c #54337A",
"F>	c #402265",
"G>	c #492360",
"H>	c #A3656C",
"I>	c #E39B84",
"J>	c #F4B39A",
"K>	c #F6BAA4",
"L>	c #F8C0AB",
"M>	c #F8C0AC",
"N>	c #F8BFAB",
"O>	c #F9C0AB",
"P>	c #FAC7B3",
"Q>	c #FAC6AF",
"R>	c #FAC6AE",
"S>	c #FAC9B1",
"T>	c #FBCBB5",
"U>	c #FBCCB7",
"V>	c #FBCEBB",
"W>	c #FBD1C0",
"X>	c #FBD5C5",
"Y>	c #F3D0C5",
"Z>	c #B99298",
"`>	c #653D7A",
" ,	c #5D3E8C",
".,	c #6F4E9C",
"+,	c #674692",
"@,	c #4E2F7C",
"#,	c #4F3081",
"$,	c #886597",
"%,	c #D9AEAF",
"&,	c #FCC9B2",
"*,	c #F9C3AB",
"=,	c #F9BFA5",
"-,	c #FBBFA4",
";,	c #E1B2AE",
">,	c #B9909B",
",,	c #D79C5B",
"',	c #F7B318",
"),	c #F6AD1C",
"!,	c #F4A619",
"~,	c #F5AE1D",
"{,	c #E09B3F",
"],	c #9D636F",
"^,	c #5D397E",
"/,	c #553377",
"(,	c #57357B",
"_,	c #4D2D72",
":,	c #3A1C60",
"<,	c #724061",
"[,	c #C68376",
"},	c #F0AB92",
"|,	c #F4B69F",
"1,	c #F6BBA5",
"2,	c #F7BDA8",
"3,	c #F7BDA7",
"4,	c #F8BDA8",
"5,	c #F8BEA9",
"6,	c #F9C0A9",
"7,	c #F9C3B0",
"8,	c #F9C5B2",
"9,	c #FAC7AF",
"0,	c #FAC4AA",
"a,	c #FAC3A7",
"b,	c #FAC2A4",
"c,	c #FAC3A6",
"d,	c #FAC4A9",
"e,	c #FAC8AF",
"f,	c #FBCDB9",
"g,	c #FBD3C3",
"h,	c #FCDACC",
"i,	c #DFBAB4",
"j,	c #936B88",
"k,	c #5D3C8B",
"l,	c #6F4E9B",
"m,	c #563685",
"n,	c #4C2D7C",
"o,	c #6B488D",
"p,	c #C9A0AB",
"q,	c #FAC9B5",
"r,	c #FAC3AB",
"s,	c #F9BFA6",
"t,	c #FAC1A8",
"u,	c #EDBDB2",
"v,	c #C198A2",
"w,	c #D09661",
"x,	c #F7B31C",
"y,	c #CE9355",
"z,	c #7F547B",
"A,	c #5A377A",
"B,	c #4F2E6F",
"C,	c #4D2D70",
"D,	c #452769",
"E,	c #3B1B5F",
"F,	c #945A67",
"G,	c #DB9681",
"H,	c #F1B198",
"I,	c #F3B6A0",
"J,	c #F5B8A3",
"K,	c #F5B8A4",
"L,	c #F5B8A2",
"M,	c #F6B9A1",
"N,	c #F7BAA4",
"O,	c #F7BBA6",
"P,	c #F7BCA6",
"Q,	c #F6BDA7",
"R,	c #F7BEAA",
"S,	c #FAC9B4",
"T,	c #FAC6AC",
"U,	c #FAC3A5",
"V,	c #FAC09F",
"W,	c #FABF9A",
"X,	c #FABD97",
"Y,	c #FABB94",
"Z,	c #FABD99",
"`,	c #FAC2A6",
" '	c #FBCBB6",
".'	c #FCD5C5",
"+'	c #F6D4C8",
"@'	c #BC979D",
"#'	c #613B7A",
"$'	c #634390",
"%'	c #7452A0",
"&'	c #71509D",
"*'	c #5A3B88",
"='	c #4E307E",
"-'	c #67438D",
";'	c #C69DAC",
">'	c #FAC4AD",
",'	c #F9C0A8",
"''	c #F9C1AA",
")'	c #F6C5B5",
"!'	c #C7A0AB",
"~'	c #C9916C",
"{'	c #F29F13",
"]'	c #EF9E21",
"^'	c #BB8261",
"/'	c #65417C",
"('	c #573475",
"_'	c #502F70",
":'	c #492A6B",
"<'	c #4A235E",
"['	c #AD6F70",
"}'	c #E8A28A",
"|'	c #F0B199",
"1'	c #F1B49E",
"2'	c #F2B59F",
"3'	c #F3B6A1",
"4'	c #F4B7A0",
"5'	c #F6B7A0",
"6'	c #F6B8A1",
"7'	c #F6B9A4",
"8'	c #F7BAA5",
"9'	c #F7BCA7",
"0'	c #F9BEAA",
"a'	c #FBCAB5",
"b'	c #FAC6A9",
"c'	c #FAC29E",
"d'	c #FABE97",
"e'	c #FABC92",
"f'	c #FABA8F",
"g'	c #FAB68A",
"h'	c #F9B184",
"i'	c #F9B083",
"j'	c #FAB791",
"k'	c #FCD8CB",
"l'	c #FDDDD1",
"m'	c #D7B6B3",
"n'	c #825E81",
"o'	c #5A3A87",
"p'	c #704E9C",
"q'	c #74519F",
"r'	c #624190",
"s'	c #755293",
"t'	c #CFA6AF",
"u'	c #FBCCB8",
"v'	c #FAC5AF",
"w'	c #F9C2AB",
"x'	c #F9C1AB",
"y'	c #CFA7B2",
"z'	c #C6927D",
"A'	c #F2AF27",
"B'	c #EF8905",
"C'	c #E7811D",
"D'	c #AD685C",
"E'	c #593877",
"F'	c #583575",
"G'	c #523172",
"H'	c #452766",
"I'	c #603462",
"J'	c #BD7E77",
"K'	c #EEA990",
"L'	c #F0B099",
"M'	c #F0B39D",
"N'	c #F1B5A0",
"O'	c #F2B6A1",
"P'	c #F4B6A1",
"Q'	c #F5B7A2",
"R'	c #F6B7A1",
"S'	c #F7B9A3",
"T'	c #F8BBA6",
"U'	c #F9BEA9",
"V'	c #F9BFAA",
"W'	c #FBCAB7",
"X'	c #FBCCB5",
"Y'	c #FBC6A7",
"Z'	c #FABD95",
"`'	c #F9B283",
" )	c #F5A87A",
".)	c #F0A27B",
"+)	c #ECA07C",
"@)	c #E79B78",
"#)	c #E99971",
"$)	c #F4A77D",
"%)	c #F9BB9B",
"&)	c #FDDCD0",
"*)	c #ECCBC4",
"=)	c #A58495",
"-)	c #53307E",
";)	c #6A4996",
">)	c #684696",
",)	c #59378D",
"')	c #89649D",
"))	c #D9AFB5",
"!)	c #FCCDB8",
"~)	c #F9C6AF",
"{)	c #F9C2AC",
"])	c #FBC5B0",
"^)	c #D7ADB4",
"/)	c #CB9985",
"()	c #F0AE28",
"_)	c #EF8502",
":)	c #E07626",
"<)	c #A25A5F",
"[)	c #583778",
"})	c #4D2D6E",
"|)	c #412361",
"1)	c #76476A",
"2)	c #C88A7F",
"3)	c #EEAC94",
"4)	c #EFB099",
"5)	c #EFB29D",
"6)	c #F1B49F",
"7)	c #F2B5A1",
"8)	c #F4B6A0",
"9)	c #F5B69C",
"0)	c #F7B69B",
"a)	c #F7B79B",
"b)	c #F7B69C",
"c)	c #F7B79D",
"d)	c #F7B8A0",
"e)	c #F9BAA3",
"f)	c #F9BCA5",
"g)	c #F9C4B0",
"h)	c #FBCBB7",
"i)	c #FBCDB6",
"j)	c #FBC4A2",
"k)	c #F9B082",
"l)	c #EC996A",
"m)	c #D08968",
"n)	c #AF7E65",
"o)	c #9D755F",
"p)	c #AA806C",
"q)	c #CC9681",
"r)	c #E39E80",
"s)	c #F2AE8F",
"t)	c #F9D7CD",
"u)	c #BF9EA6",
"v)	c #5F387C",
"w)	c #644391",
"x)	c #714EA0",
"y)	c #6A4898",
"z)	c #5D3A8F",
"A)	c #A07CA5",
"B)	c #E6BCBA",
"C)	c #FBCDB8",
"D)	c #FBC4AC",
"E)	c #DEB2B6",
"F)	c #CF9E8D",
"G)	c #EDAC30",
"H)	c #F39E11",
"I)	c #E08D2F",
"J)	c #A06662",
"K)	c #563375",
"L)	c #52306F",
"M)	c #472766",
"N)	c #3D1F5D",
"O)	c #391A5E",
"P)	c #8A586C",
"Q)	c #D49485",
"R)	c #EEAD96",
"S)	c #EFAF99",
"T)	c #F0B49F",
"U)	c #F3B59E",
"V)	c #F6B498",
"W)	c #F7B391",
"X)	c #F8B28D",
"Y)	c #F8B290",
"Z)	c #F8B393",
"`)	c #F8B498",
" !	c #F9B69D",
".!	c #F9B9A0",
"+!	c #FABCA3",
"@!	c #F9BFA8",
"#!	c #F9C3AE",
"$!	c #FBCEB9",
"%!	c #FAC2A0",
"&!	c #F2A171",
"*!	c #C9805D",
"=!	c #886654",
"-!	c #695542",
";!	c #6C5A44",
">!	c #725C47",
",!	c #8D7261",
"'!	c #BD9382",
")!	c #E4A891",
"!!	c #F6BAA3",
"~!	c #FBCBBA",
"{!	c #FCD5C8",
"]!	c #FDDBCF",
"^!	c #D0AEAF",
"/!	c #754F80",
"(!	c #5C3C8B",
"_!	c #6B499A",
":!	c #5D398F",
"<!	c #B492AB",
"[!	c #F3CAC0",
"}!	c #FAC7B0",
"|!	c #FAC4AC",
"1!	c #F9C1A9",
"2!	c #FAC4AE",
"3!	c #E1B7B9",
"4!	c #D2A292",
"5!	c #EBA634",
"6!	c #DF9A35",
"7!	c #98625F",
"8!	c #502E6F",
"9!	c #4E2B69",
"0!	c #442562",
"a!	c #3C1E5B",
"b!	c #37185C",
"c!	c #915D6C",
"d!	c #D79787",
"e!	c #ECAD97",
"f!	c #EEB09B",
"g!	c #F0B29D",
"h!	c #F2B49D",
"i!	c #F5B398",
"j!	c #F6B290",
"k!	c #F8B088",
"l!	c #F9B086",
"m!	c #F9AF85",
"n!	c #F7AD84",
"o!	c #F6AD87",
"p!	c #F7AF8D",
"q!	c #F8B294",
"r!	c #F9B69B",
"s!	c #F9BAA1",
"t!	c #FACAB7",
"u!	c #FBD0BD",
"v!	c #FBC7AA",
"w!	c #E7A27C",
"x!	c #A36F56",
"y!	c #5B5241",
"z!	c #4F422E",
"A!	c #382C21",
"B!	c #645648",
"C!	c #786656",
"D!	c #A18B7E",
"E!	c #D1A492",
"F!	c #ECB19C",
"G!	c #FBC9B8",
"H!	c #FDDACE",
"I!	c #DDBAB7",
"J!	c #8D678A",
"K!	c #573686",
"L!	c #674697",
"M!	c #6A489A",
"N!	c #765298",
"O!	c #CBA7B3",
"P!	c #FAC8B3",
"Q!	c #FBC7B2",
"R!	c #DFB7BA",
"S!	c #C99692",
"T!	c #E38B36",
"U!	c #F5A917",
"V!	c #DA8832",
"W!	c #91535E",
"X!	c #502E6E",
"Y!	c #4B2966",
"Z!	c #452462",
"`!	c #351659",
" ~	c #8B5B6D",
".~	c #D39688",
"+~	c #EBAD99",
"@~	c #F1B39E",
"#~	c #F3B399",
"$~	c #F6B292",
"%~	c #F8B18B",
"&~	c #F9AD80",
"*~	c #F9A97C",
"=~	c #F7A676",
"-~	c #F6A67A",
";~	c #F5A882",
">~	c #F6AC8A",
",~	c #F8B295",
"'~	c #F9C6B4",
")~	c #FACDBB",
"!~	c #FBD2C1",
"~~	c #FCD0B9",
"{~	c #E4B093",
"]~	c #976F58",
"^~	c #574D3A",
"/~	c #4C3F2C",
"(~	c #000003",
"_~	c #7A7773",
":~	c #9B9189",
"<~	c #9C8E83",
"[~	c #C7A495",
"}~	c #EEBAA9",
"|~	c #FBCDBD",
"1~	c #EAC7C0",
"2~	c #A27F92",
"3~	c #51307E",
"4~	c #654493",
"5~	c #6A479B",
"6~	c #9A76A6",
"7~	c #E0B9BB",
"8~	c #FCD2C0",
"9~	c #FAC8B2",
"0~	c #FAC6B0",
"a~	c #FCCAB6",
"b~	c #DCB5BB",
"c~	c #C08591",
"d~	c #DE7835",
"e~	c #E4AF21",
"f~	c #F2970D",
"g~	c #D8752B",
"h~	c #93505C",
"i~	c #4F2E6D",
"j~	c #4A2864",
"k~	c #442361",
"l~	c #3E205D",
"m~	c #8A5A6C",
"n~	c #D3968A",
"o~	c #EBAD9A",
"p~	c #EDB09D",
"q~	c #F0B39E",
"r~	c #F5B396",
"s~	c #F8AF89",
"t~	c #F7A97F",
"u~	c #ED9D75",
"v~	c #E3926C",
"w~	c #E48F69",
"x~	c #E88E63",
"y~	c #EE9465",
"z~	c #F19E73",
"A~	c #F2A681",
"B~	c #F5AF90",
"C~	c #F8B8A0",
"D~	c #FCD6C5",
"E~	c #F1C6B0",
"F~	c #B18E78",
"G~	c #665641",
"H~	c #5F4E39",
"I~	c #3B2F26",
"J~	c #716457",
"K~	c #867365",
"L~	c #9D867B",
"M~	c #DBB8AA",
"N~	c #F8CFC0",
"O~	c #FBD6C8",
"P~	c #FCDBCD",
"Q~	c #F4D2C8",
"R~	c #B4939E",
"S~	c #512C7A",
"T~	c #5F3F8C",
"U~	c #6B489B",
"V~	c #A782AB",
"W~	c #E8C0BE",
"X~	c #FCD3C1",
"Y~	c #FBCDBB",
"Z~	c #FACBB7",
"`~	c #FCCEBB",
" {	c #D7B2BC",
".{	c #B8798B",
"+{	c #DD7530",
"@{	c #A7866C",
"#{	c #C78F64",
"${	c #E5A642",
"%{	c #F2A61E",
"&{	c #F08B03",
"*{	c #D67030",
"={	c #904F5C",
"-{	c #4B2B69",
";{	c #472561",
">{	c #41215D",
",{	c #3A1C58",
"'{	c #341557",
"){	c #87586C",
"!{	c #D09489",
"~{	c #EAAC99",
"{{	c #ECAF9C",
"]{	c #F0B29E",
"^{	c #F3B39B",
"/{	c #F6B190",
"({	c #F3A77F",
"_{	c #E49570",
":{	c #C88569",
"<{	c #A7765E",
"[{	c #9A6F58",
"}{	c #AA7C67",
"|{	c #C88669",
"1{	c #E29067",
"2{	c #EE9F7A",
"3{	c #F3AD8F",
"4{	c #FBCFC1",
"5{	c #FBD7CB",
"6{	c #FCDCD1",
"7{	c #FDDDD2",
"8{	c #FBD9CC",
"9{	c #E6C3B5",
"0{	c #BB9B8E",
"a{	c #A58577",
"b{	c #AE8E7D",
"c{	c #BF9D8E",
"d{	c #D0AC9F",
"e{	c #E3BFB3",
"f{	c #F5D0C3",
"g{	c #FBD7CA",
"h{	c #FADACD",
"i{	c #C0A0A7",
"j{	c #59307B",
"k{	c #5E3E8C",
"l{	c #6B489C",
"m{	c #A27CA8",
"n{	c #E4BDBB",
"o{	c #FCD3C2",
"p{	c #FBD0BF",
"q{	c #FACAB6",
"r{	c #CEABBB",
"s{	c #B77E84",
"t{	c #E69430",
"u{	c #736583",
"v{	c #7C5385",
"w{	c #976B78",
"x{	c #C37E56",
"y{	c #E58124",
"z{	c #D97228",
"A{	c #934F56",
"B{	c #452564",
"C{	c #44235F",
"D{	c #42215F",
"E{	c #3B1D59",
"F{	c #351758",
"G{	c #7A4E68",
"H{	c #C98E86",
"I{	c #EAAB99",
"J{	c #F4B196",
"K{	c #F6AB85",
"L{	c #E59672",
"M{	c #B97F67",
"N{	c #846655",
"O{	c #6B5642",
"P{	c #6E5C44",
"Q{	c #705C49",
"R{	c #856651",
"S{	c #BD7E5C",
"T{	c #E59977",
"U{	c #F9C4B3",
"V{	c #FACEC1",
"W{	c #FBD3C6",
"X{	c #FBD4C8",
"Y{	c #FBD6CA",
"Z{	c #FCD8CA",
"`{	c #FBDDD3",
" ]	c #F2D4CA",
".]	c #EDCEC3",
"+]	c #EFCFC2",
"@]	c #F3D0C3",
"#]	c #F7D3C6",
"$]	c #FBD6C9",
"%]	c #FCDED2",
"&]	c #FEE0D2",
"*]	c #C9A9AD",
"=]	c #64397B",
"-]	c #5C3C89",
";]	c #684599",
">]	c #9B76A7",
",]	c #E1BBBC",
"']	c #FCD5C4",
")]	c #FBD2C2",
"!]	c #FACCBA",
"~]	c #F6CCC1",
"{]	c #C29FB4",
"]]	c #BF8878",
"^]	c #F1AC28",
"/]	c #B29390",
"(]	c #926690",
"_]	c #664286",
":]	c #7B4E7D",
"<]	c #A75E63",
"[]	c #C0673D",
"}]	c #954F4D",
"|]	c #40205F",
"1]	c #44225E",
"2]	c #371959",
"3]	c #683F64",
"4]	c #C08885",
"5]	c #EAAB9B",
"6]	c #ECAE9C",
"7]	c #F0B19C",
"8]	c #F5B092",
"9]	c #ED9E78",
"0]	c #CE8A6E",
"a]	c #927062",
"b]	c #5A503E",
"c]	c #50432F",
"d]	c #382C22",
"e]	c #68594B",
"f]	c #796756",
"g]	c #9E6D50",
"h]	c #DC9C82",
"i]	c #F6BEAC",
"j]	c #F8C4B3",
"k]	c #F8C3B2",
"l]	c #FAC6B1",
"m]	c #FCD9CD",
"n]	c #FDE0D7",
"o]	c #FDE2DA",
"p]	c #FCDED4",
"q]	c #FBD6CB",
"r]	c #FBD8CD",
"s]	c #FDE0D6",
"t]	c #FFE3D7",
"u]	c #D3B4B3",
"v]	c #764E80",
"w]	c #593989",
"x]	c #644295",
"y]	c #9774A5",
"z]	c #E0BCBC",
"A]	c #FDD7C5",
"B]	c #FCD1C0",
"C]	c #E8C1C0",
"D]	c #B590A7",
"E]	c #CD9365",
"F]	c #F6B31C",
"G]	c #D6AC91",
"H]	c #D8A29E",
"I]	c #A57791",
"J]	c #664085",
"K]	c #623A78",
"L]	c #79425E",
"M]	c #6B3857",
"N]	c #42215E",
"O]	c #3E1D59",
"P]	c #3C1C57",
"Q]	c #361957",
"R]	c #522D5E",
"S]	c #B57F81",
"T]	c #E7A898",
"U]	c #EBAD9B",
"V]	c #EFB19D",
"W]	c #F6B092",
"X]	c #E69772",
"Y]	c #BD8771",
"Z]	c #816F65",
"`]	c #544835",
" ^	c #473B2A",
".^	c #00000B",
"+^	c #85817C",
"@^	c #9C928A",
"#^	c #A77D6A",
"$^	c #E2AC99",
"%^	c #F8C3B3",
"&^	c #F5BDAB",
"*^	c #F6BCA9",
"=^	c #F8C0AD",
"-^	c #FBCCBC",
";^	c #FCDCD3",
">^	c #FDE0D8",
",^	c #FCE1D8",
"'^	c #FCDACF",
")^	c #FCD7CD",
"!^	c #FBD6CC",
"~^	c #FCD7CE",
"{^	c #FCDCD5",
"]^	c #FFE4D9",
"^^	c #D6B6B4",
"/^	c #7D5681",
"(^	c #5B3B8B",
"_^	c #654394",
":^	c #84619D",
"<^	c #D6BAC0",
"[^	c #FEE2D4",
"}^	c #FBD4C7",
"|^	c #D3B0BC",
"1^	c #AD768E",
"2^	c #DC984A",
"3^	c #D59B70",
"4^	c #E6A38C",
"5^	c #D19694",
"6^	c #905F84",
"7^	c #4D2C76",
"8^	c #472666",
"9^	c #412058",
"0^	c #3D1D57",
"a^	c #3D1C57",
"b^	c #3B1B56",
"c^	c #3C1C59",
"d^	c #391A58",
"e^	c #3E1C5B",
"f^	c #A06E78",
"g^	c #DEA092",
"h^	c #EFB19E",
"i^	c #F5B194",
"j^	c #E79A76",
"k^	c #BE8B77",
"l^	c #83766C",
"m^	c #63533E",
"n^	c #5E4D38",
"o^	c #352B23",
"p^	c #766A5D",
"q^	c #947B6D",
"r^	c #C29587",
"s^	c #F2BEAF",
"t^	c #F6C1B2",
"u^	c #F4BCAB",
"v^	c #F5BEB0",
"w^	c #F8C2B3",
"x^	c #F9C7B6",
"y^	c #FACFC3",
"z^	c #FBD5CA",
"A^	c #FCDAD1",
"B^	c #FCDED6",
"C^	c #FCE0D7",
"D^	c #FCDFD7",
"E^	c #FBD7CD",
"F^	c #FBD5CC",
"G^	c #FBD2CA",
"H^	c #FBD3CB",
"I^	c #FCD9D2",
"J^	c #FCDFD8",
"K^	c #FEE0D4",
"L^	c #D5B2B0",
"M^	c #7C5383",
"N^	c #684697",
"O^	c #7F5D9E",
"P^	c #D2BEC9",
"Q^	c #FFEDE6",
"R^	c #FDE7E0",
"S^	c #FCDFD4",
"T^	c #E9C4C4",
"U^	c #B98FA7",
"V^	c #C47267",
"W^	c #EE9D21",
"X^	c #D6955F",
"Y^	c #DF8E6B",
"Z^	c #DC957F",
"`^	c #B67C81",
" /	c #653B70",
"./	c #402166",
"+/	c #361955",
"@/	c #34174E",
"#/	c #3C1C56",
"$/	c #3F1E5B",
"%/	c #3E1D5B",
"&/	c #3B1B59",
"*/	c #39185C",
"=/	c #82536B",
"-/	c #CE938B",
";/	c #ECAF9E",
">/	c #EEB09E",
",/	c #F3B096",
"'/	c #EFA482",
")/	c #CA927B",
"!/	c #8D7C71",
"~/	c #655A4A",
"{/	c #654F3C",
"]/	c #6D5642",
"^/	c #8A6754",
"//	c #C19182",
"(/	c #EAB6A9",
"_/	c #F6C1B4",
":/	c #F2BBAC",
"</	c #F0B9AA",
"[/	c #F3BDB1",
"}/	c #F6C1B5",
"|/	c #F8C0AE",
"1/	c #F9BDA3",
"2/	c #F7C7BB",
"3/	c #F8CDC3",
"4/	c #FAD1C8",
"5/	c #FBD4CB",
"6/	c #FBD7CE",
"7/	c #FBD7CF",
"8/	c #FAD0C6",
"9/	c #FACEC5",
"0/	c #FACFC6",
"a/	c #FBD4CD",
"b/	c #FCDBD3",
"c/	c #FDDCCF",
"d/	c #D1ABA9",
"e/	c #754B81",
"f/	c #5E3E8F",
"g/	c #694798",
"h/	c #725098",
"i/	c #C9B3C4",
"j/	c #FDEAE6",
"k/	c #FDE8E2",
"l/	c #F0CDC9",
"m/	c #C29CB2",
"n/	c #BD727D",
"o/	c #E5852F",
"p/	c #F4A414",
"q/	c #DA9A66",
"r/	c #E08E69",
"s/	c #D68766",
"t/	c #C57E6F",
"u/	c #8A566D",
"v/	c #3F1E61",
"w/	c #351757",
"x/	c #33154F",
"y/	c #43215F",
"z/	c #422160",
"A/	c #3B1C5A",
"B/	c #351656",
"C/	c #5E365F",
"D/	c #BB8381",
"E/	c #E9AB9A",
"F/	c #F0AE98",
"G/	c #F3AD91",
"H/	c #E29F86",
"I/	c #B68D7F",
"J/	c #8E786D",
"K/	c #967060",
"L/	c #BC8978",
"M/	c #D9A394",
"N/	c #EEB9AB",
"O/	c #F5C1B3",
"P/	c #F1BAAC",
"Q/	c #EDB6A7",
"R/	c #EEB8AA",
"S/	c #F0BDB0",
"T/	c #F2BFB5",
"U/	c #F5C0B1",
"V/	c #F7BCA4",
"W/	c #F6BCA6",
"X/	c #F4C2B6",
"Y/	c #F5C8C0",
"Z/	c #F5CBC3",
"`/	c #F6CDC6",
" (	c #F7CFC8",
".(	c #F7CFC9",
"+(	c #F6C9C1",
"@(	c #F7C7BE",
"#(	c #F9C8BF",
"$(	c #FACCC2",
"%(	c #FBD1C8",
"&(	c #FBD6CD",
"*(	c #FAD3C5",
"=(	c #C49CA1",
"-(	c #60387D",
";(	c #5E3F8E",
">(	c #664593",
",(	c #5E3C88",
"'(	c #BCA1B6",
")(	c #F9DDDA",
"!(	c #FDDFD7",
"~(	c #EFCCCA",
"{(	c #C39FB6",
"](	c #B87989",
"^(	c #DF7D41",
"/(	c #F1980D",
"((	c #DB9C69",
"_(	c #E4916D",
":(	c #D58360",
"<(	c #CB7B5F",
"[(	c #AD6A68",
"}(	c #6C3F65",
"|(	c #371758",
"1(	c #321551",
"2(	c #371853",
"3(	c #41205D",
"4(	c #432261",
"5(	c #3C1D5B",
"6(	c #351856",
"7(	c #42205B",
"8(	c #A87478",
"9(	c #E2A494",
"0(	c #EBAC9A",
"a(	c #EDAB97",
"b(	c #EFAC95",
"c(	c #ECA991",
"d(	c #E2A490",
"e(	c #DBA390",
"f(	c #DFA693",
"g(	c #EBB2A1",
"h(	c #F1BBAC",
"i(	c #EDB5A7",
"j(	c #EBB5A7",
"k(	c #EBB8AC",
"l(	c #ECBBB1",
"m(	c #EDBDB4",
"n(	c #F1BEB3",
"o(	c #F4BEAC",
"p(	c #F0B9A5",
"q(	c #EBB7AA",
"r(	c #EBBDB6",
"s(	c #EABFB9",
"t(	c #E5B9B4",
"u(	c #DCB0AC",
"v(	c #D2AAA6",
"w(	c #D6B0AB",
"x(	c #E9BCB5",
"y(	c #F3C0B8",
"z(	c #F5C2B9",
"A(	c #F8C8BF",
"B(	c #FBD2C7",
"C(	c #EFC3B6",
"D(	c #AE8492",
"E(	c #4E2B7A",
"F(	c #60408F",
"G(	c #63438E",
"H(	c #A989A7",
"I(	c #EAC6CB",
"J(	c #E2BEC4",
"K(	c #BF97A9",
"L(	c #C39183",
"M(	c #E3A04F",
"N(	c #F3A61E",
"O(	c #DA9C6A",
"P(	c #E59470",
"Q(	c #D98968",
"R(	c #CC7C5E",
"S(	c #C37962",
"T(	c #AC6E6E",
"U(	c #744865",
"V(	c #3B1B57",
"W(	c #361854",
"X(	c #3D1D59",
"Y(	c #3F205F",
"Z(	c #341455",
"`(	c #83566A",
" _	c #CE9489",
"._	c #EAAA98",
"+_	c #EAA996",
"@_	c #ECAA96",
"#_	c #EDAB98",
"$_	c #EEAD9A",
"%_	c #F0B19E",
"&_	c #F4B8A8",
"*_	c #F7C0B2",
"=_	c #F7C1B4",
"-_	c #F1BAAD",
";_	c #ECB4A6",
">_	c #EBB3A6",
",_	c #E9B4A8",
"'_	c #E9B6AC",
")_	c #E8B9B0",
"!_	c #E8BAB3",
"~_	c #E9B8AF",
"{_	c #E8B0A0",
"]_	c #D89D8A",
"^_	c #C38A7F",
"/_	c #BA8883",
"(_	c #AE837E",
"__	c #96716D",
":_	c #7B5D5B",
"<_	c #67504F",
"[_	c #987771",
"}_	c #DAA99F",
"|_	c #F2BBB0",
"1_	c #F2BDB4",
"2_	c #F5C4BC",
"3_	c #F8C9C1",
"4_	c #FBCCBE",
"5_	c #D8AAA2",
"6_	c #875E83",
"7_	c #4E2F7F",
"8_	c #614190",
"9_	c #5C3E84",
"0_	c #462A72",
"a_	c #7E5D99",
"b_	c #A47FAB",
"c_	c #B48497",
"d_	c #D2966B",
"e_	c #EBAB3E",
"f_	c #F5B125",
"g_	c #D99D6E",
"h_	c #E79876",
"i_	c #DE9171",
"j_	c #D18466",
"k_	c #C6785C",
"l_	c #C6806C",
"m_	c #B67B77",
"n_	c #7E5069",
"o_	c #401D59",
"p_	c #401F5D",
"q_	c #401F5E",
"r_	c #381957",
"s_	c #321453",
"t_	c #58335B",
"u_	c #B7807B",
"v_	c #E6A693",
"w_	c #E8A997",
"x_	c #EBAC9B",
"y_	c #EEAF9D",
"z_	c #F1B4A4",
"A_	c #F5B9AA",
"B_	c #F7BBAD",
"C_	c #F3BAAC",
"D_	c #ECB4A7",
"E_	c #E9B1A5",
"F_	c #E8B2A7",
"G_	c #E4B1A8",
"H_	c #E1B0A9",
"I_	c #DEAFAA",
"J_	c #DAAAA6",
"K_	c #CE9992",
"L_	c #B57D71",
"M_	c #8C5C4F",
"N_	c #68423C",
"O_	c #583A38",
"P_	c #4B3231",
"Q_	c #342220",
"R_	c #0D070B",
"S_	c #261815",
"T_	c #A5796E",
"U_	c #E6AEA1",
"V_	c #F0B9AE",
"W_	c #F0BBB1",
"X_	c #F2C0B8",
"Y_	c #F6C5B9",
"Z_	c #ECB8AA",
"`_	c #AD8086",
" :	c #553271",
".:	c #503180",
"+:	c #674492",
"@:	c #9A697A",
"#:	c #A77565",
"$:	c #A26C79",
"%:	c #BF6D69",
"&:	c #DA804A",
"*:	c #EEA22B",
"=:	c #D89E72",
"-:	c #E89C7C",
";:	c #E39879",
">:	c #D98D70",
",:	c #CB7D61",
"':	c #C4795E",
"):	c #C88371",
"!:	c #C28881",
"~:	c #9D6D74",
"{:	c #5F365D",
"]:	c #3E1D5D",
"^:	c #3E1E5C",
"/:	c #391A57",
"(:	c #321451",
"_:	c #391753",
"::	c #9C6A6F",
"<:	c #DB9D8D",
"[:	c #E9AB99",
"}:	c #E9AD9D",
"|:	c #EBAD9E",
"1:	c #EDAE9F",
"2:	c #F0B0A1",
"3:	c #F3AFA1",
"4:	c #F2B0A3",
"5:	c #EEB3A7",
"6:	c #E5B0A7",
"7:	c #E3B0A8",
"8:	c #DCABA5",
"9:	c #D09F9D",
"0:	c #BF8E8D",
"a:	c #A47674",
"b:	c #7F5652",
"c:	c #583631",
"d:	c #331B19",
"e:	c #11090D",
"f:	c #000207",
"g:	c #000206",
"h:	c #000307",
"i:	c #000308",
"j:	c #855F53",
"k:	c #D49C8D",
"l:	c #EDB5A8",
"m:	c #ECB9AF",
"n:	c #ECBAB0",
"o:	c #EEBCB2",
"p:	c #EDB8A9",
"q:	c #C28F8A",
"r:	c #6B4567",
"s:	c #381B60",
"t:	c #492D78",
"u:	c #834E82",
"v:	c #CD895C",
"w:	c #EAA836",
"x:	c #E59B3C",
"y:	c #E88423",
"z:	c #ED8104",
"A:	c #F3A013",
"B:	c #F6B31F",
"C:	c #F6B220",
"D:	c #F5B224",
"E:	c #F3B129",
"F:	c #F0AE32",
"G:	c #EFAE33",
"H:	c #D59C72",
"I:	c #E89D7E",
"J:	c #E69B7D",
"K:	c #E09477",
"L:	c #D5876B",
"M:	c #C87B60",
"N:	c #C2775F",
"O:	c #C98673",
"P:	c #C4867B",
"Q:	c #8E5C67",
"R:	c #46225B",
"S:	c #3C1C5A",
"T:	c #391955",
"U:	c #331550",
"V:	c #311353",
"W:	c #6B4261",
"X:	c #BF8781",
"Y:	c #E7AA99",
"Z:	c #E8AE9F",
"`:	c #E9AC9F",
" <	c #EBAB9E",
".<	c #EDA99C",
"+<	c #F0A89C",
"@<	c #EEACA1",
"#<	c #EAB0A6",
"$<	c #E5B1A9",
"%<	c #DFAFA8",
"&<	c #D9A8A2",
"*<	c #BE8E89",
"=<	c #936965",
"-<	c #6F4B4A",
";<	c #4F3130",
"><	c #311917",
",<	c #1B0A0A",
"'<	c #18090A",
")<	c #19090A",
"!<	c #17080A",
"~<	c #130809",
"{<	c #070206",
"]<	c #765245",
"^<	c #CA9280",
"/<	c #EAB1A2",
"(<	c #ECB9B0",
"_<	c #E9B9B1",
":<	c #E8B6AC",
"<<	c #E3AEA3",
"[<	c #BE8B87",
"}<	c #744D62",
"|<	c #391956",
"1<	c #341959",
"2<	c #432668",
"3<	c #875470",
"4<	c #C68862",
"5<	c #DEA051",
"6<	c #DD994C",
"7<	c #D07D52",
"8<	c #C46E62",
"9<	c #C4806E",
"0<	c #C38D73",
"a<	c #BF8977",
"b<	c #B6827C",
"c<	c #AC7C84",
"d<	c #A9798C",
"e<	c #A9798D",
"f<	c #C9956E",
"g<	c #E5997C",
"h<	c #E3997B",
"i<	c #DD9174",
"j<	c #D3866B",
"k<	c #C67A61",
"l<	c #BF765E",
"m<	c #C07B67",
"n<	c #A76966",
"o<	c #683B5C",
"p<	c #381856",
"q<	c #381954",
"r<	c #3D1B56",
"s<	c #9B676C",
"t<	c #D99B8A",
"u<	c #E6AA9B",
"v<	c #E6AB9E",
"w<	c #E7A99D",
"x<	c #E8A69C",
"y<	c #EBAAA0",
"z<	c #ECAEA5",
"A<	c #E8B0A7",
"B<	c #E4B1AB",
"C<	c #E3B3AE",
"D<	c #C69A93",
"E<	c #825D56",
"F<	c #4A2E28",
"G<	c #38201A",
"H<	c #311D16",
"I<	c #321D17",
"J<	c #321D18",
"K<	c #301B16",
"L<	c #2D1814",
"M<	c #351E18",
"N<	c #7B5447",
"O<	c #C58B78",
"P<	c #E8AB99",
"Q<	c #EBB7AD",
"R<	c #E6B8B1",
"S<	c #E3B1A7",
"T<	c #DCA598",
"U<	c #B6827D",
"V<	c #6C465B",
"W<	c #35184D",
"X<	c #442862",
"Y<	c #593A7B",
"Z<	c #634189",
"`<	c #754E90",
" [	c #895E90",
".[	c #92678F",
"+[	c #94658F",
"@[	c #8E5C90",
"#[	c #885795",
"$[	c #855996",
"%[	c #845C98",
"&[	c #825B9A",
"*[	c #7C569A",
"=[	c #76519B",
"-[	c #77529F",
";[	c #7B56A1",
">[	c #AD8368",
",[	c #DD947A",
"'[	c #E59C7D",
")[	c #E59C7E",
"![	c #E2987A",
"~[	c #DB9074",
"{[	c #D1856B",
"][	c #C47961",
"^[	c #BC725B",
"/[	c #B46B59",
"([	c #8F5157",
"_[	c #532A54",
":[	c #381852",
"<[	c #371854",
"[[	c #341754",
"}[	c #311453",
"|[	c #6A3F5B",
"1[	c #BA7E75",
"2[	c #DEA08F",
"3[	c #E0A69A",
"4[	c #E1A79D",
"5[	c #E1A69E",
"6[	c #E3A9A2",
"7[	c #E6AEA6",
"8[	c #E5AFA7",
"9[	c #E5B1AA",
"0[	c #E8B5AC",
"a[	c #DFA99C",
"b[	c #B78474",
"c[	c #82594B",
"d[	c #5C3B30",
"e[	c #4A3026",
"f[	c #482E25",
"g[	c #472E24",
"h[	c #4F3329",
"i[	c #764D3F",
"j[	c #AA725F",
"k[	c #D18F7B",
"l[	c #E5A28F",
"m[	c #DFABA3",
"n[	c #DBA59B",
"o[	c #CB9186",
"p[	c #A06D6B",
"q[	c #6D4666",
"r[	c #62407D",
"s[	c #6D4B8E",
"t[	c #6E4C94",
"u[	c #6D4A96",
"v[	c #6C4897",
"w[	c #6A4798",
"x[	c #674597",
"y[	c #654395",
"z[	c #684497",
"A[	c #6B4899",
"B[	c #694696",
"C[	c #6D499B",
"D[	c #694695",
"E[	c #664492",
"F[	c #6B4897",
"G[	c #6B4998",
"H[	c #927562",
"I[	c #C18276",
"J[	c #E19A7D",
"K[	c #E59C7F",
"L[	c #E39A7D",
"M[	c #DF9579",
"N[	c #D88E75",
"O[	c #CF856C",
"P[	c #C47A62",
"Q[	c #BA7059",
"R[	c #AE6553",
"S[	c #8D4F54",
"T[	c #562D50",
"U[	c #351651",
"V[	c #371956",
"W[	c #3D1D54",
"X[	c #835260",
"Y[	c #C18579",
"Z[	c #D89C8D",
"`[	c #DAA197",
" }	c #DAA29B",
".}	c #D9A39E",
"+}	c #DCA8A3",
"@}	c #E0ACA5",
"#}	c #E2ADA5",
"$}	c #E5AFA6",
"%}	c #E5AEA3",
"&}	c #DDA598",
"*}	c #D29687",
"=}	c #C68875",
"-}	c #BA7E6A",
";}	c #AD7562",
">}	c #A8715F",
",}	c #AD7461",
"'}	c #BB7D69",
")}	c #CD8973",
"!}	c #DC937D",
"~}	c #E69C88",
"{}	c #DF9D8F",
"]}	c #CE938A",
"^}	c #C68A81",
"/}	c #B97E7C",
"(}	c #9C677F",
"_}	c #7A5089",
":}	c #6B4790",
"<}	c #6D4895",
"[}	c #6F4B99",
"}}	c #5D3B8A",
"|}	c #624090",
"1}	c #5F3D8D",
"2}	c #664594",
"3}	c #5E3D8D",
"4}	c #5F3E8D",
"5}	c #5D3C8A",
"6}	c #5F3F8D",
"7}	c #644292",
"8}	c #634191",
"9}	c #A86E49",
"0}	c #A76E69",
"a}	c #CE8E7A",
"b}	c #E29C81",
"c}	c #E39D81",
"d}	c #E19B80",
"e}	c #DD987F",
"f}	c #D79077",
"g}	c #CC836B",
"h}	c #C07760",
"i}	c #B76D55",
"j}	c #AA6151",
"k}	c #7B424E",
"l}	c #38154B",
"m}	c #371753",
"n}	c #351654",
"o}	c #2D104D",
"p}	c #442250",
"q}	c #88575F",
"r}	c #BD8176",
"s}	c #CF9387",
"t}	c #D19990",
"u}	c #D19C95",
"v}	c #D39F9B",
"w}	c #D6A39F",
"x}	c #D9A6A0",
"y}	c #DBA9A3",
"z}	c #DCABA4",
"A}	c #DBA8A1",
"B}	c #DBA39A",
"C}	c #DE9F92",
"D}	c #DF9E8D",
"E}	c #DD9A87",
"F}	c #DB9480",
"G}	c #DB927C",
"H}	c #DE937D",
"I}	c #E1937F",
"J}	c #E09482",
"K}	c #D79387",
"L}	c #C18588",
"M}	c #AC7386",
"N}	c #A0698F",
"O}	c #8F5F96",
"P}	c #7F5499",
"Q}	c #734D9B",
"R}	c #724D9D",
"S}	c #6F4A9A",
"T}	c #684495",
"U}	c #50327F",
"V}	c #4F317D",
"W}	c #583887",
"X}	c #5E3D8C",
"Y}	c #573787",
"Z}	c #624092",
"`}	c #CF751D",
" |	c #BB684F",
".|	c #B07672",
"+|	c #D49480",
"@|	c #E09C82",
"#|	c #E19D83",
"$|	c #DF9C83",
"%|	c #DA947C",
"&|	c #D38A72",
"*|	c #C98069",
"=|	c #BD745E",
"-|	c #B56B54",
";|	c #A15A4E",
">|	c #6C3749",
",|	c #37154A",
"'|	c #31134C",
")|	c #2C0F49",
"!|	c #290C49",
"~|	c #44234C",
"{|	c #7A4D5A",
"]|	c #AC736D",
"^|	c #C48A80",
"/|	c #C99289",
"(|	c #CB958F",
"_|	c #CE9A95",
":|	c #D29E9B",
"<|	c #D5A29E",
"[|	c #D4A29D",
"}|	c #D09E9A",
"||	c #CA9693",
"1|	c #C58F8C",
"2|	c #C68E87",
"3|	c #CC9086",
"4|	c #D49386",
"5|	c #D69283",
"6|	c #D48D80",
"7|	c #CD8780",
"8|	c #C08088",
"9|	c #AB7594",
"0|	c #96679D",
"a|	c #8D60A0",
"b|	c #8359A1",
"c|	c #7952A0",
"d|	c #714B9B",
"e|	c #6A4596",
"f|	c #654292",
"g|	c #533582",
"h|	c #4B2E79",
"i|	c #4E307C",
"j|	c #4F307C",
"k|	c #4C2E79",
"l|	c #4F307B",
"m|	c #573884",
"n|	c #573885",
"o|	c #5B3B88",
"p|	c #5C3C8C",
"q|	c #E07527",
"r|	c #B6685A",
"s|	c #B27976",
"t|	c #D3937E",
"u|	c #DC9981",
"v|	c #DD9A81",
"w|	c #DB977E",
"x|	c #D8927A",
"y|	c #D18A73",
"z|	c #C77F69",
"A|	c #BE755F",
"B|	c #B76A52",
"C|	c #914F49",
"D|	c #492243",
"E|	c #260B3E",
"F|	c #290D41",
"G|	c #290D44",
"H|	c #250A44",
"I|	c #391A48",
"J|	c #633B52",
"K|	c #8D5D62",
"L|	c #AE7773",
"M|	c #BD857F",
"N|	c #C38B87",
"O|	c #C79290",
"P|	c #C79398",
"Q|	c #C4909A",
"R|	c #C28E95",
"S|	c #C08B8E",
"T|	c #BC8684",
"U|	c #B17B77",
"V|	c #A06B67",
"W|	c #94615F",
"X|	c #936060",
"Y|	c #9A6678",
"Z|	c #9D6A94",
"`|	c #9567A0",
" 1	c #8A61A4",
".1	c #825AA5",
"+1	c #7B55A2",
"@1	c #754F9E",
"#1	c #714C9D",
"$1	c #6F4A9B",
"%1	c #6A4698",
"&1	c #634192",
"*1	c #5F3D90",
"=1	c #573687",
"-1	c #4F307D",
";1	c #44286F",
">1	c #43276E",
",1	c #4A2C75",
"'1	c #4C2D78",
")1	c #53347F",
"!1	c #543683",
"~1	c #5A3A88",
"{1	c #ED7B03",
"]1	c #DA7430",
"^1	c #AC645C",
"/1	c #A97373",
"(1	c #CC8C7B",
"_1	c #D7947F",
":1	c #DA977F",
"<1	c #D9957E",
"[1	c #D58F79",
"}1	c #CF8873",
"|1	c #C7806C",
"11	c #A35C4D",
"21	c #693743",
"31	c #1F0833",
"41	c #1E0832",
"51	c #240B3B",
"61	c #250B3F",
"71	c #280F43",
"81	c #381D50",
"91	c #573464",
"01	c #764B71",
"a1	c #936282",
"b1	c #A26F96",
"c1	c #A0709E",
"d1	c #986CA1",
"e1	c #9267A0",
"f1	c #9469A0",
"g1	c #996C9F",
"h1	c #9A6B96",
"i1	c #926180",
"j1	c #7F4F5C",
"k1	c #724356",
"l1	c #764B7B",
"m1	c #7E5597",
"n1	c #7F57A0",
"o1	c #7C56A3",
"p1	c #7953A1",
"q1	c #75509E",
"r1	c #674495",
"s1	c #593988",
"t1	c #51317F",
"u1	c #4B2C77",
"v1	c #41256C",
"w1	c #3B2064",
"x1	c #41246A",
"y1	c #482B74",
"z1	c #4C2D77",
"A1	c #492C75",
"B1	c #52347F",
"C1	c #563684",
"D1	c #553682",
"E1	c #543583",
"F1	c #EC7B07",
"G1	c #D47031",
"H1	c #A65F53",
"I1	c #9D6866",
"J1	c #BE8073",
"K1	c #D08D7A",
"L1	c #D4907C",
"M1	c #D48E7A",
"N1	c #D28C78",
"O1	c #CC8775",
"P1	c #BF7B6A",
"Q1	c #AD6A61",
"R1	c #865063",
"S1	c #533262",
"T1	c #462D61",
"U1	c #4F336B",
"V1	c #543572",
"W1	c #583779",
"X1	c #5D3C83",
"Y1	c #67448D",
"Z1	c #724C94",
"`1	c #7C5499",
" 2	c #80569C",
".2	c #7C549F",
"+2	c #76509E",
"@2	c #704B99",
"#2	c #7853A0",
"$2	c #7E57A1",
"%2	c #81599D",
"&2	c #7A538F",
"*2	c #754D8B",
"=2	c #734C94",
"-2	c #6C4793",
";2	c #6A4693",
">2	c #6D4997",
",2	c #6C4797",
"'2	c #674494",
")2	c #654293",
"!2	c #5F3D8E",
"~2	c #5E3C8F",
"{2	c #5A3888",
"]2	c #44276F",
"^2	c #45276F",
"/2	c #452870",
"(2	c #3C2164",
"_2	c #391E61",
":2	c #42266C",
"<2	c #41246B",
"[2	c #482A72",
"}2	c #553782",
"|2	c #543582",
"12	c #50317D",
"22	c #563784",
"32	c #523380",
"42	c #EA7907",
"52	c #D97B2C",
"62	c #A5684C",
"72	c #7E525A",
"82	c #A06964",
"92	c #BC7D70",
"02	c #C78475",
"a2	c #C5847F",
"b2	c #B87B8A",
"c2	c #A16B8D",
"d2	c #8D5C8F",
"e2	c #7A4F90",
"f2	c #69458F",
"g2	c #63418C",
"h2	c #613E8A",
"i2	c #5F3C88",
"j2	c #64418E",
"k2	c #66428E",
"l2	c #6C4792",
"m2	c #6F4996",
"n2	c #68448E",
"o2	c #623F8A",
"p2	c #633F8D",
"q2	c #664291",
"r2	c #684493",
"s2	c #7551A0",
"t2	c #7A55A2",
"u2	c #7954A0",
"v2	c #6F4B97",
"w2	c #5F3C87",
"x2	c #5A3884",
"y2	c #5F3C8A",
"z2	c #644091",
"A2	c #633F91",
"B2	c #603D8E",
"C2	c #5F3C8E",
"D2	c #623F91",
"E2	c #603D8F",
"F2	c #5B3A8C",
"G2	c #583888",
"H2	c #4F2F7B",
"I2	c #482A74",
"J2	c #41256B",
"K2	c #3C2165",
"L2	c #42266B",
"M2	c #391E60",
"N2	c #462770",
"O2	c #422569",
"P2	c #50327B",
"Q2	c #4B2E78",
"R2	c #4D2F7A",
"S2	c #523481",
"T2	c #EE8E12",
"U2	c #DD912A",
"V2	c #A46635",
"W2	c #683A3F",
"X2	c #734856",
"Y2	c #915E7B",
"Z2	c #956292",
"`2	c #815491",
" 3	c #734A90",
".3	c #6A4591",
"+3	c #5B3987",
"@3	c #5A3883",
"#3	c #5C3981",
"$3	c #543374",
"%3	c #553573",
"&3	c #523271",
"*3	c #4E2E70",
"=3	c #52317A",
"-3	c #593783",
";3	c #654390",
">3	c #714D9C",
",3	c #734F9E",
"'3	c #73509C",
")3	c #63428A",
"!3	c #51317A",
"~3	c #573683",
"{3	c #5A3886",
"]3	c #593785",
"^3	c #583686",
"/3	c #5A3887",
"(3	c #563582",
"_3	c #593887",
":3	c #371C5E",
"<3	c #3F2266",
"[3	c #3F2368",
"}3	c #391D61",
"|3	c #3E2266",
"13	c #402468",
"23	c #41266A",
"33	c #492A74",
"43	c #4C2E7C",
"53	c #482B78",
"  . + + @ # $ % % & * = - ; > , ' ) ! ~ ~ { ] ^ / ( ; _ : < [ } | % % % % % 1 2 3 + + + + + + + + + 4 5 % % % % % % % 6 7 + 7 8 ",
"9 0 a a b c d e f g h i j k l m n o o p q r s t u v w x y z A B C D D D D E F G a a a a a a a a a H I J D D D D D D K L M b N E ",
"9 0 a O P Q R S T U V W X Y Z n ` o q  ...+.@.#.$.%.&.*.=.-.;.>.,.D D D D '.).!.~.H a a a a a a {.].E D D D D D D D K ^./.(._.D ",
":.<.[.}.|.1.2.3.4.5.X 6.Z 7.8.7.9.0.a.b.c.d.e.f.g.h.i.j.k.l.m.n.o.p.o.o.o.q.r.s.t.u.O a a a a a v./.D D D D D D D D D w.x.y.z.A.",
"B.C.D.E.F.G.H.I.J.p K.9.o L.M.N.O.P.Q.R.S.S.T.U.v V.W.X.Y.Z.`.,.D o.D D  +.+++K K @+#+a a O $+%+&+*+K D D D D D D D D =+-+~.~.~.",
";+>+,+'+)+!+l ~+{+]+^+^+/+(+_+:+<+[+}+|+1+2+3+4+5+6+7+8+9+0+a+D D D D K b+c+d+e+f+g+{.a h+F s.g+i+j+K D D D D D D D D k+l+m+#+n+",
"o+p+q+r+s+t+u+9.v+/+w+x+y+z+A+B+C+D+n+|+E+F+G+H+I+J+K+L+M+N+,.D D D D K O+P+%+c+Q+#+a a h+R+g+S+T+U+K D D D D D D D D V+W+X+m+n+",
"Y+Z+`+ @.@+@9.@@#@$@%@&@*@=@D K -@;@n+>@,@'@)@!@~@{@]@^@/@(@_@o.o.:@<@t.'.[@T+a h+a a a a G M a ~.}@K D D D D D D D D D D |@F n+",
"1@2@3@4@5@6@7@8@9@0@a@b@c@:@d@K (.e@f@g@h@i@j@3@k@l@m@n@o@p@q@m+r@S+T+s@E _.t@G a a a a a H s@j+u@v@D D D D D D D  +:@.+K -@w@n+",
"x@y@z@A@B@C@D@E@F@G@H@I@J@K@L@M@N@G O@P@Q@R@S@T@U@]@V@W@X@a a {.Y@r@R+R+:@o.Z@{.a a a a a e@(.D p.`@ # +D D D D K .#+#N  +@###a ",
"$#%#&#*#v =#-#;#>#,#'#)#!#~#{#]#^#/#(#_#:#<#[#}#|#1#2#3#4#a a a T+@+5#q@6#].b a a a a a a e@(.K 7#8#9#0#K D D D p.[@{.T+a#b#a a ",
"c#d#e#f#g#h#i#=#j#k#l#m#n#o#p#q#r#s#t#u#-#4+v#|#w#x#y#z#a a a a G c+S+{.G G a a a a a a a G m+A#c+a b 7#K D D D r.6#n+a h+a a a ",
"B#C#D#E#F#G#H#I#J#K#L#M#N#O#P#o#Q#R#S#T#U#}#V#W#X#Y#Z#1+a a a a a {.h+a a a a a a a a a a a M H {.T+N _.t.g+`#o. $+#n+a a a a a ",
".$+$@$#$$$%$&$*$=$-$;$>$,$'$)$!$~${$]$^$/$($_$:$<$[$}$a a a a a a a a a a a a a a a a a a a a a |$u._.K c P+6#1$E m+n+a a a a a ",
"2$3$4$5$6$7$8$9$0$a$b$c$d$e$f$g$h$i$j$k$l$m$n$S@o$p$q$T+r$+#q@{.a a a a a a a a a a a a a a a a H s$K K t${.8# #D u$H a a a a a ",
"9 0 a v$w$x$y$z$A$B$C$D$E$F$G$H$I$J$K$5.L$g$M$N$O$P$Q$c+R$-@(.w@a a a a a a a a a &+S$q@a a a a h+d+E T$U$a V$W$K .+r@X$a a a a ",
"9 0 G H v.Y$D+Z$`$ %.%+%@%#%$%H$%%&%Z K.*%W =%-%;%>%##m+r.K D c #+a a a a {.r@j+m++#,%Y$n+a a {.O T+c+Y$##n+r@'%K D N )%G Y@h+a ",
"9 G F (.!%{.a a ~%d+{%]%^%/%(%_%:%<%[%}%*%|%1%2%3%4%5%6%7%8%9%0%a%b%c%d%e%f%@+D 5#q@~.#+{.a a 6#g%h%O a a n+r@i%K D j%k%l%m%n%)%",
"o%b p%o.h%|+b q%q@V$`@r%s%t%u%v%w%x%y%z%A%B%C%D%E%F%G%H%I%J%K%L%M%N%O%P%Q%R%S%T%U%S$n%V%7#h%r$I D u$G #+w@S+S+7#p.W%D+U$_.D X%s$",
"Y%V%(.(.S+&+@+d@Z%r$S+a#v.{.`% &.&+&@&#&$&%&&&*&=&-&;&>&,&'&)&)&!&~&{&]&^&/&(&_&:&<&[& +o.E @+}@:@a#T+N d@}&~.b#a#!.{.d+_.D o. +",
"|&v@ +@+1&u$ +p.I G a a a a T+2&3&4&5&6&7&8&9&0&a&b&c&d&E@E@e&f&g&O#h&i&j&k&l&m&n&o&p&q&D D  + +r&D+).s&D @###a a a a T+s@N c r.",
"|&,.D ++ # #r&h%v.a a a a a |+t&u&v&w&x&y&z&A&B&C&D&E&F&G&G&H&H&I&J&K&j$~@V j&L&M&N&O&P&Q&D D D J `@R&S&[@T&h+a a a a a O H 8#}@",
"|&,.D K }@R+v.O a a a a a U&V&W&X&Y&Z&`& *.*+*@*#*$*%*&***=*-*;*>*,*'*)*!*~*{*]*^*/*(*_*:*<*[*D K `@n%v.H h+a a a a {.h+a a T+}*",
"|&,.D K r&&+n+a a a a a |*1*2*3*4*5*6*7*8*9*0*a*b*c*d*e*f*g*h*i*j*k*l*m*n*o*p*q*r*s*t*u*v*w*x*,.K :@9#n+a }+y*z*A*B*C*0#N !.{.u.",
"|&,.D K r&+#w@U$S+a |+D*E*F*G*H*I*7*6+J*K*L*M*N*O*P*Q*R*S*T*U*V*W*X*Y*Z*`* =.=+=F&@=#=$=%=&=*===K `@m+Y$-=;=>=,='=)=!=~={=Y@n+n%",
"|&,.D K c ]=u.^=h%{./=(=_=:=<=[=}=|=8.1=2=3=4=5=6=7=S*8=9=0=a=b=c=d=e=f=f=g=h=i=j=k=l=m=n=o=p=q=r=s=8#t=u=v=w=x=y=z=A=B=C=1+1&b+",
"|&,.D K  #D=c+V$E=F=G=H=I=J=K=L=M=N=O=P=Q=R=S=T=U=V=W=X=Y=Z=`= -.-+-@-e=#-$-%-&-*-=---;-i&/*>-,-'-)-!-~-{-]-^-/-(-_-:-<-[-}-`@|-",
"1-2-3-s. +r.].a 4-5-6-7-8-9-0-a-b-c-d-e-f-g-h-i-j-V=k-k-l-m-Z=n-a=.-c=d=o-(-p-q-r-s-t-u-E@v-w-x-y-z-A-B-C-D-E-F-G-H-I-J-K-L-D r.",
"M-N-8#h%x. +s@3$O-P-Q-R-S-T-U-V-W-X-Y-Z-g-h-i-`- ;.;+;.;@;#;9=m-$;n- -+-d=%;%-&;*;=;-;;;>;,;';);!;~;{;];^;/;(;_;:;<;H-[;};|;,.7#",
"1;2;m+T+h%g+b F=3;4;5;6;7;8;F#9;0;a;Z-g-b;c;d;d;j- ; ;e;e;f;k-l-9=m-a=.-+-e=#-g;h;i;j;k;l;m;n;o;p;q;r;s;t;u;v;w;x;y;z;A;B;C;D;D+",
"E;2;W$F;H |$G;H;I;J;K;L;M;N;O;P;Q;R;S;T;U;i-V;V;d; ; ; ; ;.;k-X=X=W;X;Y;Z;+-e=(-`; >.>i;+>@>#>$>%>&>*>=>->;>>>,>'>)>!>~>{>]>^>/>",
"(>O+D 0#e@|+!-_>:><>[>}>|>1>2>3>4>5>6>7>h-i-i-i-d;j-d;d;j-.;k-8>8>8>W;9>U*0>a>e=#-p-*;b>c>d>e>f>g>h>i>j>n$k>l>m>n>o>p>q>r>s>t>>@",
"u>v>w>x>y>|+z>A>B>C>D>E>F>G>H>I>J>K>R*L>M>M>M>N>h-i-c;O>c;j-.;V=8>P>8=Q>R>S>T>U>V>W>X> >b>Y>Z>`> ,.,u*+,@,#,$,%,&,*,=,-,;,>,,,',",
"9 ),V$!,~,O@{,],^,/,(,_,:,<,[,},|,1,2,3,4,5,5,5,7>O>O>6,O>j-7,8,W;T*9,0,a,b,b,c,d,e,f,g,h,b>i,j,k,o;u*l,m,n,o,p,q,r,s,t,u,v,w,',",
"9 0 a a a x,y,z,A,B,C,D,E,F,G,H,I,J,K,L,M,N,O,P,Q,R,b;h-h-V;7,k-m-S,T,U,V,W,X,y;Y,Z,`, '.'.>+'@'#'$'%'&'*'='-';'X;>',''')'!'~'4-",
"9 0 a #+{']'^'/'('_':'a$<'['}'|'1'2'3'4'5'6'7'7'8'9'0'O>h-c;V;8,0=a'b'c'd'e'f'g'h'i'j'`,Z;k'l'm'n'o'p'q'r'l@s't'u'v'w'x'9=y'z'A'",
"9 0 n+a#B'C'D'E'F'G'H'H$I'J'K'L'M'N'O'P'Q'R'6'5>5>S'T'T;U'V'h-+;W'X'Y'Z'`' ).)+)@)#)$)%)S,(-&)*)=)-);)-&>),)')))!)~){)6,])^)/)()",
"9 0 n+r@_):)<)[)('})|)-$1)2)3)4)5)6)7)3'8)9)0)a)b)c)d)e)f)g-O>g)h)i)j)k)l)m)n)o)p)q)r)s)>'d=k't)u)v)w)x)y)z)A)B)C)Q>w','D)E)F)G)",
"9 0 a #+H)I)J)K)L)M)N)O)P)Q)R)S)5)T)N'U)V)W)X)X)Y)Z)`) !.!+!@!#!W'$!%!&!*!=!-!;!>!,!'!)!!!~!{!]!^!/!(!)&_!:!<![!C)}!|!1!2!3!4!5!",
"9 0 a a p@6!7!8!9!0!a!b!c!d!e!f!g!T)h!i!j!k!l!m!n!o!p!q!r!s!g-U=t!u!v!w!x!y!z!A!B!C!D!E!F!G!#-H!I!J!K!L!M!N!O!#-V>P!v'2!Q!R!S!T!",
"9 0 a a U!V!W!X!Y!Z!a!`! ~.~+~f!g!@~#~$~%~m!&~*~=~-~;~>~,~.!U;'~)~!~~~{~]~^~/~(~_~:~<~[~}~|~#-j;1~2~3~4~5~6~7~8~Z;W'9~0~a~b~c~d~",
"e~<.a H f~g~h~i~j~k~l~`!m~n~o~p~q~h!r~s~t~u~v~w~x~y~z~A~B~C~i-X;e=X>D~E~F~G~H~I~J~K~L~M~N~$-O~P~Q~R~S~T~U~V~W~X~a>Y~Z~P!`~ {.{+{",
"@{#{${%{&{*{={-{;{>{,{'{){!{~{{{]{^{/{({_{:{<{[{}{|{1{2{3{N,#;4{5{6{7{8{9{0{a{b{c{d{e{f{g{k'*;.>h{i{j{k{l{m{n{o{W>p{Y~q{d=r{s{t{",
"u{v{w{x{y{z{A{B{C{D{E{F{G{H{I{{{g!J{K{L{M{N{O{P{Q{R{S{T{^{U{V{W{X{Y{Z{&)`{ ].]+]@]#]$]Y{g{*;i;%]&]*]=]-];]>],]']g,)]a>!]~]{]]]^]",
"/](]_]:]<][]}]|]1]>{,{2]3]4]5]6]7]8]9]0]a]b]c]d]e]f]g]h]i]j]k]#;V=l]+-m]n]o]o]n]p]6{m]q]q]r]6{s]t]u]v]w]x]y]z]A]g;$-%;B]C]D]E]F]",
"G]H]I]J]K]L]M]N]O]P],{Q]R]S]T]U]V]W]X]Y]Z]`] ^.^+^@^#^$^%^&^*^=^@!c;-^Y{;^>^o]o],^p]'^)^!^~^{^o]]^^^/^(^_^:^<^[^.>Z{%-}^|^1^2^O@",
"3^4^5^6^7^8^9^0^a^b^c^d^e^f^g^6]h^i^j^k^l^m^n^o^p^q^r^s^t^u^v^w^c;''x^y^z^A^B^C^D^;^E^F^G^H^I^J^K^L^M^n;N^O^P^Q^R^S^k'T^U^V^W^n+",
"X^Y^Z^`^ /./+/@/#/$/%/&/*/=/-/;/>/,/'/)/!/~/{/]/^///(/_/:/</[/}/|/1/=^2/3/4/5/6/7/5/8/9/9/0/a/b/c/d/e/f/g/h/i/j/k/n]l/m/n/o/p/n+",
"q/r/s/t/u/v/w/x/b^y/z/A/B/C/D/E/6]F/G/H/I/J/K/L/M/N/O/P/Q/R/S/T/U/V/W/X/Y/Z/`/ (.(`/+(@(#($(%(&(*(=(-(;(>(,('()(!(~({(](^(/(H a ",
"((_(:(<([(}(|(1(2(3(4(5(6(7(8(9(0(a(b(c(d(e(f(g(v^O/h(i(j(k(l(m(n(o(p(q(r(s(t(u(v(w(x(y(z(A(9/B(C(D(E(F(G(n$H(I(J(K(L(M(N(T+a a ",
"O(P(Q(R(S(T(U(V(W(X(z/Y(Q]Z(`( _._+_@_#_$_%_&_*_=_-_;_>_,_'_)_!_~_{_]_^_/_(___:_<_[_}_|_1_2_3_4_5_6_7_8_9_0_a_b_c_d_e_f_a a a a ",
"g_h_i_j_k_l_m_n_o_V(p_q_r_s_t_u_v_w_I{x_y_z_A_B_C_D_E_F_G_H_I_J_K_L_M_N_O_P_Q_R_S_T_U_V_W_X_Y_Z_`_ :.:+:@:#:$:%:&:*:F]a a a a a ",
"=:-:;:>:,:':):!:~:{:]:^:/:(:_:::<:[:}:|:1:2:3:4:5:F_6:7:8:9:0:a:b:c:d:e:f:g:h:i:j:k:l:m:n:o:p:q:r:s:t:u:v:w:x:y:z:A:B:C:D:E:F:G:",
"H:I:J:K:L:M:N:O:P:Q:R:S:T:U:V:W:X:Y:Z:`: <.<+<@<#<$<%<&<*<=<-<;<><,<'<)<!<~<{<]<^</<(<_<:<<<[<}<|<1<2<3<4<5<6<7<8<9<0<a<b<c<d<e<",
"f<g<J:h<i<j<k<l<m<n<o<p<q<W(1(r<s<t<u<v<w<x<y<z<A<B<C<D<E<F<G<H<I<J<I<K<L<M<N<O<P<Q<R<S<T<U<V<W<X<Y<Z<`< [.[+[@[#[$[%[&[*[=[-[;[",
">[,['[)[![~[{[][^[/[([_[:[<[[[}[|[1[2[3[4[5[6[7[8[9[0[a[b[c[d[e[f[f[g[h[i[j[k[l[v<m[n[o[p[q[r[s[t[u[v[w[x[y[z[A[B[w[C[[=D[E[F[G[",
"H[I[J[K[L[M[N[O[P[Q[R[S[T[U[V[[[W[X[Y[Z[`[ }.}+}@}#}$}%}&}*}=}-};}>},}'})}!}~}{}]}^}/}(}_}:}<}[})&A&}}<#E@|}1}2}>)3}4}f&5}6}7}8}",
"9}0}a}b}c}d}e}f}g}h}i}j}k}l}m}n}o}p}q}r}s}t}u}v}w}x}y}z}A}B}C}D}E}F}G}H}I}J}K}L}M}N}O}P}Q}R}S}T}g&-.U}V}l$W}j.i$X}Y}/$X}C@3}3}Z}",
"`} |.|+|@|#|$|%|&|*|=|-|;|>|,|'|)|!|~|{|]|^|/|(|_|:|<|[|}|||1|2|3|4|5|6|7|8|9|0|a|b|c|d|e|f| *C@-.g|h|i|j|k|m$l|o'm|n|4}o|X}E@p|",
"1-q|r|s|t|u|v|w|x|y|z|A|B|C|D|E|F|G|H|I|J|K|L|M|N|O|P|Q|R|S|T|U|V|W|X|Y|Z|`| 1.1+1@1#1$1%1&1*1=1-1|%;1>1J$,1'1L$)1n|!1~1i$W}w]=1",
"1-{1]1^1/1(1_1:1<1[1}1|1^[11213141516171819101a1b1c1d1e1f1g1h1i1j1k1l1m1n1o1p1q1S}e|6*r1`&s1-#t1k|u1v1w1x1y1z1A1B1C15@D1E1C1D1k@",
"|&,.F1G1H1I1J1K1L1M1N1O1P1Q1R1S1T1U1V1W1X1Y1Z1`1 2.2+2@2Y&#2$2%2&2*2=2-2;2>2,2)#'2)2&1!2~2{26+k|]2^2/2(2_2:2/2<2[2J&}2|212|22232",
"|&,.D 42526272829202a2b2c2d2e2f2S-g2h2i2j2k2l2m2n2o2p2q2r2E[F[s2t2u2v2w2x2y2z2A2B2C2D2E2F2G2H2I2J2K2L2 @M2}%N2K.O2P2B1Q2R2R2i|S2",
"|&,.D K T2U2V2W2X2Y2Z2`2 3.3F@k,+3F&%.@3#3$3%3&3*3_,=3-3T-T-8*;3>3,3'3)3!3~3{3]3J+^3/3(3_3m,k@i|K.:3<3[3}3|3I$1323m$T@>1334353i|"};
