/* XPM */
static char * wall3_xpm[] = {
"64 64 49 1",
" 	c #010102",
".	c #070708",
"+	c #040405",
"@	c #08090A",
"#	c #0D0D0F",
"$	c #08080A",
"%	c #0F1012",
"&	c #141619",
"*	c #111215",
"=	c #191B1E",
"-	c #1E1F23",
";	c #1A1B1E",
">	c #25272C",
",	c #28292E",
"'	c #202125",
")	c #303338",
"!	c #33363C",
"~	c #292C32",
"{	c #404249",
"]	c #3F434A",
"^	c #4D5058",
"/	c #535761",
"(	c #5A5D67",
"_	c #5D616B",
":	c #32353C",
"<	c #8C909D",
"[	c #6C707D",
"}	c #6E7380",
"|	c #707582",
"1	c #6C3F44",
"2	c #676C76",
"3	c #6B3E41",
"4	c #646973",
"5	c #6B3C3F",
"6	c #626771",
"7	c #5F626C",
"8	c #5C5F69",
"9	c #575A64",
"0	c #4E525A",
"a	c #7F7064",
"b	c #494D55",
"c	c #7D6E61",
"d	c #807675",
"e	c #706766",
"f	c #494646",
"g	c #2F2B2D",
"h	c #373435",
"i	c #413C3C",
"j	c #504949",
"                                                                ",
"...........+++++++++@......................+++++++++@...........",
"###########$$$$$$$$$%######################$$$$$$$$$%###########",
"&&&&&&&&&&&*********=&&&&&&&&&&&&&&&&&&&&&&*********=&&&&&&&&&&&",
"-----------;;;;;;;;;>----------------------;;;;;;;;;>-----------",
",,,,,,,,,,,'''''''''),,,,,,,,,,,,,,,,,,,,,,'''''''''),,,,,,,,,,,",
"!!!!!!!!!!!~~~~~~~~~{!!!!!!!!!!!!!!!!!!!!!!~~~~~~~~~{!!!!!!!!!!!",
"]]]]]]]]]]]---------]]]]]]]]]]]]]]]]]]]]]]]---------]]]]]]]]]]]]",
"^^^^^^^^^^^^^^^^^^^^^^^^^^^^^^^^^^^^^^^^^^^^^^^^^^^^^^^^^^^^^^^^",
"////////////////////////////////////////////////////////////////",
"((((((((((((((((((((((((((((((((((((((((((((((((((((((((((((((((",
"________________________________________________________________",
"::::::::::::::::::::::::::::::::::::::::::::::::::::::::::::::::",
"<<<<<<<<<<<<<<<<<<<<<<<<<<<<<<<<<<<<<<<<<<<<<<<<<<<<<<<<<<<<<<<<",
"[[[[[[[[[[[[[[[[[[[[[[[<:[[[[[[[[[[[[[[[[[[[[[[<:[[[[[[[[[<:[[[[",
"}}}}}}}}}}}}}}}}}}}}}}}<:}}}}}}}}}}}}}}}}}}}}}}<:}}}}}}}}}<:}}}}",
"|||||||||||||||||||||||<:||<|||||||||||||||||<|<:|||||||||<:||||",
"}}}}}}}}}}}}}}}}}}}}}}}<:}}:}}}}}}}}}}}}}}}}}:}<:}}}}}}}}}<:}}}}",
"}}}}}}}}}}}}}}}}}}}}}}}<:}}}}}}}}}}}}}}}}}}}}}}<:}}}}}}}}}<:}}}}",
"}}}}}}}}}}}}}}}}}}}}}}}<:}}}}}}}}}}}}}}}}}}}}}}<:}}}}}}}}}<:}}}}",
"[[[[[[[[[[[[[[[[[[[[[[[<:[[[[[[[[[[[[[[[[[[[[[[<:[[[[[[[[[<:[[[[",
"[[[[[[[[[[[[[[[[[[[[[[[<:[[[[[[[[[[[[[[[[[[[[[[<:[[[[[[[[<:[[[[[",
"[[[[[[[[111111[[[[[[[[[<:[[[[[[[[[[[[[[[[[[[[[[<:[[[[[[[<:[[[[[[",
"22222222332223222222222<:2222222222222222222222<:222222<:2222222",
"22222222333322222222222<:2222222222222222222222<:22222<:22222222",
"22222222333322222222222<:2222222222222222222222<:2222<:222222222",
"44444444554445444444444<:4444444444444444444444<:444<:4444444444",
"44444444555555444444444<:::::::::::::::::::::::::44<:44444444444",
"44444444444444444444444<:<<<<<<<<<<<<<<<<<<<<<<<:4<:444444444444",
"44444444444444444444444<:4444444444444444444444<:<:4444444444444",
"66666666666666666666666<:6666666666666666666666<::66666666666666",
"66666666666666666666666<:66<66666666666666666<6<:666666666666666",
"66666666666666666666666<:66:66666666666666666:6<:666666666666666",
"77777777777777777777777<:7777777777777777777777<:777777777777777",
"7777777777777777777777<::7777777777777777777777<:777777777777777",
"777777777777777777777<:<:7777777777777777777777<:777777777777777",
"88888888888888888888<:8<:8888888888888888888888<:888888888888888",
"8888888888888888888<:88<:8888888888888888888888<::88888888888888",
"888888888888888888<:888<:8888888888888888888888<:::8888888888888",
"99999999999999999<:9999<:9999999999999999999999<:::9999999999999",
"9999999999999999<:99999<:9999999999999999999999<:::9999999999999",
"999999999999999<:999999<:9999999999999999999999<:::9999999999999",
"//////////////<:///////<://////////////////////<::://///////////",
"/////////////<:////////<://////////////////////<::://///////////",
"////////////<://///////<://////////////////////<:://////////////",
"00000000000<:0000000000<:0000000000000000000000<:000000000000000",
"0000000000<:00000000000<:0000000000000000000000<:000000000000000",
"000000000<:000000000000<:0000000000000000000000<:000000000000000",
"^^^^^^^^<:^^^^^^^^^^^^^<:^^^^^^^^^^^^^^^^^^^^^^<:^^^^^^^^^^^^^^^",
"^^^^^^^<:^^^^^^^^^^^^^^<:^^^^^^^^^^^^^^^^^^^^^^<:^^^^^^^^^^^^^^^",
"^^^^^^^<:^^^^^^^^^^^^^^<:^^aaa^^^aaa^^^aaa^^^aa<:^^^^^^^^^^^^^^^",
"bbbbbbb<:bbbbbbbbbbbbbb<:bcccbbbcccbbbcccbbbccc<:bbbbbbbbbbbbbbb",
"bbbbbbb<:bbbbbbbbbbbbbb<:cccbbbcccbbbcccbbbcccb<:bbbbbbbbbbbbbbb",
"bbbbbbb<:bbbbbbbbbbbbbb<:ccbbbcccbbbcccbbbcccbb<:bbbbbbbbbbbbbbb",
"::::::::::::::::::::::::::::::::::::::::::::::::::::::::::::::::",
"dddddddddddddddddddddddddddddddddddddddddddddddddddddddddddddddd",
"eeeeeeeeeeeeeeeeeeeeeeeeeeeeeeeeeeeeeeeeeeeeeeeeeeeeeeeeeeeeeeee",
"ffffffffffffffffffffffffffffffffffffffffffffffffffffffffffffffff",
"gggggggggggggggggggggggggggggggggggggggggggggggggggggggggggggggg",
"hhhhhhhhhhhhhhhhhhhghhhhhhhhhhhhhhhhhhhhghhhhhhhhhhhhhhhhhhhhhhh",
"iiiiiiiiiiiiiiiiiiigiiiiiiiiiiiiiiiiiiiigiiiiiiiiiiiiiiiiiiiiiii",
"jjjjjjjjjjjjjjjjjjjgjjjjjjjjjjjjjjjjjjjjgjjjjjjjjjjjjjjjjjjjjjjj",
"hhhhhhhhhhhhhhhhhhhghhhhhhhhhhhhhhhhhhhhghhhhhhhhhhhhhhhhhhhhhhh",
"gggggggggggggggggggggggggggggggggggggggggggggggggggggggggggggggg"};
